; generated by Slic3r 1.2.9 on 2017-03-21 at 19:19:41

; external perimeters extrusion width = 0.50mm
; perimeters extrusion width = 0.50mm
; infill extrusion width = 0.50mm
; solid infill extrusion width = 0.50mm
; top infill extrusion width = 0.50mm

M107
M190 S80 ; set bed temperature
M104 S215 ; set temperature
G28 ; home all axes
G1 Z5 F5000 ; lift nozzle

M109 S215 ; wait for temperature to be reached
G21 ; set units to millimeters
G90 ; use absolute coordinates
M82 ; use absolute distances for extrusion
G92 E0
G1 Z0.500 F2400.000
G1 E-2.00000 F2400.00000
G92 E0
G1 X96.963 Y97.027 F2400.000
G1 E2.00000 F2400.00000
G1 X97.288 Y96.727 E2.03613 F1014.665
G1 X97.644 Y96.462 E2.07235
G1 X98.025 Y96.236 E2.10847
G1 X98.362 Y96.078 E2.13884
G1 X98.777 Y95.929 E2.17487
G1 X99.138 Y95.838 E2.20524
G1 X99.575 Y95.771 E2.24135
G1 X99.999 Y95.750 E2.27603 F1014.665
G1 X100.389 Y95.768 E2.30783
G1 X100.827 Y95.831 E2.34398
G1 X101.256 Y95.940 E2.38011
G1 X101.606 Y96.065 E2.41047
G1 X102.006 Y96.253 E2.44658
G1 X102.370 Y96.472 E2.48127
G1 X102.683 Y96.704 E2.51307
G1 X103.012 Y97.001 E2.54922
G1 X103.308 Y97.331 E2.58544
G1 X103.568 Y97.690 E2.62157
G1 X103.756 Y98.011 E2.65193
G1 X103.942 Y98.412 E2.68806
G1 X104.086 Y98.831 E2.72418
G1 X104.173 Y99.192 E2.75455
G1 X104.234 Y99.629 E2.79059
G1 X104.250 Y100.001 E2.82095
G1 X104.227 Y100.443 E2.85708
G1 X104.158 Y100.880 E2.89320
G1 X104.065 Y101.240 E2.92357
G1 X103.915 Y101.655 E2.95961
G1 X103.755 Y101.991 E2.98997
G1 X103.527 Y102.371 E3.02610
G1 X103.262 Y102.725 E3.06222
G1 X103.011 Y103.000 E3.09259
G1 X102.684 Y103.296 E3.12863
G1 X102.385 Y103.518 E3.15899
G1 X102.007 Y103.747 E3.19512
G1 X101.605 Y103.936 E3.23133
G1 X101.187 Y104.081 E3.26746
G1 X100.827 Y104.169 E3.29774
G1 X100.460 Y104.225 E3.32801
G1 X100.018 Y104.250 E3.36414
G1 X99.575 Y104.229 E3.40035
G1 X99.138 Y104.162 E3.43648
G1 X98.777 Y104.071 E3.46684
G1 X98.361 Y103.921 E3.50297
G1 X97.962 Y103.730 E3.53910
G1 X97.643 Y103.537 E3.56946
G1 X97.289 Y103.274 E3.60550
G1 X97.013 Y103.024 E3.63586
G1 X96.715 Y102.697 E3.67199
G1 X96.452 Y102.340 E3.70821
G1 X96.228 Y101.959 E3.74434
G1 X96.071 Y101.621 E3.77468
G1 X95.929 Y101.222 E3.80928
G1 X95.834 Y100.845 E3.84106
G1 X95.771 Y100.425 E3.87568
G1 X95.750 Y100.036 E3.90748
G1 X95.769 Y99.594 E3.94363
G1 X95.834 Y99.155 E3.97985
G1 X95.945 Y98.726 E4.01598
G1 X96.072 Y98.377 E4.04635
G1 X96.267 Y97.967 E4.08344
G1 X96.453 Y97.659 E4.11276
G1 X96.714 Y97.304 E4.14878
G1 X96.913 Y97.083 E4.17302
G1 X96.852 Y96.598 F2400.000
G1 X96.604 Y96.688 F2400.000
G1 X97.033 Y96.291 E4.22072 F1014.665
G1 X97.437 Y96.001 E4.26129
G1 X97.868 Y95.756 E4.30182
G1 X98.263 Y95.579 E4.33713
G1 X98.714 Y95.428 E4.37594
G1 X99.199 Y95.318 E4.41650
G1 X99.628 Y95.265 E4.45180
G1 X100.104 Y95.251 E4.49071
G1 X100.514 Y95.278 E4.52428
G1 X101.006 Y95.358 E4.56493 F1014.665
G1 X101.404 Y95.462 E4.59848
G1 X101.870 Y95.634 E4.63904
G1 X102.316 Y95.853 E4.67958
G1 X102.683 Y96.081 E4.71489
G1 X103.062 Y96.369 E4.75370
G1 X103.424 Y96.708 E4.79425
G1 X103.709 Y97.034 E4.82956
G1 X103.987 Y97.419 E4.86837
G1 X104.235 Y97.850 E4.90895
G1 X104.406 Y98.225 E4.94260
G1 X104.543 Y98.614 E4.97624
G1 X104.663 Y99.096 E5.01680
G1 X104.732 Y99.587 E5.05727
G1 X104.749 Y100.083 E5.09775
G1 X104.714 Y100.578 E5.13831
G1 X104.646 Y100.985 E5.17195
G1 X104.544 Y101.384 E5.20559
G1 X104.374 Y101.851 E5.24615
G1 X104.157 Y102.298 E5.28671
G1 X103.943 Y102.649 E5.32027
G1 X103.644 Y103.046 E5.36083
G1 X103.306 Y103.410 E5.40139
G1 X102.999 Y103.683 E5.43494
G1 X102.598 Y103.976 E5.47550
G1 X102.168 Y104.226 E5.51604
G1 X101.775 Y104.405 E5.55135
G1 X101.326 Y104.561 E5.59016
G1 X100.842 Y104.675 E5.63074
G1 X100.434 Y104.730 E5.66429
G1 X99.937 Y104.749 E5.70494
G1 X99.526 Y104.726 E5.73850
G1 X99.035 Y104.651 E5.77906
G1 X98.555 Y104.525 E5.81959
G1 X98.149 Y104.374 E5.85490
G1 X97.721 Y104.167 E5.89372
G1 X97.298 Y103.907 E5.93430
G1 X96.971 Y103.658 E5.96785
G1 X96.605 Y103.322 E6.00841
G1 X96.277 Y102.949 E6.04897
G1 X96.036 Y102.616 E6.08253
G1 X95.784 Y102.188 E6.12309
G1 X95.579 Y101.735 E6.16362
G1 X95.439 Y101.326 E6.19893
G1 X95.329 Y100.863 E6.23774
G1 X95.265 Y100.371 E6.27830
G1 X95.251 Y99.939 E6.31360
G1 X95.281 Y99.464 E6.35242
G1 X95.362 Y98.974 E6.39300
G1 X95.468 Y98.577 E6.42655
G1 X95.642 Y98.110 E6.46720
G1 X95.822 Y97.740 E6.50075
G1 X96.081 Y97.316 E6.54132
G1 X96.382 Y96.922 E6.58179
G1 X96.553 Y96.742 E6.60203
G1 X97.085 Y96.825 F2400.000
G1 X96.785 Y96.855 F2400.000
G1 X97.189 Y96.488 E6.64658 F1014.665
G1 X97.572 Y96.213 E6.68508
G1 X97.982 Y95.980 E6.72354
G1 X98.355 Y95.814 E6.75687
G1 X98.782 Y95.670 E6.79365
G1 X99.242 Y95.567 E6.83215
G1 X99.553 Y95.524 E6.85775
G1 X100.001 Y95.502 E6.89442
G1 X100.409 Y95.520 E6.92777
G1 X100.954 Y95.604 E6.97274
G1 X101.329 Y95.701 E7.00434
G1 X101.771 Y95.865 E7.04285
G1 X102.126 Y96.036 E7.07498
G1 X102.511 Y96.267 E7.11165
G1 X102.899 Y96.561 E7.15143
G1 X103.243 Y96.883 E7.18992
G1 X103.514 Y97.189 E7.22325
G1 X103.777 Y97.555 E7.26005
G1 X103.977 Y97.898 E7.29242
G1 X104.174 Y98.319 E7.33038
G1 X104.302 Y98.686 E7.36215
G1 X104.418 Y99.148 E7.40105
G1 X104.483 Y99.609 E7.43901
G1 X104.498 Y100.078 E7.47735
G1 X104.473 Y100.472 E7.50951
G1 X104.402 Y100.933 E7.54763
G1 X104.304 Y101.312 E7.57956
G1 X104.144 Y101.754 E7.61793
G1 X103.972 Y102.111 E7.65026
G1 X103.736 Y102.508 E7.68804
G1 X103.453 Y102.886 E7.72657
G1 X103.184 Y103.177 E7.75890
G1 X102.842 Y103.489 E7.79668
G1 X102.460 Y103.766 E7.83519
G1 X102.121 Y103.967 E7.86736
G1 X101.682 Y104.173 E7.90698
G1 X101.256 Y104.321 E7.94378
G1 X100.796 Y104.428 E7.98233
G1 X100.413 Y104.479 E8.01392
G1 X99.939 Y104.498 E8.05261
G1 X99.552 Y104.478 E8.08421
G1 X99.086 Y104.406 E8.12273
G1 X98.631 Y104.285 E8.16119
G1 X98.267 Y104.152 E8.19279
G1 X97.841 Y103.948 E8.23132
G1 X97.503 Y103.742 E8.26369
G1 X97.131 Y103.467 E8.30147
G1 X96.785 Y103.146 E8.33998
G1 X96.522 Y102.853 E8.37215
G1 X96.245 Y102.479 E8.41009
G1 X96.008 Y102.077 E8.44823
G1 X95.812 Y101.643 E8.48707
G1 X95.680 Y101.257 E8.52040
G1 X95.577 Y100.818 E8.55719
G1 X95.524 Y100.448 E8.58769
G1 X95.502 Y100.035 E8.62145
G1 X95.522 Y99.567 E8.65967 F1014.665
G1 X95.592 Y99.103 E8.69800
G1 X95.706 Y98.653 E8.73594
G1 X95.842 Y98.283 E8.76807
G1 X96.041 Y97.860 E8.80623
G1 X96.248 Y97.519 E8.83877
G1 X96.524 Y97.145 E8.87671
G1 X96.735 Y96.910 E8.90248
M104 S200 ; set temperature
G1 Z1.000 F2400.000
G1 X96.963 Y97.027 F2400.000
G1 X97.288 Y96.727 E8.93861 F900.000
G1 X97.644 Y96.462 E8.97483
G1 X98.025 Y96.236 E9.01096
G1 X98.362 Y96.078 E9.04132
G1 X98.777 Y95.929 E9.07736
G1 X99.138 Y95.838 E9.10772
G1 X99.574 Y95.771 E9.14379
G1 X99.963 Y95.750 E9.17559 F900.000
G1 X100.388 Y95.767 E9.21027
G1 X100.827 Y95.831 E9.24647
G1 X101.256 Y95.940 E9.28260
G1 X101.606 Y96.065 E9.31296
G1 X102.006 Y96.253 E9.34902
G1 X102.340 Y96.452 E9.38082
G1 X102.683 Y96.704 E9.41551
G1 X103.012 Y97.001 E9.45171
G1 X103.307 Y97.331 E9.48783
G1 X103.528 Y97.630 E9.51820
G1 X103.755 Y98.009 E9.55426
G1 X103.921 Y98.361 E9.58606
G1 X104.066 Y98.761 E9.62074
G1 X104.172 Y99.190 E9.65688
G1 X104.229 Y99.576 E9.68868
G1 X104.250 Y100.000 E9.72336
G1 X104.227 Y100.442 E9.75950
G1 X104.169 Y100.827 E9.79130
G1 X104.065 Y101.240 E9.82598
G1 X103.914 Y101.656 E9.86211
G1 X103.746 Y102.007 E9.89392
G1 X103.528 Y102.370 E9.92854
G1 X103.296 Y102.683 E9.96032
G1 X103.012 Y102.998 E9.99491
G1 X102.739 Y103.250 E10.02525
G1 X102.387 Y103.517 E10.06129
G1 X102.071 Y103.712 E10.09163
G1 X101.689 Y103.900 E10.12637
G1 X101.327 Y104.038 E10.15804
G1 X100.899 Y104.154 E10.19419
G1 X100.461 Y104.225 E10.23040
G1 X100.018 Y104.250 E10.26662
G1 X99.575 Y104.229 E10.30284
G1 X99.137 Y104.162 E10.33899
G1 X98.760 Y104.065 E10.37079
G1 X98.360 Y103.921 E10.40548
G1 X97.962 Y103.730 E10.44158
G1 X97.643 Y103.537 E10.47195
G1 X97.289 Y103.274 E10.50799
G1 X97.013 Y103.024 E10.53835
G1 X96.715 Y102.697 E10.57448
G1 X96.452 Y102.340 E10.61069
G1 X96.228 Y101.959 E10.64682
G1 X96.071 Y101.622 E10.67712
G1 X95.940 Y101.256 E10.70883
G1 X95.835 Y100.846 E10.74345
G1 X95.775 Y100.461 E10.77523
G1 X95.750 Y100.038 E10.80985
G1 X95.764 Y99.648 E10.84163
G1 X95.820 Y99.227 E10.87632
G1 X95.923 Y98.797 E10.91245
G1 X96.051 Y98.429 E10.94425
G1 X96.227 Y98.042 E10.97894
G1 X96.452 Y97.660 E11.01513
G1 X96.714 Y97.304 E11.05126
G1 X96.913 Y97.083 E11.07550
G1 X96.852 Y96.598 F2400.000
G1 X96.604 Y96.688 F2400.000
G1 X97.033 Y96.291 E11.12321 F900.000
G1 X97.438 Y96.001 E11.16386
G1 X97.793 Y95.794 E11.19741
G1 X98.246 Y95.586 E11.23806
G1 X98.634 Y95.451 E11.27162
G1 X99.116 Y95.333 E11.31218
G1 X99.608 Y95.267 E11.35265
G1 X100.104 Y95.251 E11.39321
G1 X100.514 Y95.278 E11.42676
G1 X101.006 Y95.358 E11.46741 F900.000
G1 X101.404 Y95.462 E11.50097
G1 X101.870 Y95.634 E11.54153
G1 X102.315 Y95.853 E11.58200
G1 X102.735 Y96.117 E11.62249
G1 X103.109 Y96.410 E11.66130
G1 X103.423 Y96.707 E11.69663
G1 X103.736 Y97.067 E11.73551
G1 X103.987 Y97.419 E11.77081
G1 X104.235 Y97.849 E11.81135
G1 X104.436 Y98.303 E11.85184
G1 X104.583 Y98.755 E11.89065
G1 X104.678 Y99.177 E11.92596
G1 X104.738 Y99.671 E11.96659
G1 X104.749 Y100.082 E12.00016
G1 X104.717 Y100.557 E12.03906
G1 X104.646 Y100.985 E12.07446
G1 X104.544 Y101.384 E12.10807
G1 X104.374 Y101.851 E12.14864
G1 X104.157 Y102.297 E12.18913
G1 X103.907 Y102.701 E12.22794
G1 X103.645 Y103.045 E12.26325
G1 X103.306 Y103.410 E12.30387
G1 X102.999 Y103.683 E12.33743
G1 X102.598 Y103.976 E12.37801
G1 X102.187 Y104.216 E12.41682
G1 X101.794 Y104.398 E12.45213
G1 X101.325 Y104.561 E12.49266
G1 X100.843 Y104.674 E12.53315
G1 X100.371 Y104.735 E12.57196
G1 X99.938 Y104.749 E12.60736
G1 X99.526 Y104.726 E12.64098
G1 X99.034 Y104.651 E12.68163
G1 X98.636 Y104.550 E12.71518
G1 X98.167 Y104.382 E12.75583
G1 X97.795 Y104.207 E12.78939
G1 X97.368 Y103.953 E12.82995
G1 X96.970 Y103.658 E12.87042
G1 X96.605 Y103.322 E12.91089
G1 X96.277 Y102.949 E12.95145
G1 X96.036 Y102.616 E12.98501
G1 X95.784 Y102.188 E13.02557
G1 X95.578 Y101.735 E13.06613
G1 X95.445 Y101.346 E13.09968
G1 X95.329 Y100.863 E13.14024
G1 X95.265 Y100.371 E13.18073
G1 X95.251 Y99.896 E13.21955
G1 X95.280 Y99.465 E13.25485
G1 X95.362 Y98.974 E13.29548
G1 X95.468 Y98.577 E13.32903
G1 X95.642 Y98.110 E13.36968
G1 X95.822 Y97.740 E13.40324
G1 X96.081 Y97.316 E13.44380
G1 X96.382 Y96.922 E13.48427
G1 X96.553 Y96.742 E13.50451
G1 X97.085 Y96.825 F2400.000
G1 X96.785 Y96.855 F2400.000
G1 X97.189 Y96.488 E13.54906 F1200.000
G1 X97.509 Y96.254 E13.58140
G1 X97.908 Y96.016 E13.61934
G1 X98.269 Y95.848 E13.65185
G1 X98.704 Y95.691 E13.68963
G1 X99.163 Y95.580 E13.72815
G1 X99.551 Y95.524 E13.76017
G1 X99.964 Y95.503 E13.79392
G1 X100.408 Y95.520 E13.83019
G1 X100.954 Y95.604 E13.87525
G1 X101.329 Y95.701 E13.90685
G1 X101.771 Y95.865 E13.94537
G1 X102.124 Y96.035 E13.97739
G1 X102.479 Y96.248 E14.01114
G1 X102.945 Y96.601 E14.05883
G1 X103.242 Y96.881 E14.09219
G1 X103.539 Y97.222 E14.12911
G1 X103.776 Y97.555 E14.16243
G1 X104.011 Y97.963 E14.20089
G1 X104.201 Y98.393 E14.23926
G1 X104.303 Y98.692 E14.26503
G1 X104.430 Y99.219 E14.30936
G1 X104.487 Y99.689 E14.34799
G1 X104.498 Y100.077 E14.37962
G1 X104.467 Y100.528 E14.41658
G1 X104.401 Y100.933 E14.45009
G1 X104.305 Y101.310 E14.48181
G1 X104.144 Y101.754 E14.52034
G1 X103.937 Y102.176 E14.55871
G1 X103.733 Y102.511 E14.59074
G1 X103.487 Y102.843 E14.62446
G1 X103.190 Y103.171 E14.66057
G1 X102.896 Y103.442 E14.69323
G1 X102.529 Y103.720 E14.73080
G1 X102.070 Y103.993 E14.77438
G1 X101.700 Y104.165 E14.80771
G1 X101.255 Y104.319 E14.84616
G1 X100.949 Y104.396 E14.87193
G1 X100.491 Y104.471 E14.90982
G1 X99.941 Y104.498 E14.95479
G1 X99.552 Y104.478 E14.98652
G1 X99.085 Y104.406 E15.02512
G1 X98.689 Y104.304 E15.05848
G1 X98.262 Y104.151 E15.09551
G1 X97.846 Y103.949 E15.13330
G1 X97.506 Y103.746 E15.16563
G1 X97.129 Y103.465 E15.20397
G1 X96.785 Y103.146 E15.24231
G1 X96.522 Y102.853 E15.27447
G1 X96.245 Y102.479 E15.31241
G1 X96.008 Y102.077 E15.35055
G1 X95.812 Y101.642 E15.38945
G1 X95.686 Y101.276 E15.42104
G1 X95.576 Y100.818 E15.45955
G1 X95.516 Y100.351 E15.49792
G1 X95.503 Y100.038 E15.52355
G1 X95.518 Y99.625 E15.55726 F1200.000
G1 X95.578 Y99.180 E15.59395
G1 X95.686 Y98.725 E15.63211
G1 X95.822 Y98.335 E15.66585
G1 X96.008 Y97.925 E15.70255
G1 X96.246 Y97.521 E15.74085
G1 X96.524 Y97.145 E15.77898
G1 X96.735 Y96.910 E15.80476
G1 E13.80476 F2400.00000
G92 E0
M104 S0 ; turn off temperature
G28 X0  ; home X axis
M84     ; disable motors

; filament used = 13.8mm (0.0cm3)

; avoid_crossing_perimeters = 0
; bed_shape = 0x0,200x0,200x200,0x200
; bed_temperature = 80
; before_layer_gcode = 
; bridge_acceleration = 0
; bridge_fan_speed = 100
; brim_width = 0
; complete_objects = 0
; cooling = 1
; default_acceleration = 0
; disable_fan_first_layers = 3
; duplicate_distance = 6
; end_gcode = M104 S0 ; turn off temperature\nG28 X0  ; home X axis\nM84     ; disable motors\n
; extruder_clearance_height = 20
; extruder_clearance_radius = 20
; extruder_offset = 0x0
; extrusion_axis = E
; extrusion_multiplier = 1
; fan_always_on = 0
; fan_below_layer_time = 60
; filament_colour = #FF00FF
; filament_diameter = 1.75
; first_layer_acceleration = 0
; first_layer_bed_temperature = 80
; first_layer_extrusion_width = 0.5
; first_layer_speed = 30
; first_layer_temperature = 215
; gcode_arcs = 0
; gcode_comments = 0
; gcode_flavor = reprap
; infill_acceleration = 0
; infill_first = 0
; layer_gcode = 
; max_fan_speed = 100
; max_print_speed = 80
; max_volumetric_speed = 0
; min_fan_speed = 35
; min_print_speed = 10
; min_skirt_length = 0
; notes = 
; nozzle_diameter = 0.5
; only_retract_when_crossing_perimeters = 1
; ooze_prevention = 0
; output_filename_format = [input_filename_base].gcode
; perimeter_acceleration = 0
; post_process = 
; pressure_advance = 0
; resolution = 0
; retract_before_travel = 2
; retract_layer_change = 0
; retract_length = 2
; retract_length_toolchange = 10
; retract_lift = 0
; retract_restart_extra = 0
; retract_restart_extra_toolchange = 0
; retract_speed = 40
; skirt_distance = 6
; skirt_height = 1
; skirts = 0
; slowdown_below_layer_time = 5
; spiral_vase = 0
; standby_temperature_delta = -5
; start_gcode = G28 ; home all axes\nG1 Z5 F5000 ; lift nozzle\n
; temperature = 200
; threads = 2
; toolchange_gcode = 
; travel_speed = 40
; use_firmware_retraction = 0
; use_relative_e_distances = 0
; use_volumetric_e = 0
; vibration_limit = 0
; wipe = 0
; z_offset = 0
; dont_support_bridges = 1
; extrusion_width = 0.5
; first_layer_height = 0.5
; infill_only_where_needed = 0
; interface_shells = 0
; layer_height = 0.5
; raft_layers = 0
; seam_position = aligned
; support_material = 0
; support_material_angle = 0
; support_material_contact_distance = 0.2
; support_material_enforce_layers = 0
; support_material_extruder = 1
; support_material_extrusion_width = 0
; support_material_interface_extruder = 1
; support_material_interface_layers = 3
; support_material_interface_spacing = 0
; support_material_interface_speed = 100%
; support_material_pattern = pillars
; support_material_spacing = 2.5
; support_material_speed = 60
; support_material_threshold = 0
; xy_size_compensation = 0
; bottom_solid_layers = 3
; bridge_flow_ratio = 1
; bridge_speed = 60
; external_fill_pattern = rectilinear
; external_perimeter_extrusion_width = 0.5
; external_perimeter_speed = 50%
; external_perimeters_first = 0
; extra_perimeters = 1
; fill_angle = 45
; fill_density = 100%
; fill_pattern = rectilinear
; gap_fill_speed = 20
; infill_every_layers = 1
; infill_extruder = 1
; infill_extrusion_width = 0.5
; infill_overlap = 15%
; infill_speed = 40
; overhangs = 1
; perimeter_extruder = 1
; perimeter_extrusion_width = 0.5
; perimeter_speed = 40
; perimeters = 3
; small_perimeter_speed = 15
; solid_infill_below_area = 70
; solid_infill_every_layers = 0
; solid_infill_extruder = 1
; solid_infill_extrusion_width = 0.5
; solid_infill_speed = 20
; thin_walls = 1
; top_infill_extrusion_width = 0.5
; top_solid_infill_speed = 15
