; generated by Slic3r 1.2.9 on 2017-03-21 at 19:19:54

; external perimeters extrusion width = 0.50mm
; perimeters extrusion width = 0.50mm
; infill extrusion width = 0.50mm
; solid infill extrusion width = 0.50mm
; top infill extrusion width = 0.50mm

M107
M190 S80 ; set bed temperature
M104 S215 ; set temperature
G28 ; home all axes
G1 Z5 F5000 ; lift nozzle

M109 S215 ; wait for temperature to be reached
G21 ; set units to millimeters
G90 ; use absolute coordinates
M82 ; use absolute distances for extrusion
G92 E0
G1 Z0.500 F2400.000
G1 E-2.00000 F2400.00000
G92 E0
G1 X96.976 Y97.012 F2400.000
G1 E2.00000 F2400.00000
G1 X97.272 Y96.741 E2.03277 F1014.529
G1 X97.591 Y96.498 E2.06554
G1 X97.932 Y96.286 E2.09831
G1 X98.292 Y96.108 E2.13108
G1 X98.667 Y95.964 E2.16385
G1 X99.054 Y95.856 E2.19662
G1 X99.451 Y95.785 E2.22959
G1 X99.998 Y95.750 E2.27431 F1014.529
G1 X100.449 Y95.774 E2.31121
G1 X100.847 Y95.835 E2.34406
G1 X101.236 Y95.934 E2.37683
G1 X101.614 Y96.068 E2.40960
G1 X101.978 Y96.238 E2.44237
G1 X102.324 Y96.442 E2.47514
G1 X102.649 Y96.677 E2.50791
G1 X102.951 Y96.942 E2.54068
G1 X103.226 Y97.234 E2.57345
G1 X103.473 Y97.551 E2.60622
G1 X103.688 Y97.889 E2.63899
G1 X103.872 Y98.249 E2.67196
G1 X104.065 Y98.762 E2.71668
G1 X104.174 Y99.201 E2.75359
G1 X104.231 Y99.599 E2.78644
G1 X104.250 Y100.000 E2.81921
G1 X104.231 Y100.403 E2.85217
G1 X104.143 Y100.944 E2.89689
G1 X104.020 Y101.379 E2.93380
G1 X103.871 Y101.753 E2.96665
G1 X103.688 Y102.111 E2.99942
G1 X103.473 Y102.449 E3.03219
G1 X103.226 Y102.766 E3.06496
G1 X102.951 Y103.058 E3.09773
G1 X102.649 Y103.323 E3.13050
G1 X102.324 Y103.558 E3.16327
G1 X101.978 Y103.762 E3.19604
G1 X101.614 Y103.932 E3.22881
G1 X101.236 Y104.066 E3.26158
G1 X100.847 Y104.165 E3.29435
G1 X100.450 Y104.226 E3.32712
G1 X100.049 Y104.250 E3.35989
G1 X99.648 Y104.236 E3.39266
G1 X99.250 Y104.184 E3.42543
G1 X98.859 Y104.094 E3.45820
G1 X98.478 Y103.969 E3.49097
G1 X98.110 Y103.807 E3.52374
G1 X97.759 Y103.612 E3.55651
G1 X97.429 Y103.385 E3.58928
G1 X97.121 Y103.127 E3.62205
G1 X96.837 Y102.840 E3.65502
G1 X96.498 Y102.409 E3.69974
G1 X96.262 Y102.024 E3.73664
G1 X96.087 Y101.661 E3.76949
G1 X95.948 Y101.285 E3.80226
G1 X95.845 Y100.897 E3.83503
G1 X95.779 Y100.501 E3.86780
G1 X95.750 Y100.098 E3.90077
G1 X95.774 Y99.551 E3.94549
G1 X95.844 Y99.104 E3.98239
G1 X95.948 Y98.715 E4.01524
G1 X96.087 Y98.339 E4.04801
G1 X96.261 Y97.977 E4.08079
G1 X96.469 Y97.633 E4.11356
G1 X96.708 Y97.311 E4.14633
G1 X96.926 Y97.068 E4.17297
G1 X96.876 Y96.624 F2400.000
G1 X96.625 Y96.665 F2400.000
G1 X96.782 Y96.506 E4.19128 F1014.529
G1 X97.126 Y96.218 E4.22790
G1 X97.496 Y95.963 E4.26453
G1 X97.888 Y95.745 E4.30115
G1 X98.299 Y95.565 E4.33777
G1 X98.725 Y95.424 E4.37439
G1 X99.162 Y95.325 E4.41101
G1 X99.606 Y95.267 E4.44755
G1 X100.110 Y95.253 E4.48869
G1 X100.728 Y95.307 E4.53935
G1 X101.165 Y95.396 E4.57577 F1014.529
G1 X101.594 Y95.526 E4.61239
G1 X102.009 Y95.697 E4.64901
G1 X102.406 Y95.905 E4.68563
G1 X102.782 Y96.151 E4.72225
G1 X103.133 Y96.431 E4.75887
G1 X103.456 Y96.742 E4.79549
G1 X103.747 Y97.083 E4.83212
G1 X104.006 Y97.449 E4.86874
G1 X104.229 Y97.839 E4.90536
G1 X104.414 Y98.247 E4.94198
G1 X104.559 Y98.672 E4.97860
G1 X104.664 Y99.108 E5.01522
G1 X104.727 Y99.549 E5.05160
G1 X104.743 Y100.227 E5.10698
G1 X104.701 Y100.671 E5.14336
G1 X104.617 Y101.112 E5.17998
G1 X104.492 Y101.542 E5.21661
G1 X104.326 Y101.959 E5.25323
G1 X104.123 Y102.356 E5.28961
G1 X103.746 Y102.920 E5.34499
G1 X103.456 Y103.258 E5.38137
G1 X103.133 Y103.569 E5.41799
G1 X102.782 Y103.849 E5.45461
G1 X102.406 Y104.095 E5.49123
G1 X102.009 Y104.303 E5.52785
G1 X101.594 Y104.474 E5.56447
G1 X101.165 Y104.604 E5.60110
G1 X100.726 Y104.694 E5.63772
G1 X100.280 Y104.741 E5.67434
G1 X99.831 Y104.747 E5.71096
G1 X99.384 Y104.710 E5.74758
G1 X98.942 Y104.631 E5.78420
G1 X98.510 Y104.510 E5.82082
G1 X98.091 Y104.350 E5.85744
G1 X97.690 Y104.150 E5.89406
G1 X97.308 Y103.914 E5.93068
G1 X96.951 Y103.642 E5.96730
G1 X96.621 Y103.339 E6.00393
G1 X96.321 Y103.005 E6.04055
G1 X96.054 Y102.645 E6.07717
G1 X95.823 Y102.261 E6.11371
G1 X95.607 Y101.806 E6.15485
G1 X95.409 Y101.218 E6.20550
G1 X95.314 Y100.782 E6.24193
G1 X95.262 Y100.336 E6.27855
G1 X95.251 Y99.888 E6.31517
G1 X95.283 Y99.440 E6.35179
G1 X95.357 Y98.998 E6.38841
G1 X95.472 Y98.565 E6.42495
G1 X95.650 Y98.094 E6.46610
G1 X95.935 Y97.543 E6.51675
G1 X96.183 Y97.172 E6.55317
G1 X96.572 Y96.718 E6.60194
G1 X96.843 Y96.717 F2400.000
G1 X96.800 Y96.839 F2400.000
G1 X97.279 Y96.418 E6.65393 F1014.529
G1 X97.629 Y96.178 E6.68860
G1 X98.000 Y95.971 E6.72328
G1 X98.389 Y95.801 E6.75796
G1 X98.793 Y95.667 E6.79263
G1 X99.424 Y95.539 E6.84525
G1 X100.102 Y95.504 E6.90069
G1 X100.692 Y95.556 E6.94899
G1 X101.103 Y95.640 E6.98327
G1 X101.510 Y95.764 E7.01795
G1 X101.903 Y95.925 E7.05262
G1 X102.461 Y96.236 E7.10481
G1 X102.802 Y96.482 E7.13909
G1 X103.121 Y96.762 E7.17377
G1 X103.548 Y97.238 E7.22595
G1 X103.793 Y97.585 E7.26063
G1 X104.004 Y97.953 E7.29531
G1 X104.178 Y98.341 E7.32997
G1 X104.318 Y98.742 E7.36465
G1 X104.419 Y99.155 E7.39934
G1 X104.478 Y99.570 E7.43355
G1 X104.491 Y100.218 E7.48652
G1 X104.450 Y100.635 E7.52070
G1 X104.373 Y101.053 E7.55538
G1 X104.255 Y101.461 E7.59007
G1 X104.100 Y101.854 E7.62456
G1 X103.908 Y102.229 E7.65897
G1 X103.671 Y102.592 E7.69431
G1 X103.416 Y102.925 E7.72860
G1 X103.124 Y103.234 E7.76328
G1 X102.634 Y103.645 E7.81546
G1 X102.279 Y103.877 E7.85014
G1 X101.903 Y104.075 E7.88481
G1 X101.306 Y104.304 E7.93700
G1 X100.899 Y104.407 E7.97128
G1 X100.479 Y104.472 E8.00596
G1 X99.840 Y104.495 E8.05814
G1 X99.417 Y104.460 E8.09282
G1 X98.999 Y104.385 E8.12750
G1 X98.589 Y104.271 E8.16217
G1 X98.193 Y104.119 E8.19685
G1 X97.627 Y103.821 E8.24903
G1 X97.281 Y103.583 E8.28332
G1 X96.955 Y103.310 E8.31799
G1 X96.518 Y102.844 E8.37017
G1 X96.292 Y102.549 E8.40051
G1 X96.044 Y102.146 E8.43915
G1 X95.840 Y101.712 E8.47830
G1 X95.714 Y101.357 E8.50908
G1 X95.603 Y100.947 E8.54376
G1 X95.533 Y100.528 E8.57843
G1 X95.503 Y100.099 E8.61354
G1 X95.526 Y99.523 E8.66058 F1014.529
G1 X95.601 Y99.051 E8.69961
G1 X95.709 Y98.642 E8.73414
G1 X95.858 Y98.244 E8.76879
G1 X96.047 Y97.859 E8.80385
G1 X96.262 Y97.498 E8.83813
G1 X96.515 Y97.156 E8.87281
G1 X96.749 Y96.893 E8.90156
M104 S200 ; set temperature
G1 Z1.000 F2400.000
G1 X96.976 Y97.012 F2400.000
G1 X97.272 Y96.741 E8.93433 F900.000
G1 X97.591 Y96.498 E8.96710
G1 X97.932 Y96.286 E8.99987
G1 X98.292 Y96.108 E9.03264
G1 X98.667 Y95.964 E9.06541
G1 X99.054 Y95.856 E9.09818
G1 X99.450 Y95.785 E9.13103
G1 X99.900 Y95.752 E9.16793 F900.000
G1 X100.448 Y95.773 E9.21265
G1 X100.847 Y95.835 E9.24562
G1 X101.236 Y95.934 E9.27839
G1 X101.614 Y96.068 E9.31116
G1 X101.978 Y96.238 E9.34393
G1 X102.324 Y96.442 E9.37670
G1 X102.649 Y96.677 E9.40947
G1 X102.951 Y96.942 E9.44224
G1 X103.226 Y97.234 E9.47501
G1 X103.473 Y97.551 E9.50778
G1 X103.689 Y97.890 E9.54063
G1 X103.892 Y98.294 E9.57754
G1 X104.079 Y98.809 E9.62226
G1 X104.174 Y99.202 E9.65522
G1 X104.231 Y99.599 E9.68799
G1 X104.250 Y100.000 E9.72076
G1 X104.231 Y100.401 E9.75353
G1 X104.174 Y100.798 E9.78630
G1 X104.080 Y101.189 E9.81907
G1 X103.950 Y101.568 E9.85184
G1 X103.784 Y101.934 E9.88461
G1 X103.585 Y102.282 E9.91738
G1 X103.353 Y102.611 E9.95015
G1 X103.090 Y102.918 E9.98317
G1 X102.652 Y103.321 E10.03182
G1 X102.324 Y103.558 E10.06483
G1 X101.978 Y103.762 E10.09760
G1 X101.614 Y103.932 E10.13037
G1 X101.236 Y104.066 E10.16314
G1 X100.847 Y104.165 E10.19591
G1 X100.450 Y104.226 E10.22868
G1 X100.047 Y104.250 E10.26169
G1 X99.452 Y104.215 E10.31035
G1 X99.054 Y104.144 E10.34336
G1 X98.667 Y104.036 E10.37613
G1 X98.292 Y103.892 E10.40890
G1 X97.932 Y103.714 E10.44167
G1 X97.591 Y103.502 E10.47444
G1 X97.272 Y103.259 E10.50721
G1 X96.976 Y102.988 E10.53998
G1 X96.708 Y102.689 E10.57275
G1 X96.469 Y102.367 E10.60552
G1 X96.261 Y102.023 E10.63829
G1 X96.087 Y101.661 E10.67106
G1 X95.948 Y101.285 E10.70383
G1 X95.845 Y100.897 E10.73660
G1 X95.779 Y100.501 E10.76937
G1 X95.750 Y100.100 E10.80214
G1 X95.760 Y99.699 E10.83491
G1 X95.807 Y99.297 E10.86792
G1 X95.947 Y98.718 E10.91657
G1 X96.087 Y98.339 E10.94958
G1 X96.261 Y97.977 E10.98236
G1 X96.469 Y97.633 E11.01513
G1 X96.708 Y97.311 E11.04790
G1 X96.926 Y97.068 E11.07454
G1 X96.876 Y96.624 F2400.000
G1 X96.625 Y96.665 F2400.000
G1 X96.782 Y96.506 E11.09285 F900.000
G1 X97.126 Y96.218 E11.12947
G1 X97.496 Y95.963 E11.16610
G1 X97.888 Y95.745 E11.20272
G1 X98.299 Y95.565 E11.23934
G1 X98.725 Y95.424 E11.27596
G1 X99.162 Y95.325 E11.31258
G1 X99.605 Y95.267 E11.34900
G1 X100.225 Y95.257 E11.39965
G1 X100.727 Y95.306 E11.44080
G1 X101.165 Y95.396 E11.47734 F900.000
G1 X101.594 Y95.526 E11.51396
G1 X102.009 Y95.697 E11.55058
G1 X102.406 Y95.905 E11.58720
G1 X102.782 Y96.151 E11.62382
G1 X103.133 Y96.431 E11.66044
G1 X103.456 Y96.742 E11.69706
G1 X103.747 Y97.083 E11.73368
G1 X104.006 Y97.449 E11.77031
G1 X104.229 Y97.839 E11.80693
G1 X104.414 Y98.247 E11.84355
G1 X104.559 Y98.672 E11.88017
G1 X104.664 Y99.108 E11.91679
G1 X104.727 Y99.549 E11.95317
G1 X104.743 Y100.227 E12.00855
G1 X104.701 Y100.671 E12.04493
G1 X104.617 Y101.112 E12.08155
G1 X104.492 Y101.542 E12.11818
G1 X104.326 Y101.959 E12.15480
G1 X104.122 Y102.359 E12.19142
G1 X103.881 Y102.737 E12.22804
G1 X103.607 Y103.089 E12.26446
G1 X103.173 Y103.532 E12.31511
G1 X102.781 Y103.850 E12.35626
G1 X102.406 Y104.095 E12.39280
G1 X102.009 Y104.303 E12.42942
G1 X101.594 Y104.474 E12.46604
G1 X101.165 Y104.604 E12.50266
G1 X100.726 Y104.694 E12.53928
G1 X100.280 Y104.741 E12.57590
G1 X99.831 Y104.747 E12.61252
G1 X99.384 Y104.710 E12.64914
G1 X98.942 Y104.631 E12.68577
G1 X98.510 Y104.510 E12.72239
G1 X98.091 Y104.350 E12.75901
G1 X97.690 Y104.150 E12.79563
G1 X97.308 Y103.914 E12.83225
G1 X96.951 Y103.642 E12.86887
G1 X96.621 Y103.339 E12.90549
G1 X96.321 Y103.005 E12.94211
G1 X96.054 Y102.645 E12.97873
G1 X95.823 Y102.263 E13.01516
G1 X95.565 Y101.699 E13.06581
G1 X95.409 Y101.219 E13.10695
G1 X95.314 Y100.782 E13.14349
G1 X95.262 Y100.336 E13.18011
G1 X95.251 Y99.888 E13.21673
G1 X95.283 Y99.440 E13.25336
G1 X95.357 Y98.998 E13.28998
G1 X95.472 Y98.564 E13.32660
G1 X95.627 Y98.144 E13.36322
G1 X95.821 Y97.742 E13.39964
G1 X96.152 Y97.217 E13.45029
G1 X96.572 Y96.718 E13.50350
G1 X96.843 Y96.717 F2400.000
G1 X96.800 Y96.839 F2400.000
G1 X97.279 Y96.418 E13.55549 F1200.000
G1 X97.629 Y96.178 E13.59016
G1 X98.000 Y95.971 E13.62484
G1 X98.389 Y95.801 E13.65951
G1 X98.793 Y95.667 E13.69419
G1 X99.421 Y95.540 E13.74655
G1 X99.893 Y95.507 E13.78519
G1 X100.215 Y95.510 E13.81142
G1 X100.689 Y95.556 E13.85032
G1 X101.103 Y95.640 E13.88484
G1 X101.510 Y95.764 E13.91952
G1 X101.903 Y95.925 E13.95419
G1 X102.461 Y96.236 E14.00638
G1 X102.802 Y96.482 E14.04066
G1 X103.121 Y96.762 E14.07534
G1 X103.548 Y97.238 E14.12752
G1 X103.793 Y97.585 E14.16220
G1 X104.004 Y97.954 E14.19687
G1 X104.178 Y98.341 E14.23154
G1 X104.319 Y98.740 E14.26607
G1 X104.419 Y99.155 E14.30092
G1 X104.478 Y99.570 E14.33513
G1 X104.491 Y100.218 E14.38810
G1 X104.452 Y100.635 E14.42229
G1 X104.372 Y101.052 E14.45696
G1 X104.178 Y101.662 E14.50915
G1 X103.903 Y102.233 E14.56094
G1 X103.675 Y102.592 E14.59562
G1 X103.417 Y102.923 E14.62990
G1 X103.002 Y103.344 E14.67819
G1 X102.805 Y103.514 E14.69937
G1 X102.461 Y103.764 E14.73409
G1 X102.095 Y103.979 E14.76876
G1 X101.510 Y104.236 E14.82095
G1 X101.103 Y104.360 E14.85562
G1 X100.687 Y104.445 E14.89030
G1 X100.265 Y104.490 E14.92498
G1 X99.840 Y104.493 E14.95964
G1 X99.419 Y104.462 E14.99410
G1 X99.000 Y104.388 E15.02881
G1 X98.589 Y104.273 E15.06371
G1 X98.194 Y104.122 E15.09820
G1 X97.809 Y103.931 E15.13331
G1 X97.450 Y103.708 E15.16780
G1 X97.111 Y103.451 E15.20249
G1 X96.799 Y103.163 E15.23719
G1 X96.514 Y102.847 E15.27188
G1 X96.261 Y102.506 E15.30658
G1 X96.044 Y102.146 E15.34088
G1 X95.799 Y101.607 E15.38920
G1 X95.603 Y100.947 E15.44545
G1 X95.533 Y100.528 E15.48013
G1 X95.503 Y100.104 E15.51480
G1 X95.513 Y99.679 E15.54948 F1200.000
G1 X95.565 Y99.251 E15.58468
G1 X95.709 Y98.642 E15.63574
G1 X95.857 Y98.241 E15.67066
G1 X96.040 Y97.863 E15.70496
G1 X96.266 Y97.495 E15.74022
G1 X96.516 Y97.157 E15.77451
G1 X96.749 Y96.893 E15.80325
G1 E13.80325 F2400.00000
G92 E0
M104 S0 ; turn off temperature
G28 X0  ; home X axis
M84     ; disable motors

; filament used = 13.8mm (0.0cm3)

; avoid_crossing_perimeters = 0
; bed_shape = 0x0,200x0,200x200,0x200
; bed_temperature = 80
; before_layer_gcode = 
; bridge_acceleration = 0
; bridge_fan_speed = 100
; brim_width = 0
; complete_objects = 0
; cooling = 1
; default_acceleration = 0
; disable_fan_first_layers = 3
; duplicate_distance = 6
; end_gcode = M104 S0 ; turn off temperature\nG28 X0  ; home X axis\nM84     ; disable motors\n
; extruder_clearance_height = 20
; extruder_clearance_radius = 20
; extruder_offset = 0x0
; extrusion_axis = E
; extrusion_multiplier = 1
; fan_always_on = 0
; fan_below_layer_time = 60
; filament_colour = #FF00FF
; filament_diameter = 1.75
; first_layer_acceleration = 0
; first_layer_bed_temperature = 80
; first_layer_extrusion_width = 0.5
; first_layer_speed = 30
; first_layer_temperature = 215
; gcode_arcs = 0
; gcode_comments = 0
; gcode_flavor = reprap
; infill_acceleration = 0
; infill_first = 0
; layer_gcode = 
; max_fan_speed = 100
; max_print_speed = 80
; max_volumetric_speed = 0
; min_fan_speed = 35
; min_print_speed = 10
; min_skirt_length = 0
; notes = 
; nozzle_diameter = 0.5
; only_retract_when_crossing_perimeters = 1
; ooze_prevention = 0
; output_filename_format = [input_filename_base].gcode
; perimeter_acceleration = 0
; post_process = 
; pressure_advance = 0
; resolution = 0
; retract_before_travel = 2
; retract_layer_change = 0
; retract_length = 2
; retract_length_toolchange = 10
; retract_lift = 0
; retract_restart_extra = 0
; retract_restart_extra_toolchange = 0
; retract_speed = 40
; skirt_distance = 6
; skirt_height = 1
; skirts = 0
; slowdown_below_layer_time = 5
; spiral_vase = 0
; standby_temperature_delta = -5
; start_gcode = G28 ; home all axes\nG1 Z5 F5000 ; lift nozzle\n
; temperature = 200
; threads = 2
; toolchange_gcode = 
; travel_speed = 40
; use_firmware_retraction = 0
; use_relative_e_distances = 0
; use_volumetric_e = 0
; vibration_limit = 0
; wipe = 0
; z_offset = 0
; dont_support_bridges = 1
; extrusion_width = 0.5
; first_layer_height = 0.5
; infill_only_where_needed = 0
; interface_shells = 0
; layer_height = 0.5
; raft_layers = 0
; seam_position = aligned
; support_material = 0
; support_material_angle = 0
; support_material_contact_distance = 0.2
; support_material_enforce_layers = 0
; support_material_extruder = 1
; support_material_extrusion_width = 0
; support_material_interface_extruder = 1
; support_material_interface_layers = 3
; support_material_interface_spacing = 0
; support_material_interface_speed = 100%
; support_material_pattern = pillars
; support_material_spacing = 2.5
; support_material_speed = 60
; support_material_threshold = 0
; xy_size_compensation = 0
; bottom_solid_layers = 3
; bridge_flow_ratio = 1
; bridge_speed = 60
; external_fill_pattern = rectilinear
; external_perimeter_extrusion_width = 0.5
; external_perimeter_speed = 50%
; external_perimeters_first = 0
; extra_perimeters = 1
; fill_angle = 45
; fill_density = 100%
; fill_pattern = rectilinear
; gap_fill_speed = 20
; infill_every_layers = 1
; infill_extruder = 1
; infill_extrusion_width = 0.5
; infill_overlap = 15%
; infill_speed = 40
; overhangs = 1
; perimeter_extruder = 1
; perimeter_extrusion_width = 0.5
; perimeter_speed = 40
; perimeters = 3
; small_perimeter_speed = 15
; solid_infill_below_area = 70
; solid_infill_every_layers = 0
; solid_infill_extruder = 1
; solid_infill_extrusion_width = 0.5
; solid_infill_speed = 20
; thin_walls = 1
; top_infill_extrusion_width = 0.5
; top_solid_infill_speed = 15
; top_solid_layers = 3
