; generated by Slic3r 1.2.9 on 2017-06-20 at 14:24:23

; external perimeters extrusion width = 0.40mm
; perimeters extrusion width = 0.40mm
; infill extrusion width = 0.40mm
; solid infill extrusion width = 0.40mm
; top infill extrusion width = 0.40mm
; support material extrusion width = 0.40mm

M107
M104 S250 ; set temperature

G1 Z5 F5000 ; lift nozzle

M109 S250 ; wait for temperature to be reached
G21 ; set units to millimeters
G90 ; use absolute coordinates
M82 ; use absolute distances for extrusion
G92 E0
G1 Z0.496 F3600.000
G1 E-2.00000 F2400.00000
G92 E0
G1 X30.714 Y11.983 F3600.000
G1 E2.00000 F2400.00000
G1 X30.529 Y9.174 E2.21319 F1500.000
G1 X30.388 Y6.119 E2.44485
G1 X30.293 Y2.447 E2.72301
G1 X30.276 Y-0.615 E2.95500
G1 X30.330 Y-4.284 E3.23292
G1 X30.438 Y-7.341 E3.46456
G1 X30.602 Y-10.393 E3.69607
G1 X30.873 Y-14.049 E3.97374
G1 X31.148 Y-16.904 E4.19099
G1 X31.251 Y-17.373 E4.22737
G1 X31.321 Y-17.502 E4.23851
G1 X31.371 Y-17.539 E4.24323
G1 X31.546 Y-17.583 E4.25687
G1 X31.901 Y-17.597 E4.28380
G1 X41.879 Y-16.733 E5.04240
G1 X49.847 Y-16.089 E5.64788 F1500.000
G1 X59.025 Y-15.404 E6.34496
G1 X68.911 Y-14.723 E7.09555
G1 X69.484 Y-14.635 E7.13941
G1 X69.701 Y-14.553 E7.15704
G1 X69.723 Y-14.300 E7.17623
G1 X69.378 Y-10.236 E7.48519
G1 X69.185 Y-7.168 E7.71798
G1 X69.045 Y-3.586 E7.98953
G1 X68.999 Y0.000 E8.26115
G1 X69.045 Y3.586 E8.53278
G1 X69.185 Y7.168 E8.80433
G1 X69.378 Y10.236 E9.03711
G1 X69.723 Y14.300 E9.34608
G1 X69.701 Y14.553 E9.36527
G1 X69.484 Y14.635 E9.38290
G1 X68.911 Y14.723 E9.42675
G1 X59.202 Y15.392 E10.16394
G1 X49.843 Y16.090 E10.87475
G1 X41.215 Y16.789 E11.53038
G1 X32.117 Y17.588 E12.22212
G1 X31.706 Y17.597 E12.25330
G1 X31.442 Y17.563 E12.27348
G1 X31.321 Y17.502 E12.28373
G1 X31.215 Y17.258 E12.30392
G1 X31.148 Y16.904 E12.33116
G1 X30.822 Y13.438 E12.59484
G1 X30.720 Y12.057 E12.69973
G1 X30.331 Y12.086 F3600.000
G1 X30.140 Y9.195 E12.91920 F1500.000
G1 X29.998 Y6.133 E13.15138
G1 X29.903 Y2.454 E13.43014
G1 X29.886 Y-0.617 E13.66273
G1 X29.941 Y-4.294 E13.94125
G1 X30.048 Y-7.358 E14.17347
G1 X30.213 Y-10.418 E14.40555
G1 X30.485 Y-14.082 E14.68384
G1 X30.762 Y-16.959 E14.90278
G1 X30.837 Y-17.353 E14.93318
G1 X30.887 Y-17.513 E14.94588
G1 X31.022 Y-17.755 E14.96686
G1 X31.104 Y-17.835 E14.97554
G1 X31.208 Y-17.895 E14.98462
G1 X31.502 Y-17.971 E15.00762
G1 X31.910 Y-17.988 E15.03855
G1 X41.912 Y-17.121 E15.79894
G1 X49.877 Y-16.478 E16.40424 F1500.000
G1 X59.053 Y-15.793 E17.10115
G1 X68.954 Y-15.110 E17.85289
G1 X69.584 Y-15.014 E17.90109
G1 X69.875 Y-14.903 E17.92468
G1 X69.955 Y-14.846 E17.93215
G1 X70.015 Y-14.777 E17.93906
G1 X70.089 Y-14.590 E17.95432
G1 X70.114 Y-14.300 E17.97635
G1 X69.766 Y-10.207 E18.28752
G1 X69.574 Y-7.149 E18.51963
G1 X69.435 Y-3.576 E18.79044
G1 X69.388 Y0.000 E19.06130
G1 X69.435 Y3.576 E19.33216
G1 X69.574 Y7.149 E19.60297
G1 X69.766 Y10.207 E19.83508
G1 X70.114 Y14.300 E20.14625
G1 X70.089 Y14.590 E20.16828
G1 X70.059 Y14.692 E20.17633
G1 X69.955 Y14.846 E20.19042
G1 X69.875 Y14.903 E20.19789
G1 X69.584 Y15.014 E20.22148
G1 X68.954 Y15.110 E20.26969
G1 X59.230 Y15.780 E21.00802
G1 X49.873 Y16.478 E21.71865
G1 X41.248 Y17.177 E22.37409
G1 X32.138 Y17.978 E23.06673
G1 X31.694 Y17.987 E23.10036
G1 X31.342 Y17.941 E23.12728
G1 X31.208 Y17.895 E23.13801
G1 X31.104 Y17.835 E23.14709
G1 X31.022 Y17.755 E23.15577
G1 X30.950 Y17.649 E23.16549
G1 X30.837 Y17.353 E23.18948
G1 X30.762 Y16.959 E23.21986
G1 X30.434 Y13.471 E23.48522
G1 X30.337 Y12.161 E23.58472
G1 X30.746 Y11.807 F3600.000
G1 X31.073 Y12.350 F3600.000
G1 X31.304 Y12.120 E23.60939 F1500.000
G1 X31.579 Y12.396 E23.63890
G1 X31.304 Y12.671 E23.66840
G1 X31.579 Y12.947 E23.69791
G1 X32.130 Y12.396 E23.75692
G1 X31.855 Y12.120 E23.78643
G1 X32.130 Y11.845 E23.81593
G1 X32.406 Y12.120 E23.84544
G1 X32.956 Y11.569 E23.90445
G1 X32.681 Y11.294 E23.93396
G1 X32.406 Y11.569 E23.96346
G1 X31.855 Y11.018 E24.02248
G1 X32.130 Y10.743 E24.05198
G1 X32.406 Y11.018 E24.08149
G1 X32.681 Y10.743 E24.11099
G1 X32.406 Y10.467 E24.14050
G1 X32.681 Y10.192 E24.17001
G1 X33.232 Y10.743 E24.22902
G1 X32.956 Y11.018 E24.25852
G1 X33.232 Y11.294 E24.28803
G1 X33.783 Y10.743 E24.34704
G1 X33.507 Y10.467 E24.37655
G1 X33.783 Y10.192 E24.40605
G1 X34.058 Y10.467 E24.43556
G1 X34.609 Y9.917 E24.49457
G1 X34.334 Y9.641 E24.52408
G1 X34.058 Y9.917 E24.55358
G1 X33.783 Y9.641 E24.58309
G1 X34.058 Y9.366 E24.61260
G1 X33.783 Y9.090 E24.64210
G1 X33.232 Y9.641 E24.70111
G1 X33.507 Y9.917 E24.73062
G1 X33.232 Y10.192 E24.76013
G1 X32.681 Y9.641 E24.81914
G1 X32.956 Y9.366 E24.84864
G1 X32.681 Y9.090 E24.87815
G1 X32.406 Y9.366 E24.90765
G1 X31.855 Y8.815 E24.96667
G1 X32.130 Y8.539 E24.99617
G1 X32.406 Y8.815 E25.02568
G1 X32.681 Y8.539 E25.05518
G1 X32.406 Y8.264 E25.08469
G1 X32.681 Y7.988 E25.11420
G1 X33.232 Y8.539 E25.17321
G1 X32.956 Y8.815 E25.20271
G1 X33.232 Y9.090 E25.23222
G1 X33.507 Y8.815 E25.26173
G1 X34.058 Y8.264 E25.32074
G1 X33.783 Y7.988 E25.35024
G1 X33.507 Y8.264 E25.37975
G1 X32.956 Y7.713 E25.43876
G1 X33.232 Y7.437 E25.46827
G1 X33.507 Y7.713 E25.49777
G1 X33.783 Y7.437 E25.52728
G1 X33.507 Y7.162 E25.55679
G1 X33.783 Y6.886 E25.58629
G1 X34.334 Y7.437 E25.64530
G1 X34.058 Y7.713 E25.67481
G1 X34.334 Y7.988 E25.70432
G1 X34.609 Y7.713 E25.73382
G1 X35.160 Y8.264 E25.79283
G1 X34.885 Y8.539 E25.82234
G1 X34.609 Y8.264 E25.85185
G1 X34.058 Y8.815 E25.91086
G1 X34.334 Y9.090 E25.94036
G1 X34.609 Y8.815 E25.96987
G1 X34.885 Y9.090 E25.99938
G1 X34.609 Y9.366 E26.02888
G1 X34.885 Y9.641 E26.05839
G1 X35.436 Y9.090 E26.11740
G1 X35.160 Y8.815 E26.14691
G1 X35.436 Y8.539 E26.17641
G1 X36.262 Y9.366 E26.26493
G1 X35.987 Y9.641 E26.29444
G1 X35.711 Y9.366 E26.32394
G1 X35.160 Y9.917 E26.38295
G1 X35.436 Y10.192 E26.41246
G1 X35.711 Y9.917 E26.44197
G1 X35.987 Y10.192 E26.47147
G1 X35.711 Y10.467 E26.50098
G1 X35.987 Y10.743 E26.53048
G1 X36.537 Y10.192 E26.58950
G1 X36.262 Y9.917 E26.61900
G1 X36.537 Y9.641 E26.64851
G1 X37.088 Y10.192 E26.70752
G1 X36.813 Y10.467 E26.73703
G1 X37.088 Y10.743 E26.76653
G1 X37.364 Y10.467 E26.79604
G1 X37.915 Y11.018 E26.85505
G1 X37.639 Y11.294 E26.88455
G1 X37.364 Y11.018 E26.91406
G1 X37.088 Y11.294 E26.94357
G1 X37.364 Y11.569 E26.97307
G1 X37.088 Y11.845 E27.00258
G1 X36.537 Y11.294 E27.06159
G1 X36.813 Y11.018 E27.09110
G1 X36.537 Y10.743 E27.12060
G1 X36.262 Y11.018 E27.15011
G1 X35.711 Y11.569 E27.20912
G1 X35.987 Y11.845 E27.23863
G1 X36.262 Y11.569 E27.26813
G1 X36.813 Y12.120 E27.32714
G1 X36.537 Y12.396 E27.35665
G1 X36.262 Y12.120 E27.38616
G1 X35.987 Y12.396 E27.41566
G1 X36.262 Y12.671 E27.44517
G1 X35.987 Y12.947 E27.47467
G1 X35.436 Y12.396 E27.53369
G1 X35.711 Y12.120 E27.56319
G1 X35.436 Y11.845 E27.59270
G1 X35.160 Y12.120 E27.62220
G1 X34.609 Y11.569 E27.68122
G1 X34.885 Y11.294 E27.71072
G1 X35.160 Y11.569 E27.74023
G1 X35.711 Y11.018 E27.79924
G1 X35.436 Y10.743 E27.82875
G1 X35.160 Y11.018 E27.85825
G1 X34.885 Y10.743 E27.88776
G1 X35.160 Y10.467 E27.91726
G1 X34.885 Y10.192 E27.94677
G1 X34.334 Y10.743 E28.00578
G1 X34.609 Y11.018 E28.03529
G1 X34.334 Y11.294 E28.06479
G1 X34.058 Y11.018 E28.09430
G1 X33.507 Y11.569 E28.15331
G1 X33.783 Y11.845 E28.18282
G1 X34.058 Y11.569 E28.21232
G1 X34.609 Y12.120 E28.27133
G1 X34.334 Y12.396 E28.30084
G1 X34.058 Y12.120 E28.33035
G1 X33.783 Y12.396 E28.35985
G1 X34.058 Y12.671 E28.38936
G1 X33.783 Y12.947 E28.41886
G1 X33.232 Y12.396 E28.47788
G1 X33.507 Y12.120 E28.50738
G1 X33.232 Y11.845 E28.53689
G1 X32.681 Y12.396 E28.59590
G1 X32.956 Y12.671 E28.62541
G1 X32.681 Y12.947 E28.65491
G1 X32.406 Y12.671 E28.68442
G1 X31.855 Y13.222 E28.74343
G1 X32.130 Y13.497 E28.77294
G1 X32.406 Y13.222 E28.80244
G1 X32.681 Y13.497 E28.83195
G1 X32.406 Y13.773 E28.86145
G1 X32.681 Y14.048 E28.89096
G1 X33.232 Y13.497 E28.94997
G1 X32.956 Y13.222 E28.97948
G1 X33.232 Y12.947 E29.00898
G1 X34.058 Y13.773 E29.09750
G1 X33.783 Y14.048 E29.12701
G1 X33.507 Y13.773 E29.15651
G1 X32.956 Y14.324 E29.21553
G1 X33.232 Y14.599 E29.24503
G1 X33.507 Y14.324 E29.27454
G1 X33.783 Y14.599 E29.30404
G1 X33.507 Y14.875 E29.33355
G1 X33.783 Y15.150 E29.36306
G1 X34.334 Y14.599 E29.42207
G1 X34.058 Y14.324 E29.45157
G1 X34.334 Y14.048 E29.48108
G1 X34.609 Y14.324 E29.51058
G1 X35.160 Y13.773 E29.56960
G1 X34.885 Y13.497 E29.59910
G1 X34.609 Y13.773 E29.62861
G1 X34.058 Y13.222 E29.68762
G1 X34.334 Y12.947 E29.71713
G1 X34.609 Y13.222 E29.74663
G1 X34.885 Y12.947 E29.77614
G1 X34.609 Y12.671 E29.80564
G1 X34.885 Y12.396 E29.83515
G1 X35.436 Y12.947 E29.89416
G1 X35.160 Y13.222 E29.92367
G1 X35.436 Y13.497 E29.95317
G1 X35.711 Y13.222 E29.98268
G1 X35.987 Y13.497 E30.01219
G1 X35.711 Y13.773 E30.04169
G1 X35.987 Y14.048 E30.07120
G1 X36.262 Y13.773 E30.10070
G1 X36.813 Y14.324 E30.15972
G1 X36.537 Y14.599 E30.18922
G1 X36.262 Y14.324 E30.21873
G1 X35.987 Y14.599 E30.24823
G1 X36.262 Y14.875 E30.27774
G1 X35.987 Y15.150 E30.30725
G1 X35.436 Y14.599 E30.36626
G1 X35.711 Y14.324 E30.39576
G1 X35.436 Y14.048 E30.42527
G1 X34.885 Y14.599 E30.48428
G1 X35.160 Y14.875 E30.51379
G1 X34.885 Y15.150 E30.54329
G1 X34.609 Y14.875 E30.57280
G1 X34.058 Y15.426 E30.63181
G1 X34.334 Y15.701 E30.66132
G1 X34.609 Y15.426 E30.69082
G1 X34.885 Y15.701 E30.72033
G1 X34.609 Y15.977 E30.74984
G1 X34.885 Y16.252 E30.77934
G1 X35.436 Y15.701 E30.83835
G1 X35.160 Y15.426 E30.86786
G1 X35.436 Y15.150 E30.89737
G1 X36.262 Y15.977 E30.98588
G1 X35.987 Y16.252 E31.01539
G1 X35.711 Y15.977 E31.04489
G1 X35.160 Y16.528 E31.10391
G1 X35.436 Y16.803 E31.13341
G1 X35.711 Y16.528 E31.16292
G1 X35.987 Y16.803 E31.19242
G1 X35.862 Y16.927 E31.20572
G1 X36.466 Y16.874 F3600.000
G1 X36.537 Y16.803 E31.21332 F1500.000
G1 X36.262 Y16.528 E31.24283
G1 X36.537 Y16.252 E31.27234
G1 X36.813 Y16.528 E31.30184
G1 X37.364 Y15.977 E31.36085
G1 X37.088 Y15.701 E31.39036
G1 X36.813 Y15.977 E31.41987
G1 X36.262 Y15.426 E31.47888
G1 X36.537 Y15.150 E31.50838
G1 X36.813 Y15.426 E31.53789
G1 X37.088 Y15.150 E31.56740
G1 X36.813 Y14.875 E31.59690
G1 X37.088 Y14.599 E31.62641
G1 X37.639 Y15.150 E31.68542
G1 X37.364 Y15.426 E31.71493
G1 X37.639 Y15.701 E31.74443
G1 X38.190 Y15.150 E31.80344
G1 X37.915 Y14.875 E31.83295
G1 X38.190 Y14.599 E31.86246
G1 X38.466 Y14.875 E31.89196
G1 X39.017 Y14.324 E31.95097
G1 X38.741 Y14.048 E31.98048
G1 X38.466 Y14.324 E32.00999
G1 X38.190 Y14.048 E32.03949
G1 X38.466 Y13.773 E32.06900
G1 X38.190 Y13.497 E32.09850
G1 X37.639 Y14.048 E32.15752
G1 X37.915 Y14.324 E32.18702
G1 X37.639 Y14.599 E32.21653
G1 X37.088 Y14.048 E32.27554
G1 X37.364 Y13.773 E32.30505
G1 X37.088 Y13.497 E32.33455
G1 X36.813 Y13.773 E32.36406
G1 X36.262 Y13.222 E32.42307
G1 X36.537 Y12.947 E32.45258
G1 X36.813 Y13.222 E32.48208
G1 X37.088 Y12.947 E32.51159
G1 X36.813 Y12.671 E32.54109
G1 X37.088 Y12.396 E32.57060
G1 X37.639 Y12.947 E32.62961
G1 X37.364 Y13.222 E32.65912
G1 X37.639 Y13.497 E32.68862
G1 X38.466 Y12.671 E32.77714
G1 X38.190 Y12.396 E32.80665
G1 X37.915 Y12.671 E32.83615
G1 X37.364 Y12.120 E32.89516
G1 X37.639 Y11.845 E32.92467
G1 X37.915 Y12.120 E32.95418
G1 X38.190 Y11.845 E32.98368
G1 X37.915 Y11.569 E33.01319
G1 X38.190 Y11.294 E33.04269
G1 X38.741 Y11.845 E33.10171
G1 X38.466 Y12.120 E33.13121
G1 X38.741 Y12.396 E33.16072
G1 X39.017 Y12.120 E33.19022
G1 X39.567 Y12.671 E33.24924
G1 X39.292 Y12.947 E33.27874
G1 X39.017 Y12.671 E33.30825
G1 X38.466 Y13.222 E33.36726
G1 X38.741 Y13.497 E33.39677
G1 X39.017 Y13.222 E33.42627
G1 X39.292 Y13.497 E33.45578
G1 X39.017 Y13.773 E33.48528
G1 X39.292 Y14.048 E33.51479
G1 X39.843 Y13.497 E33.57380
G1 X39.567 Y13.222 E33.60331
G1 X39.843 Y12.947 E33.63281
G1 X40.118 Y13.222 E33.66232
G1 X40.669 Y12.671 E33.72133
G1 X40.394 Y12.396 E33.75084
G1 X40.118 Y12.671 E33.78034
G1 X39.567 Y12.120 E33.83936
G1 X39.843 Y11.845 E33.86886
G1 X40.118 Y12.120 E33.89837
G1 X40.394 Y11.845 E33.92787
G1 X40.118 Y11.569 E33.95738
G1 X40.394 Y11.294 E33.98689
G1 X40.945 Y11.845 E34.04590
G1 X40.669 Y12.120 E34.07540
G1 X40.945 Y12.396 E34.10491
G1 X41.496 Y11.845 E34.16392
G1 X41.220 Y11.569 E34.19343
G1 X41.496 Y11.294 E34.22293
G1 X41.771 Y11.569 E34.25244
G1 X42.322 Y11.018 E34.31145
G1 X42.047 Y10.743 E34.34096
G1 X41.771 Y11.018 E34.37046
G1 X41.496 Y10.743 E34.39997
G1 X41.771 Y10.467 E34.42947
G1 X41.496 Y10.192 E34.45898
G1 X40.945 Y10.743 E34.51799
G1 X41.220 Y11.018 E34.54750
G1 X40.945 Y11.294 E34.57700
G1 X40.118 Y10.467 E34.66552
G1 X40.394 Y10.192 E34.69503
G1 X40.669 Y10.467 E34.72453
G1 X41.220 Y9.917 E34.78355
G1 X40.945 Y9.641 E34.81305
G1 X40.669 Y9.917 E34.84256
G1 X40.394 Y9.641 E34.87206
G1 X40.669 Y9.366 E34.90157
G1 X40.394 Y9.090 E34.93108
G1 X39.843 Y9.641 E34.99009
G1 X40.118 Y9.917 E35.01959
G1 X39.843 Y10.192 E35.04910
G1 X39.567 Y9.917 E35.07861
G1 X39.017 Y10.467 E35.13762
G1 X39.292 Y10.743 E35.16712
G1 X39.567 Y10.467 E35.19663
G1 X40.118 Y11.018 E35.25564
G1 X39.843 Y11.294 E35.28515
G1 X39.567 Y11.018 E35.31465
G1 X39.292 Y11.294 E35.34416
G1 X39.567 Y11.569 E35.37367
G1 X39.292 Y11.845 E35.40317
G1 X38.741 Y11.294 E35.46218
G1 X39.017 Y11.018 E35.49169
G1 X38.741 Y10.743 E35.52120
G1 X38.466 Y11.018 E35.55070
G1 X37.915 Y10.467 E35.60971
G1 X38.190 Y10.192 E35.63922
G1 X38.466 Y10.467 E35.66872
G1 X39.017 Y9.917 E35.72774
G1 X38.741 Y9.641 E35.75724
G1 X38.466 Y9.917 E35.78675
G1 X38.190 Y9.641 E35.81625
G1 X38.466 Y9.366 E35.84576
G1 X38.190 Y9.090 E35.87527
G1 X37.639 Y9.641 E35.93428
G1 X37.915 Y9.917 E35.96378
G1 X37.639 Y10.192 E35.99329
G1 X37.088 Y9.641 E36.05230
G1 X37.364 Y9.366 E36.08181
G1 X37.088 Y9.090 E36.11131
G1 X36.813 Y9.366 E36.14082
G1 X36.262 Y8.815 E36.19983
G1 X36.537 Y8.539 E36.22934
G1 X36.813 Y8.815 E36.25884
G1 X37.088 Y8.539 E36.28835
G1 X36.813 Y8.264 E36.31786
G1 X37.088 Y7.988 E36.34736
G1 X37.639 Y8.539 E36.40637
G1 X37.364 Y8.815 E36.43588
G1 X37.639 Y9.090 E36.46539
G1 X38.466 Y8.264 E36.55390
G1 X38.190 Y7.988 E36.58341
G1 X37.915 Y8.264 E36.61292
G1 X37.364 Y7.713 E36.67193
G1 X37.639 Y7.437 E36.70143
G1 X37.915 Y7.713 E36.73094
G1 X38.190 Y7.437 E36.76045
G1 X37.915 Y7.162 E36.78995
G1 X38.190 Y6.886 E36.81946
G1 X38.741 Y7.437 E36.87847
G1 X38.466 Y7.713 E36.90798
G1 X38.741 Y7.988 E36.93748
G1 X39.017 Y7.713 E36.96699
G1 X39.567 Y8.264 E37.02600
G1 X39.292 Y8.539 E37.05551
G1 X39.017 Y8.264 E37.08501
G1 X38.466 Y8.815 E37.14402
G1 X38.741 Y9.090 E37.17353
G1 X39.017 Y8.815 E37.20304
G1 X39.292 Y9.090 E37.23254
G1 X39.017 Y9.366 E37.26205
G1 X39.292 Y9.641 E37.29155
G1 X39.843 Y9.090 E37.35056
G1 X39.567 Y8.815 E37.38007
G1 X39.843 Y8.539 E37.40958
G1 X40.118 Y8.815 E37.43908
G1 X40.394 Y8.539 E37.46859
G1 X40.118 Y8.264 E37.49809
G1 X40.394 Y7.988 E37.52760
G1 X40.669 Y8.264 E37.55711
G1 X41.220 Y7.713 E37.61612
G1 X40.945 Y7.437 E37.64562
G1 X40.669 Y7.713 E37.67513
G1 X40.394 Y7.437 E37.70464
G1 X40.669 Y7.162 E37.73414
G1 X40.394 Y6.886 E37.76365
G1 X39.843 Y7.437 E37.82266
G1 X40.118 Y7.713 E37.85217
G1 X39.843 Y7.988 E37.88167
G1 X39.292 Y7.437 E37.94068
G1 X39.567 Y7.162 E37.97019
G1 X39.292 Y6.886 E37.99970
G1 X39.017 Y7.162 E38.02920
G1 X38.466 Y6.611 E38.08821
G1 X38.741 Y6.336 E38.11772
G1 X39.017 Y6.611 E38.14723
G1 X39.292 Y6.336 E38.17673
G1 X39.017 Y6.060 E38.20624
G1 X39.292 Y5.785 E38.23574
G1 X39.843 Y6.336 E38.29476
G1 X39.567 Y6.611 E38.32426
G1 X39.843 Y6.886 E38.35377
G1 X40.669 Y6.060 E38.44229
G1 X40.394 Y5.785 E38.47179
G1 X40.118 Y6.060 E38.50130
G1 X39.567 Y5.509 E38.56031
G1 X39.843 Y5.234 E38.58982
G1 X40.118 Y5.509 E38.61932
G1 X40.394 Y5.234 E38.64883
G1 X40.118 Y4.958 E38.67833
G1 X40.394 Y4.683 E38.70784
G1 X40.945 Y5.234 E38.76685
G1 X40.669 Y5.509 E38.79636
G1 X40.945 Y5.785 E38.82586
G1 X41.220 Y5.509 E38.85537
G1 X41.771 Y6.060 E38.91438
G1 X41.496 Y6.336 E38.94389
G1 X41.220 Y6.060 E38.97339
G1 X40.669 Y6.611 E39.03241
G1 X40.945 Y6.886 E39.06191
G1 X41.220 Y6.611 E39.09142
G1 X41.496 Y6.886 E39.12092
G1 X41.220 Y7.162 E39.15043
G1 X41.496 Y7.437 E39.17994
G1 X42.047 Y6.886 E39.23895
G1 X41.771 Y6.611 E39.26845
G1 X42.047 Y6.336 E39.29796
G1 X42.598 Y6.886 E39.35697
G1 X42.322 Y7.162 E39.38648
G1 X42.598 Y7.437 E39.41598
