; generated by Slic3r 1.2.9 on 2017-06-20 at 14:24:23

; external perimeters extrusion width = 0.40mm
; perimeters extrusion width = 0.40mm
; infill extrusion width = 0.40mm
; solid infill extrusion width = 0.40mm
; top infill extrusion width = 0.40mm
; support material extrusion width = 0.40mm

M107
M104 S250 ; set temperature

G1 Z5 F5000 ; lift nozzle

M109 S250 ; wait for temperature to be reached
G21 ; set units to millimeters
G90 ; use absolute coordinates
M82 ; use absolute distances for extrusion
G92 E0
G1 Z0.496 F3600.000
G1 E-2.00000 F2400.00000
G92 E0
G1 X32.96880472507306 Y0.3719843682082664 F3600.000
G1 E2.00000 F2400.00000
G1 X31.877611532233715 Y0.291916513445998 E2.21319 F1500.000
G1 X30.997946786843805 Y0.1987051966415518 E2.44485
G1 X30.391670865551305 Y0.08060272934990961 E2.72301
G1 X30.305993180215292 Y0.005496899024884173 E3.23292
G1 X68.999 Y0.0 E8.26115
G1 X69.13806058170854 Y0.05189051830846252 E8.53278
G1 X69.55533372071477 Y0.10323793025621353 E8.80433
G1 X70.12904234338296 Y0.14648279084789362 E9.03711
G1 X71.17434038331511 Y0.2022919840781526 E9.34608
G1 X71.20406736977881 Y0.20583478239781317 E9.36527
G1 X71.0085169609956 Y0.20758979039496261 E9.38290
G1 X70.46625185150691 Y0.21048773703224846 E9.42675
G1 X61.17017629531568 Y0.25435983121546807 E10.16394
G1 X52.375688530080446 Y0.31225313740727756 E10.87475
G1 X44.50333409981774 Y0.3868279329414254 E11.53038
G1 X36.61747442137428 Y0.501016238344391 E12.22212
G1 X36.26189246302514 Y0.5066779750858753 E12.25330
G1 X36.014696069799065 Y0.5094097628950384 E12.27348
G1 X35.87931221470111 Y0.5095700815783069 E12.28373
G1 X35.668120065402945 Y0.505047993276138 E12.30392
G1 X35.43928780322765 Y0.4972208477331286 E12.33116
G1 X33.624032000936474 Y0.4111400452562072 E12.59484
G1 X33.001358290228 Y0.37400726202783074 E12.69973
G1 X32.65028264808745 Y0.3791868990722406 F3600.000
G1 X31.51138881420494 Y0.29610742891256703 E12.91920 F1500.000
G1 X30.61851879173779 Y0.2016678063603052 E13.15138
G1 X30.003525209548293 Y0.08188185642979966 E13.43014
G1 X29.91634486308189 Y0.005631238637878217 E13.94125
G1 X69.388 Y0.0 E19.06130
G1 X69.52702353042305 Y0.051455942502437825 E19.33216
G1 X69.94032940299896 Y0.10239453844813988 E19.60297
G1 X70.50870588090524 Y0.1452727029244551 E19.83508
G1 X71.5574104897599 Y0.20119415478409333 E20.14625
G1 X71.59145215037896 Y0.20523300398613922 E20.16828
G1 X71.5829473059052 Y0.206713430271071 E20.17633
G1 X71.51297603232578 Y0.20911952563900826 E20.19042
G1 X71.44658867993628 Y0.21013239569012573 E20.19789
G1 X71.18534436244585 Y0.21251010474154586 E20.22148
G1 X70.59012831834207 Y0.2157218395978652 E20.26969
G1 X61.29601373662076 Y0.2603711948873305 E21.00802
G1 X52.524666710032534 Y0.3191075266611983 E21.71865
G1 X44.68161627560042 Y0.39459141615888355 E22.37409
G1 X36.82471354946295 Y0.5100315113960376 E23.06673
G1 X36.44230789892429 Y0.5161951960099651 E23.10036
G1 X36.113715469333805 Y0.5198982830301376 E23.12728
G1 X35.974578371399986 Y0.5206390312578928 E23.13801
G1 X35.85451214282521 Y0.5206301930274462 E23.14709
G1 X35.74359395751916 Y0.5198297289005586 E23.15577
G1 X35.62849563200781 Y0.5182514109906923 E23.16549
G1 X35.38427868418403 Y0.5125665007772602 E23.18948
G1 X35.127031257992755 Y0.5038384849170379 E23.21986
G1 X33.28207020303876 Y0.416708116091483 E23.48522
G1 X32.68368843934234 Y0.3812506655543597 E23.58472
G1 X32.93511446769238 Y0.3666528336321084 F3600.000
G1 X33.43731192844305 Y0.37830717481551085 F3600.000
G1 X33.568360341249914 Y0.36939818166570715 E23.60939 F1500.000
G1 X33.924829505835405 Y0.37405827914330925 E23.63890
G1 X33.77121047578839 Y0.38461386410252435 E23.66840
G1 X34.130016847344216 Y0.3890866583021311 E23.69791
G1 X34.438317554723845 Y0.36821204721716166 E23.75692
G1 X34.082773141280626 Y0.3635611556030415 E23.78643
G1 X34.24384506739861 Y0.3531995068558574 E23.81593
G1 X34.59831261781418 Y0.35789789303013775 E23.84544
G1 X34.927635147544706 Y0.33760441945836606 E23.90445
G1 X34.577481067885785 Y0.33273450036706576 E23.93396
G1 X34.409164433330844 Y0.34289882532524246 E23.96346
G1 X33.706636572046165 Y0.33299952867944715 E24.02248
G1 X33.87844372163515 Y0.3226746391494282 E24.05198
G1 X34.227841883472585 Y0.32773740034475035 E24.08149
G1 X34.40145069615524 Y0.31759563189759876 E24.11099
G1 X34.05446997091571 Y0.31241804919362687 E24.14050
G1 X34.233384655917384 Y0.30230458349057027 E24.17001
G1 X34.92531850964283 Y0.31266886744705563 E24.22902
G1 X34.74901811562451 Y0.3226423875147649 E24.25852
G1 X35.09872162914199 Y0.3276068709034178 E24.28803
G1 X35.45000899858842 Y0.30788783045545987 E24.34704
G1 X35.103805178356374 Y0.302777806906803 E24.37655
G1 X35.28693742732571 Y0.2930067137049474 E24.40605
G1 X35.63012002505745 Y0.2981667139112143 E24.43556
G1 X36.00180231599524 Y0.2790665505017549 E24.49457
G1 X35.66191858271229 Y0.27375073421520324 E24.52408
G1 X35.47244357244085 Y0.28334531011440794 E24.55358
G1 X35.13175159311018 Y0.27799077930989496 E24.58309
G1 X35.32236288811947 Y0.2683675757712697 E24.61260
G1 X34.984556435661716 Y0.2628450482465796 E24.64210
G1 X34.602235549166465 Y0.2823606753218 E24.70111
G1 X34.94375391969214 Y0.2877536254597299 E24.73062
G1 X34.75978549991355 Y0.29758519533501093 E24.76013
G1 X34.07340079886362 Y0.28686630517979905 E24.81914
G1 X34.261055033375726 Y0.2768964268771835 E24.84864
G1 X33.92161347872474 Y0.2712861233028627 E24.87815
G1 X33.73234044652105 Y0.28135371875157605 E24.90765
G1 X33.052159536102934 Y0.2699670380310128 E24.96667
G1 X33.24532179119342 Y0.2597595418347405 E24.99617
G1 X33.583523653720434 Y0.2655913212972379 E25.02568
G1 X33.77813319294007 Y0.25556973791996895 E25.05518
G1 X33.4431238373451 Y0.24969259896900745 E25.08469
G1 X33.643066224706686 Y0.23972321811561792 E25.11420
G1 X34.311519129878235 Y0.25151012884444457 E25.17321
G1 X34.11454471336236 Y0.2613595668292273 E25.20271
G1 X34.45277817535184 Y0.26700047959806295 E25.23222
G1 X34.647125046675946 Y0.2572502620369229 E25.26173
G1 X35.04627027231286 Y0.23804432626252708 E25.32074
G1 X34.714539216299556 Y0.2321859010044957 E25.35024
G1 X34.511052504958464 Y0.24180913504542517 E25.37975
G1 X33.8465405174591 Y0.2299013677349712 E25.43876
G1 X34.0539981940447 Y0.22016275611577682 E25.46827
G1 X34.38327235735424 Y0.226249505358508 E25.49777
G1 X34.591907406212805 Y0.21668413092363353 E25.52728
G1 X34.26387737837036 Y0.21057762138222422 E25.55679
G1 X34.47764616385521 Y0.20107584084320307 E25.58629
G1 X35.13022238756823 Y0.21331207479800102 E25.64530
G1 X34.92044863686605 Y0.22270994913640213 E25.67481
G1 X35.250981546617965 Y0.22858916988773945 E25.70432
G1 X35.45804915671476 Y0.21927768161658304 E25.73382
G1 X36.11812974117015 Y0.23084969417685722 E25.79283
G1 X35.914868035397255 Y0.24005565506602872 E25.82234
G1 X35.58196983023846 Y0.23439282815828405 E25.85185
G1 X35.18027272492355 Y0.25326544248671784 E25.91086
G1 X35.51692069985798 Y0.2588141208059543 E25.94036
G1 X35.71396233967886 Y0.2493996569312462 E25.96987
G1 X36.04984500660162 Y0.25490230963805577 E25.99938
G1 X35.85393753829557 Y0.2642926439328954 E26.02888
G1 X36.19270791195376 Y0.26963498289899096 E26.05839
G1 X36.583304880778606 Y0.25110452627377866 E26.11740
G1 X36.24816995380594 Y0.2456477607487366 E26.14691
G1 X36.45030338694042 Y0.2364616049810254 E26.17641
G1 X37.45203065255608 Y0.2527627741696007 E26.26493
G1 X37.25604716015912 Y0.2617556342349288 E26.29444
G1 X36.918795714378334 Y0.2564951370751491 E26.32394
G1 X36.53180106427822 Y0.2749118680599351 E26.38295
G1 X36.87257734414561 Y0.2800579906505229 E26.41246
G1 X37.06241236077328 Y0.2708760802589729 E26.44197
G1 X37.40242014896897 Y0.2759859789771804 E26.47147
G1 X37.21335257672976 Y0.2851172905655243 E26.50098
G1 X37.556307299839794 Y0.2901025454862 E26.53048
G1 X37.9319025755366 Y0.27203487095263207 E26.58950
G1 X37.59361026823574 Y0.26695428148143324 E26.61900
G1 X37.78758063173667 Y0.2579891171853592 E26.64851
G1 X38.46292510977292 Y0.2681857181626725 E26.70752
G1 X38.27211854601206 Y0.277018367647061 E26.73703
G1 X38.61258594033816 Y0.2819460060864136 E26.76653
G1 X38.802404371378834 Y0.2731347740689695 E26.79604
G1 X39.48345918229556 Y0.282808379814073 E26.85505
G1 X39.296930630775734 Y0.2915128548475143 E26.88455
G1 X38.95465081347797 Y0.28675550576063935 E26.91406
G1 X38.7695006416126 Y0.29559747572144807 E26.94357
G1 X39.114067252076964 Y0.3002677001360515 E26.97307
G1 X38.933581507485286 Y0.30913638622505707 E27.00258
G1 X38.242735323195696 Y0.2997946934864995 E27.06159
G1 X38.42646604880548 Y0.2908112055111646 E27.09110
G1 X38.08365027147477 Y0.28597142322432617 E27.12060
G1 X37.8989309611762 Y0.29497988225336924 E27.15011
G1 X37.5382109589682 Y0.3132926003702478 E27.20912
G1 X37.88625336451205 Y0.3179778063250541 E27.23863
G1 X38.0627692765516 Y0.30883116190230014 E27.26813
G1 X38.75682351535018 Y0.31805439224539817 E27.32714
G1 X38.582550265631745 Y0.3270862631842054 E27.35665
G1 X38.23384683758619 Y0.3225611012556769 E27.38616
G1 X38.06212008020573 Y0.3317288700727806 E27.41566
G1 X38.41206691913362 Y0.33616618055559216 E27.44517
G1 X38.245117047801024 Y0.3453508960644278 E27.47467
G1 X37.541589097959076 Y0.3365088843442774 E27.53369
G1 X37.71166823411555 Y0.32719271176648945 E27.56319
G1 X37.36327235401096 Y0.3225884508261165 E27.59270
G1 X37.19032132154816 Y0.33195428189059645 E27.62220
G1 X36.491432446534624 Y0.32259980373318764 E27.68122
G1 X36.667665060649824 Y0.31310041525430743 E27.71072
G1 X37.014420986961284 Y0.31788039968959625 E27.74023
G1 X37.372073062649335 Y0.29926617222136503 E27.79924
G1 X37.02866653013581 Y0.29435909343016364 E27.82875
G1 X36.845921402510754 Y0.30367495968632296 E27.85825
G1 X36.501716041852056 Y0.2987386204292095 E27.88776
G1 X36.6849245467399 Y0.2893419206462767 E27.91726
G1 X36.34336375461138 Y0.28424866263603016 E27.94677
G1 X35.97548616766701 Y0.30324635869433364 E28.00578
G1 X36.320506673228 Y0.3082113930597881 E28.03529
G1 X36.14385137198304 Y0.31779593093025227 E28.06479
G1 X35.795861325019125 Y0.3128809022004542 E28.09430
G1 X35.448001495147786 Y0.33245582835947135 E28.15331
G1 X35.7993730950697 Y0.337227170778994 E28.18282
G1 X35.96928029583022 Y0.32745633811118885 E28.21232
G1 X36.669841573151096 Y0.336851134022876 E28.27133
G1 X36.50321043415223 Y0.3464773115257162 E28.30084
G1 X36.150266444384606 Y0.3418888713525973 E28.33035
G1 X35.98544018071754 Y0.35167699900770116 E28.35985
G1 X36.338706705109914 Y0.3561746706010413 E28.38936
G1 X36.178942742982414 Y0.36597521716786213 E28.41886
G1 X35.46867124660861 Y0.3570283507865346 E28.47788
G1 X35.63163550835128 Y0.34707339553542005 E28.50738
G1 X35.27987881215013 Y0.3423947374751726 E28.53689
G1 X34.95294804447831 Y0.3625377803253736 E28.59590
G1 X35.30796194911284 Y0.3670579290395978 E28.62541
G1 X35.152134643574634 Y0.37719416887504126 E28.65491
G1 X34.79515881555938 Y0.3727305587678549 E28.68442
G1 X34.49003202376014 Y0.39342840671317975 E28.74343
G1 X34.849761964753796 Y0.3976914857020087 E28.77294
G1 X34.99957314025415 Y0.3873931597960108 E28.80244
G1 X35.35840451717243 Y0.3916561836945108 E28.83195
G1 X35.21142378547053 Y0.40188240921742524 E28.86145
G1 X35.57237783730517 Y0.4059733218659842 E28.89096
G1 X35.868298440266166 Y0.38579226552709717 E28.94997
G1 X35.5094243828311 Y0.38154181162497713 E28.97948
G1 X35.66497768119307 Y0.3715039439867701 E29.00898
G1 X36.73748620959252 Y0.38429232315569123 E29.09750
G1 X36.58739390828486 Y0.39407838991774785 E29.12701
G1 X36.22726291068648 Y0.3899944587556202 E29.15651
G1 X35.93431385180466 Y0.4100075040522973 E29.21553
G1 X36.297336334778066 Y0.4139248629477298 E29.24503
G1 X36.440307696285984 Y0.4039801438151037 E29.27454
G1 X36.80247124854525 Y0.40790307311070106 E29.30404
G1 X36.660396533589214 Y0.41780058084052624 E29.33355
G1 X37.024499848073575 Y0.42156453385972226 E29.36306
G1 X37.30890452693566 Y0.4020445558703637 E29.42207
G1 X36.94758909590719 Y0.39811808383186054 E29.45157
G1 X37.09676347068569 Y0.3883754216585355 E29.48108
G1 X37.4561057372493 Y0.392415002855892 E29.51058
G1 X37.76137085700147 Y0.37335120725589244 E29.56960
G1 X37.40497605934269 Y0.3691623530498351 E29.59910
G1 X37.24887125806633 Y0.3787465791373843 E29.62861
G1 X36.53448573608229 Y0.3703102214714058 E29.68762
G1 X36.693982681088194 Y0.3606015332926451 E29.71713
G1 X37.04867291820316 Y0.3649278310874901 E29.74663
G1 X37.21005286209628 Y0.35537675839584 E29.77614
G1 X36.855625377952826 Y0.3509616288249694 E29.80564
G1 X37.0219399950894 Y0.3414232004684573 E29.83515
G1 X37.727111007868075 Y0.350295061246615 E29.89416
G1 X37.563904003710796 Y0.3596929435379609 E29.92367
G1 X37.91937637936574 Y0.363919106627303 E29.95317
G1 X38.08013662002803 Y0.35459985284915496 E29.98268
G1 X38.43479124439211 Y0.35881634808360857 E30.01219
G1 X38.274940235093766 Y0.36810047505903093 E30.04169
G1 X38.63172883783484 Y0.37217127396007477 E30.07120
G1 X38.78953690107682 Y0.36298892143045514 E30.10070
G1 X39.50156889289336 Y0.37107610940350433 E30.15972
G1 X39.34568807379024 Y0.38013352985071924 E30.18922
G1 X38.98858320072685 Y0.3762007806891403 E30.21873
G1 X38.835485963226986 Y0.38538839902394983 E30.24823
G1 X39.19436527104374 Y0.38927617028367023 E30.27774
G1 X39.04595585973021 Y0.39846529947285375 E30.30725
G1 X38.325460166839484 Y0.39079296346619624 E30.36626
G1 X38.476648723608974 Y0.38146196144141736 E30.39576
G1 X38.11897690127582 Y0.37742760510236995 E30.42527
G1 X37.816584007548855 Y0.39634314595478926 E30.48428
G1 X38.17710341290968 Y0.4002313787456331 E30.51379
G1 X38.03269284444634 Y0.4097079896165049 E30.54329
G1 X37.67026023270877 Y0.405930518796805 E30.57280
G1 X37.388619124006176 Y0.42529052450554916 E30.63181
G1 X37.753740966955846 Y0.42890948811786966 E30.66132
G1 X37.89121741248228 Y0.41929082434483717 E30.69082
G1 X38.255517588970086 Y0.4229194796608781 E30.72033
G1 X38.118858980824704 Y0.432493891012656 E30.74984
G1 X38.484941587587215 Y0.43597570842470507 E30.77934
G1 X38.758631258082374 Y0.41708477520620624 E30.83835
G1 X38.395143911698 Y0.4134484075265154 E30.86786
G1 X38.53871554683679 Y0.40401274650495633 E30.89737
G1 X39.62571353300783 Y0.415008585256108 E30.98588
G1 X39.48660118318618 Y0.4241899407097229 E31.01539
G1 X39.12211714618727 Y0.42068729568432794 E31.04489
G1 X38.85100235515166 Y0.43942611253524344 E31.10391
G1 X39.21799210821482 Y0.4427780987065947 E31.13341
G1 X39.350353302098824 Y0.43346916729956075 E31.16292
G1 X39.71655798278597 Y0.4368340271994677 E31.19242
G1 X39.65610133384269 Y0.441000862727775 E31.20572
G1 X40.18085404766802 Y0.4333916063539962 F3600.000
G1 X40.21558377047385 Y0.43104792687791815 E31.21332 F1500.000
G1 X39.85106558173821 Y0.42766171341679937 E31.24283
G1 X39.98849675844292 Y0.418529021056974 E31.27234
G1 X40.35308851872431 Y0.42199857070794683 E31.30184
G1 X40.63659711393167 Y0.4040742835025389 E31.36085
G1 X40.27457194061782 Y0.4004675701584113 E31.39036
G1 X40.13055566522846 Y0.4094725763055082 E31.41987
G1 X39.40677758964821 Y0.40221279285409256 E31.47888
G1 X39.55344320030811 Y0.39306998112926866 E31.50838
G1 X39.914388946844724 Y0.3968089012145186 E31.53789
G1 X40.06297847140175 Y0.38780206670828016 E31.56740
G1 X39.7046923423416 Y0.38400939110254845 E31.59690
G1 X39.857879333953534 Y0.3750041450663534 E31.62641
G1 X40.57359758512918 Y0.38266660625165694 E31.68542
G1 X40.423136592797945 Y0.3915408809062196 E31.71493
G1 X40.782541877622094 Y0.3952004200373536 E31.74443
G1 X41.08526013061132 Y0.37765892718095184 E31.80344
G1 X40.728526243899374 Y0.37387248377692617 E31.83295
G1 X40.88528954281723 Y0.3651315689150178 E31.86246
G1 X41.24195413653431 Y0.3689930169905228 E31.89196
G1 X41.563244158751615 Y0.3518461270402526 E31.95097
G1 X41.209360405131264 Y0.34786708276147965 E31.98048
G1 X41.046438724936905 Y0.35647241369541777 E32.00999
G1 X40.691797748440656 Y0.35248307307067644 E32.03949
G1 X40.85741897134473 Y0.34383396479123546 E32.06900
G1 X40.504877595173646 Y0.3397157792083297 E32.09850
G1 X40.17512445531438 Y0.35721789458238135 E32.15752
