; generated by Slic3r 1.2.9 on 2017-03-21 at 19:19:41

; external perimeters extrusion width = 0.50mm
; perimeters extrusion width = 0.50mm
; infill extrusion width = 0.50mm
; solid infill extrusion width = 0.50mm
; top infill extrusion width = 0.50mm

M107
M190 S80 ; set bed temperature
M104 S215 ; set temperature
G1 Z5 F5000 ; lift nozzle

M109 S215 ; wait for temperature to be reached
G21 ; set units to millimeters
G90 ; use absolute coordinates
M82 ; use absolute distances for extrusion
G92 E0
G1 Z0.500 F2400.000
G1 E-2.00000 F2400.00000
G92 E0
G1 X137.171651947 Y45.0189026741 F2400.000
G1 E2.00000 F2400.00000
G1 X137.189895667 Y44.8343280534 E2.03613 F1014.665
G1 X137.25621363 Y44.6511041683 E2.07235
G1 X137.369095218 Y44.4723632024 E2.10847
G1 X137.499327737 Y44.3270029727 E2.13884
G1 X137.692660552 Y44.1619839966 E2.17487
G1 X137.888597382 Y44.030352345 E2.20524
G1 X138.156668554 Y43.8844122632 E2.24135
G1 X138.448049827 Y43.7565119473 E2.27603 F1014.665
G1 X138.742427343 Y43.6504950863 E2.30783
G1 X139.103071461 Y43.544741849 E2.34398
G1 X139.489286814 Y43.4557972149 E2.38011
G1 X139.829408427 Y43.3943380664 E2.41047
G1 X140.249292494 Y43.3378805004 E2.44658
G1 X140.664365367 Y43.3010055523 E2.48127
G1 X141.051274737 Y43.2823913329 E2.51307
G1 X141.494403229 Y43.2786053926 E2.54922
G1 X141.936135022 Y43.2936735854 E2.58544
G1 X142.371579762 Y43.3270782725 E2.62157
G1 X142.728636429 Y43.3690328876 E2.65193
G1 X143.139306649 Y43.434590774 E2.68806
G1 X143.532093822 Y43.5165262746 E2.72418
G1 X143.843897309 Y43.5969403314 E2.75455
G1 X144.189682006 Y43.7059829274 E2.79059
G1 X144.45851481 Y43.8082572032 E2.82095
G1 X144.748277289 Y43.9408192117 E2.85708
G1 X145.002287444 Y44.0840743363 E2.89320
G1 X145.186300404 Y44.2116589327 E2.92357
G1 X145.368725144 Y44.3701257711 E2.95961
G1 X145.489738834 Y44.5087764589 E2.98997
G1 X145.594166676 Y44.678320211 E3.02610
G1 X145.655299488 Y44.8506324967 E3.06222
G1 X145.671775307 Y44.99694068 E3.09259
G1 X145.650497672 Y45.1702345562 E3.12863
G1 X145.597611756 Y45.3152720602 E3.15899
G1 X145.495250981 Y45.4845217098 E3.19512
G1 X145.348780941 Y45.6497522964 E3.23133
G1 X145.160819542 Y45.8077391549 E3.26746
G1 X144.973323374 Y45.9339964378 E3.29774
G1 X144.758634371 Y46.0537864807 E3.32801
G1 X144.470283533 Y46.1868773139 E3.36414
G1 X144.148760196 Y46.3081599074 E3.40035
G1 X143.798697101 Y46.4156193838 E3.43648
G1 X143.484036638 Y46.4949864814 E3.46684
G1 X143.088995251 Y46.5744571695 E3.50297
G1 X142.676088901 Y46.6381016877 E3.53910
G1 X142.316779819 Y46.6781228515 E3.56946
G1 X141.882587364 Y46.7092559832 E3.60550
G1 X141.511366134 Y46.7211882025 E3.63586
G1 X141.069008056 Y46.7182546582 E3.67199
G1 X140.628816051 Y46.6965418599 E3.70821
G1 X140.197951715 Y46.6563681409 E3.74434
G1 X139.844430286 Y46.6080978204 E3.77468
G1 X139.457041145 Y46.5378756847 E3.80928
G1 X139.118185659 Y46.4594697524 E3.84106
G1 X138.770548266 Y46.3588684771 E3.87568
G1 X138.47477675 Y46.2540758502 E3.90748
G1 X138.16897697 Y46.1216471883 E3.94363
G1 X137.898040526 Y45.9757519052 E3.97985
G1 X137.667229583 Y45.818451258 E4.01598
G1 X137.505866468 Y45.6791528185 E4.04635
G1 X137.349438943 Y45.5014587465 E4.08344
G1 X137.260560577 Y45.3559688275 E4.11276
G1 X137.192077803 Y45.174233348 E4.14878
G1 X137.175939793 Y45.0502086642 E4.17302
G1 X136.789924731 Y44.9247706403 F2400.000
G1 X136.678096855 Y45.0248993501 F2400.000
G1 X136.701718241 Y44.7800932132 E4.22072 F1014.665
G1 X136.785090452 Y44.5746687413 E4.26129
G1 X136.920988019 Y44.3750573921 E4.30182
G1 X137.080131347 Y44.2067145117 E4.33713
G1 X137.298787249 Y44.0303182434 E4.37594
G1 X137.571663961 Y43.8569871997 E4.41650
G1 X137.844690173 Y43.7175540518 E4.45180
G1 X138.179462356 Y43.5769535418 E4.49071
G1 X138.495348225 Y43.4681232378 E4.52428
G1 X138.907739885 Y43.3524609067 E4.56493 F1014.665
G1 X139.268677957 Y43.27116824 E4.59848
G1 X139.726013526 Y43.191541336 E4.63904
G1 X140.201146447 Y43.1320417599 E4.67958
G1 X140.624880622 Y43.0976045952 E4.71489
G1 X141.098405395 Y43.0778475897 E4.75370
G1 X141.594353842 Y43.0779979791 E4.79425
G1 X142.025187333 Y43.0955327525 E4.82956
G1 X142.491254925 Y43.1322037832 E4.86837
G1 X142.96698124 Y43.190306604 E4.90895
G1 X143.348398878 Y43.2528071563 E4.94260
G1 X143.714856034 Y43.3283358169 E4.97624
G1 X144.133135625 Y43.4349831191 E5.01680
G1 X144.521148601 Y43.5575276806 E5.05727
G1 X144.875670456 Y43.6950482383 E5.09775
G1 X145.192823101 Y43.8458230751 E5.13831
G1 X145.426117121 Y43.9800288367 E5.17195
G1 X145.630228291 Y44.1208555707 E5.20559
G1 X145.834008643 Y44.299066359 E5.24615
G1 X145.991648573 Y44.4841007696 E5.28671
G1 X146.085469674 Y44.6411295251 E5.32027
G1 X146.152512301 Y44.834231068 E5.36083
G1 X146.170303879 Y45.0288258314 E5.40139
G1 X146.147044069 Y45.1896157871 E5.43494
G1 X146.073126139 Y45.3821991785 E5.47550
G1 X145.949852004 Y45.5712898949 E5.51604
G1 X145.803136626 Y45.730816413 E5.55135
G1 X145.602063849 Y45.900186003 E5.59016
G1 X145.347736787 Y46.0684725081 E5.63074
G1 X145.104656218 Y46.1995608586 E5.66429
G1 X144.774849231 Y46.3467287214 E5.70494
G1 X144.474772026 Y46.458363733 E5.73850
G1 X144.082486882 Y46.5793505536 E5.77906
G1 X143.66128097 Y46.6838552288 E5.81959
G1 X143.273019362 Y46.7605603688 E5.85490
G1 X142.829120735 Y46.8287524235 E5.89372
G1 X142.350150871 Y46.8813235721 E5.93430
G1 X141.944904118 Y46.9089717659 E5.96785
G1 X141.449502329 Y46.9242575723 E6.00841
G1 X140.953032355 Y46.9180961427 E6.04897
G1 X140.545212483 Y46.8971288608 E6.08253
G1 X140.060565471 Y46.8527583225 E6.12309
G1 X139.589954746 Y46.7869915188 E6.16362
G1 X139.196124217 Y46.7137177041 E6.19893
G1 X138.783871577 Y46.615717214 E6.23774
G1 X138.382650163 Y46.4950512691 E6.27830
G1 X138.059975091 Y46.3758439713 E6.31360
G1 X137.737272577 Y46.2304880631 E6.35242
G1 X137.440036816 Y46.0647977203 E6.39300
G1 X137.22814563 Y45.9179176906 E6.42655
G1 X137.014467353 Y45.7297903332 E6.46720
G1 X136.87572204 Y45.5677235645 E6.50075
G1 X136.755118431 Y45.3658760264 E6.54132
G1 X136.687102566 Y45.1600569075 E6.58179
G1 X136.680270606 Y45.0560226539 E6.60203
G1 X137.115199194 Y44.923176248 F2400.000
G1 X136.924166056 Y45.0207121689 F2400.000
G1 X136.951217099 Y44.7926229441 E6.64658 F1014.665
G1 X137.030057115 Y44.5981954852 E6.68508
G1 X137.159151076 Y44.4086363442 E6.72354
G1 X137.309972766 Y44.250239402 E6.75687
G1 X137.515935164 Y44.0831195084 E6.79365
G1 X137.775273736 Y43.9192644222 E6.83215
G1 X137.969686471 Y43.8168165348 E6.85775
G1 X138.278096621 Y43.6817172973 E6.89442
G1 X138.585849498 Y43.5705998131 E6.92777
G1 X139.038969113 Y43.4408838278 E6.97274
G1 X139.378074467 Y43.3638380442 E7.00434
G1 X139.812140624 Y43.288327026 E7.04285
G1 X140.187849588 Y43.2397154535 E7.07498
G1 X140.626599226 Y43.2008207637 E7.11165
G1 X141.110704491 Y43.1799934655 E7.15143
G1 X141.581894104 Y43.1797539836 E7.18992
G1 X141.988907725 Y43.1949651667 E7.22325
G1 X142.431189541 Y43.229884405 E7.26005
G1 X142.811886526 Y43.2751909643 E7.29242
G1 X143.244015711 Y43.3437780734 E7.33038
G1 X143.58911449 Y43.4152214138 E7.36215
G1 X143.991126907 Y43.5170346285 E7.40105
G1 X144.355984185 Y43.6319573608 E7.43901
G1 X144.690836227 Y43.7622792957 E7.47735
G1 X144.945612259 Y43.881596049 E7.50951
G1 X145.214489955 Y44.0321175031 E7.54763
G1 X145.407860035 Y44.1663252169 E7.57956
G1 X145.601680114 Y44.3349582642 E7.61793
G1 X145.728628296 Y44.4826135711 E7.65026
G1 X145.839116015 Y44.6588585083 E7.68804
G1 X145.90425698 Y44.8425570289 E7.72657
G1 X145.919262556 Y44.9980564619 E7.75890
G1 X145.898766564 Y45.1796639761 E7.79668
G1 X145.826727166 Y45.3628411924 E7.83519
G1 X145.732068297 Y45.513203973 E7.86736
G1 X145.5721232 Y45.6932880966 E7.90698
G1 X145.381046141 Y45.8541741243 E7.94378
G1 X145.138006049 Y46.0138996859 E7.98233
G1 X144.909047371 Y46.1368626671 E8.01392
G1 X144.594729243 Y46.2774995299 E8.05261
G1 X144.31303887 Y46.3830524392 E8.08421
G1 X143.939738196 Y46.4975730268 E8.12273
G1 X143.538968179 Y46.596062111 E8.16119
G1 X143.192326586 Y46.6653115932 E8.19279
G1 X142.751700463 Y46.7334867357 E8.23132
G1 X142.370072603 Y46.775715722 E8.26369
G1 X141.914943716 Y46.8091177738 E8.30147
G1 X141.444100411 Y46.8223064607 E8.33998
G1 X141.050473565 Y46.8187723298 E8.37215
G1 X140.588212401 Y46.7967874678 E8.41009
G1 X140.13297254 Y46.7548998759 E8.44823
G1 X139.682635975 Y46.6914974265 E8.48707
G1 X139.311314864 Y46.6221085198 E8.52040
G1 X138.921675965 Y46.5286332562 E8.55719
G1 X138.616865063 Y46.43931312 E8.58769
G1 X138.302686991 Y46.3280108471 E8.62145
G1 X137.978404009 Y46.187807744 E8.65967 F1014.665
G1 X137.692538189 Y46.0331219585 E8.69800
G1 X137.448364286 Y45.8686900224 E8.73594
G1 X137.277955452 Y45.720420488 E8.76807
G1 X137.114744944 Y45.5374802904 E8.80623
G1 X137.016907223 Y45.3758219478 E8.83877
G1 X136.945367213 Y45.1837183914 E8.87671
G1 X136.927748557 Y45.0517790735 E8.90248
M104 S200 ; set temperature
G1 Z1.000 F2400.000
G1 X137.171651947 Y45.0189026741 F2400.000
G1 X137.189895667 Y44.8343280534 E8.93861 F900.000
G1 X137.25621363 Y44.6511041683 E8.97483
G1 X137.369095218 Y44.4723632024 E9.01096
G1 X137.499327737 Y44.3270029727 E9.04132
G1 X137.692660552 Y44.1619839966 E9.07736
G1 X137.888597382 Y44.030352345 E9.10772
G1 X138.155947816 Y43.8846997483 E9.14379
G1 X138.422049793 Y43.7668175121 E9.17559 F900.000
G1 X138.741013522 Y43.6504813318 E9.21027
G1 X139.103071461 Y43.544741849 E9.24647
G1 X139.489286814 Y43.4557972149 E9.28260
G1 X139.829408427 Y43.3943380664 E9.31296
G1 X140.249292494 Y43.3378805004 E9.34902
G1 X140.628816051 Y43.3034581401 E9.38082
G1 X141.051274737 Y43.2823913329 E9.41551
G1 X141.494403229 Y43.2786053926 E9.45171
G1 X141.935407175 Y43.2939504007 E9.48783
G1 X142.301313009 Y43.3205553816 E9.51820
G1 X142.726536096 Y43.3687249059 E9.55426
G1 X143.088995251 Y43.4255428305 E9.58606
G1 X143.469395611 Y43.5017535775 E9.62074
G1 X143.84179394 Y43.5966380678 E9.65688
G1 X144.149450977 Y43.6921274929 E9.68868
G1 X144.457822564 Y43.8079709736 E9.72336
G1 X144.747583375 Y43.9405341899 E9.75950
G1 X144.973323374 Y44.0660035622 E9.79130
G1 X145.186300404 Y44.2116589327 E9.82598
G1 X145.368709604 Y44.370683137 E9.86211
G1 X145.494537922 Y44.5157543843 E9.89392
G1 X145.594174622 Y44.6777636833 E9.92854
G1 X145.649792671 Y44.8294864566 E9.96032
G1 X145.671068329 Y44.9961063011 E9.99491
G1 X145.656666929 Y45.1421342075 E10.02525
G1 X145.598307195 Y45.3144357607 E10.06129
G1 X145.515181287 Y45.4568909057 E10.09163
G1 X145.381782631 Y45.6161617836 E10.12637
G1 X145.227636395 Y45.7563111362 E10.15804
G1 X145.012633646 Y45.9094336585 E10.19419
G1 X144.759328356 Y46.0535015078 E10.23040
G1 X144.470283533 Y46.1868773139 E10.26662
G1 X144.148760196 Y46.3081599074 E10.30284
G1 X143.798007681 Y46.4159080022 E10.33899
G1 X143.467981881 Y46.4982611896 E10.37079
G1 X143.088307842 Y46.5747479836 E10.40548
G1 X142.676088901 Y46.6381016877 E10.44158
G1 X142.316779819 Y46.6781228515 E10.47195
G1 X141.882587364 Y46.7092559832 E10.50799
G1 X141.511366134 Y46.7211882025 E10.53835
G1 X141.069008056 Y46.7182546582 E10.57448
G1 X140.628816051 Y46.6965418599 E10.61069
G1 X140.197951715 Y46.6563681409 E10.64682
G1 X139.845156959 Y46.608379284 E10.67712
G1 X139.489286814 Y46.5442027851 E10.70883
G1 X139.119599414 Y46.4594549179 E10.74345
G1 X138.799362916 Y46.367929469 E10.77523
G1 X138.476221583 Y46.2546480472 E10.80985
G1 X138.204441318 Y46.1386583727 E10.84163
G1 X137.940095436 Y46.0007171135 E10.87632
G1 X137.702829085 Y45.8456045315 E10.91245
G1 X137.528406673 Y45.7005479948 E10.94425
G1 X137.374922358 Y45.5352825942 E10.97894
G1 X137.260569371 Y45.356559142 E11.01513
G1 X137.192077803 Y45.174233348 E11.05126
G1 X137.175939793 Y45.0502086642 E11.07550
G1 X136.789924731 Y44.9247706403 F2400.000
G1 X136.678096855 Y45.0248993501 F2400.000
G1 X136.701718241 Y44.7800932132 E11.12321 F900.000
G1 X136.78580279 Y44.5743747607 E11.16386
G1 X136.893978264 Y44.4083786998 E11.19741
G1 X137.072827037 Y44.2137665238 E11.23806
G1 X137.257274332 Y44.0604316744 E11.27162
G1 X137.522224913 Y43.8854527728 E11.31218
G1 X137.831618118 Y43.7239006971 E11.35265
G1 X138.179462356 Y43.5769535418 E11.39321
G1 X138.495348225 Y43.4681232378 E11.42676
G1 X138.907739885 Y43.3524609067 E11.46741 F900.000
G1 X139.268677957 Y43.27116824 E11.50097
G1 X139.726013526 Y43.191541336 E11.54153
G1 X140.200416668 Y43.1323211606 E11.58200
G1 X140.687447606 Y43.0938408273 E11.62249
G1 X141.1607381 Y43.0769736614 E11.66130
G1 X141.592940424 Y43.077978786 E11.69663
G1 X142.067449421 Y43.0978115008 E11.73551
G1 X142.491254925 Y43.1322037832 E11.77081
G1 X142.966296819 Y43.1900144131 E11.81135
G1 X143.423700639 Y43.2672900296 E11.85184
G1 X143.840724115 Y43.3582586096 E11.89065
G1 X144.19972612 Y43.4542561497 E11.92596
G1 X144.583390765 Y43.580012266 E11.96659
G1 X144.874979638 Y43.6947622926 E12.00016
G1 X145.180440618 Y43.8390257846 E12.03906
G1 X145.426117121 Y43.9800288367 E12.07446
G1 X145.630228291 Y44.1208555707 E12.10807
G1 X145.834008643 Y44.299066359 E12.14864
G1 X145.990947863 Y44.4838207702 E12.18913
G1 X146.096406698 Y44.6655602623 E12.22794
G1 X146.1525164 Y44.83367666 E12.26325
G1 X146.170303879 Y45.0288258314 E12.30387
G1 X146.147044069 Y45.1896157871 E12.33743
G1 X146.073126139 Y45.3821991785 E12.37801
G1 X145.956012637 Y45.563215613 E12.41682
G1 X145.811387895 Y45.7235502767 E12.45213
G1 X145.60136794 Y45.9004685947 E12.49266
G1 X145.347710422 Y46.0679151248 E12.53315
G1 X145.064667876 Y46.2188871169 E12.57196
G1 X144.775539526 Y46.34644238 E12.60736
G1 X144.474772026 Y46.458363733 E12.64098
G1 X144.081799534 Y46.5796393859 E12.68163
G1 X143.735044425 Y46.6671995147 E12.71518
G1 X143.29117842 Y46.7575084467 E12.75583
G1 X142.908925103 Y46.8180870756 E12.78939
G1 X142.431575267 Y46.8734172902 E12.82995
G1 X141.94422096 Y46.9092665391 E12.87042
G1 X141.449502329 Y46.9242575723 E12.91089
G1 X140.953032355 Y46.9180961427 E12.95145
G1 X140.545212483 Y46.8971288608 E12.98501
G1 X140.060565471 Y46.8527583225 E13.02557
G1 X139.589270035 Y46.7872906673 E13.06613
G1 X139.214797134 Y46.7175638754 E13.09968
G1 X138.783871577 Y46.615717214 E13.14024
G1 X138.382650163 Y46.4950512691 E13.18073
G1 X138.028851393 Y46.3635292958 E13.21955
G1 X137.737302954 Y46.2310762101 E13.25485
G1 X137.440036816 Y46.0647977203 E13.29548
G1 X137.22814563 Y45.9179176906 E13.32903
G1 X137.014467353 Y45.7297903332 E13.36968
G1 X136.87572204 Y45.5677235645 E13.40324
G1 X136.755118431 Y45.3658760264 E13.44380
G1 X136.687102566 Y45.1600569075 E13.48427
G1 X136.680270606 Y45.0560226539 E13.50451
G1 X137.115199194 Y44.923176248 F2400.000
G1 X136.924166056 Y45.0207121689 F2400.000
G1 X136.951217099 Y44.7926229441 E13.54906 F1200.000
G1 X137.014005113 Y44.628901298 E13.58140
G1 X137.13150156 Y44.4410172259 E13.61934
G1 X137.272121951 Y44.2854521205 E13.65185
G1 X137.47453254 Y44.1120226249 E13.68963
G1 X137.727400938 Y43.9459563709 E13.72815
G1 X137.968243364 Y43.8173915804 E13.76017
G1 X138.25203183 Y43.6926073968 E13.79392
G1 X138.585124974 Y43.5708847715 E13.83019
G1 X139.038969113 Y43.4408838278 E13.87525
G1 X139.378074467 Y43.3638380442 E13.90685
G1 X139.812140624 Y43.288327026 E13.94537
G1 X140.185707549 Y43.2399776884 E13.97739
G1 X140.590266182 Y43.2041037311 E14.01114
G1 X141.171619761 Y43.1790562755 E14.05883
G1 X141.579796316 Y43.1794407012 E14.09219
G1 X142.029721555 Y43.1977671805 E14.12911
G1 X142.430460931 Y43.230159932 E14.16243
G1 X142.881200618 Y43.2848220198 E14.20089
G1 X143.314447457 Y43.3578844025 E14.23926
G1 X143.593964612 Y43.4166862173 E14.26503
G1 X144.048723913 Y43.5342271762 E14.30936
G1 X144.414091729 Y43.6538351017 E14.34799
G1 X144.690144561 Y43.7619933058 E14.37962
G1 X144.980111991 Y43.8991911732 E14.41658
G1 X145.213771007 Y44.0323917476 E14.45009
G1 X145.407183884 Y44.1654853732 E14.48181
G1 X145.601680114 Y44.3349582642 E14.52034
G1 X145.749219363 Y44.5104849634 E14.55871
G1 X145.839090816 Y44.6605252843 E14.59074
G1 X145.898052825 Y44.8211682151 E14.62446
