; generated by Slic3r 1.2.9 on 2017-06-18 at 12:02:07

; external perimeters extrusion width = 0.40mm
; perimeters extrusion width = 0.40mm
; infill extrusion width = 0.40mm
; solid infill extrusion width = 0.40mm
; top infill extrusion width = 0.40mm
; support material extrusion width = 0.40mm

M107
M190 S77 ; set bed temperature
M104 S280 ; set temperature
;G28 ; home all axes
G1 Z5 F5000 ; lift nozzle

M109 S280 ; wait for temperature to be reached
G21 ; set units to millimeters
G90 ; use absolute coordinates
M82 ; use absolute distances for extrusion
G92 E0
G1 Z0.496 F3600.000
G1 E-2.00000 F2400.00000
G92 E0
G1 X39.178 Y38.655 F3600.000
G1 E2.00000 F2400.00000
G1 X39.990 Y38.154 E2.07225 F1500.000
G1 X40.772 Y37.931 E2.13385
G1 X57.722 Y37.931 E3.41762
G1 X59.652 Y37.931 E3.56381 F1500.000
G1 X60.979 Y38.672 E3.67891
G1 X61.923 Y40.200 E3.81497
G1 X61.969 Y41.085 E3.88210
G1 X62.235 Y41.887 E3.94608
G1 X62.141 Y42.075 E3.96199
G1 X62.130 Y42.229 E3.97373
G1 X62.235 Y42.546 E3.99900
G1 X62.141 Y42.734 E4.01490
G1 X62.130 Y42.888 E4.02664
G1 X62.235 Y43.205 E4.05192
G1 X62.141 Y43.393 E4.06782
G1 X62.130 Y43.547 E4.07956
G1 X62.235 Y43.864 E4.10483
G1 X62.141 Y44.052 E4.12074
G1 X62.130 Y44.206 E4.13247
G1 X62.235 Y44.523 E4.15775
G1 X62.141 Y44.711 E4.17365
G1 X62.130 Y44.865 E4.18539
G1 X62.235 Y45.182 E4.21066
G1 X62.141 Y45.370 E4.22657
G1 X62.130 Y45.524 E4.23831
G1 X62.235 Y45.841 E4.26358
G1 X62.141 Y46.028 E4.27948
G1 X62.130 Y46.183 E4.29122
G1 X62.235 Y46.500 E4.31650
G1 X62.141 Y46.687 E4.33240
G1 X62.130 Y46.842 E4.34414
G1 X62.235 Y47.159 E4.36941
G1 X62.141 Y47.346 E4.38532
G1 X62.130 Y47.501 E4.39705
G1 X62.235 Y47.818 E4.42233
G1 X62.141 Y48.005 E4.43823
G1 X62.130 Y48.160 E4.44997
G1 X62.235 Y48.477 E4.47524
G1 X62.141 Y48.664 E4.49115
G1 X62.130 Y48.819 E4.50289
G1 X62.235 Y49.136 E4.52816
G1 X62.141 Y49.323 E4.54406
G1 X62.130 Y49.478 E4.55580
G1 X62.235 Y49.794 E4.58108
G1 X62.141 Y49.982 E4.59698
G1 X62.130 Y50.137 E4.60872
G1 X62.235 Y50.453 E4.63399
G1 X62.141 Y50.641 E4.64990
G1 X62.130 Y50.796 E4.66163
G1 X62.235 Y51.112 E4.68691
G1 X62.141 Y51.300 E4.70281
G1 X62.130 Y51.455 E4.71455
G1 X62.235 Y51.771 E4.73983
G1 X62.141 Y51.959 E4.75573
G1 X62.130 Y52.114 E4.76747
G1 X62.235 Y52.430 E4.79274
G1 X62.141 Y52.618 E4.80864
G1 X62.130 Y52.773 E4.82038
G1 X62.235 Y53.089 E4.84566
G1 X62.141 Y53.277 E4.86156
G1 X62.130 Y53.432 E4.87330
G1 X62.235 Y53.748 E4.89857
G1 X62.141 Y53.936 E4.91448
G1 X62.130 Y54.090 E4.92622
G1 X62.235 Y54.407 E4.95149
G1 X62.141 Y54.595 E4.96739
G1 X62.130 Y54.749 E4.97913
G1 X62.235 Y55.066 E5.00441
G1 X62.141 Y55.254 E5.02031
G1 X62.130 Y55.408 E5.03205
G1 X62.235 Y55.725 E5.05732
G1 X62.141 Y55.913 E5.07323
G1 X62.130 Y56.067 E5.08496
G1 X62.235 Y56.384 E5.11024
G1 X62.141 Y56.572 E5.12614
G1 X62.130 Y56.726 E5.13788
G1 X62.235 Y57.043 E5.16315
G1 X62.141 Y57.231 E5.17906
G1 X62.130 Y57.385 E5.19080
G1 X62.235 Y57.702 E5.21607
G1 X62.141 Y57.890 E5.23197
G1 X62.130 Y58.044 E5.24371
G1 X62.235 Y58.361 E5.26899
G1 X62.144 Y58.543 E5.28446
G1 X62.125 Y58.665 E5.29373
G1 X62.195 Y59.100 E5.32715
G1 X61.042 Y61.401 E5.52209
G1 X59.438 Y61.934 E5.65014
G1 X58.822 Y62.237 E5.70209
G1 X57.792 Y62.069 E5.78118
G1 X40.348 Y62.069 E7.10238
G1 X39.021 Y61.328 E7.21748
G1 X38.077 Y59.800 E7.35353
G1 X38.031 Y58.914 E7.42068
G1 X37.765 Y58.113 E7.48465
G1 X37.859 Y57.925 E7.50056
G1 X37.870 Y57.771 E7.51230
G1 X37.765 Y57.454 E7.53757
G1 X37.859 Y57.266 E7.55347
G1 X37.870 Y57.112 E7.56521
G1 X37.765 Y56.795 E7.59049
G1 X37.859 Y56.607 E7.60639
G1 X37.870 Y56.453 E7.61813
G1 X37.765 Y56.136 E7.64340
G1 X37.859 Y55.948 E7.65931
G1 X37.870 Y55.794 E7.67104
G1 X37.765 Y55.477 E7.69632
G1 X37.859 Y55.289 E7.71222
G1 X37.870 Y55.135 E7.72396
G1 X37.765 Y54.818 E7.74923
G1 X37.859 Y54.630 E7.76514
G1 X37.870 Y54.476 E7.77688
G1 X37.765 Y54.159 E7.80215
G1 X37.859 Y53.971 E7.81805
G1 X37.870 Y53.817 E7.82979
G1 X37.765 Y53.500 E7.85507
G1 X37.859 Y53.312 E7.87097
G1 X37.870 Y53.158 E7.88271
G1 X37.765 Y52.841 E7.90798
G1 X37.859 Y52.654 E7.92389
G1 X37.870 Y52.499 E7.93562
G1 X37.765 Y52.182 E7.96090
G1 X37.859 Y51.995 E7.97680
G1 X37.870 Y51.840 E7.98854
G1 X37.765 Y51.523 E8.01381
G1 X37.859 Y51.336 E8.02972
G1 X37.870 Y51.181 E8.04146
G1 X37.765 Y50.864 E8.06673
G1 X37.859 Y50.677 E8.08263
G1 X37.870 Y50.522 E8.09437
G1 X37.765 Y50.205 E8.11965
G1 X37.859 Y50.018 E8.13555
G1 X37.870 Y49.863 E8.14729
G1 X37.765 Y49.546 E8.17256
G1 X37.859 Y49.359 E8.18847
G1 X37.870 Y49.204 E8.20020
G1 X37.765 Y48.888 E8.22548
G1 X37.859 Y48.700 E8.24138
G1 X37.870 Y48.545 E8.25312
G1 X37.765 Y48.229 E8.27839
G1 X37.859 Y48.041 E8.29430
G1 X37.870 Y47.886 E8.30604
G1 X37.765 Y47.570 E8.33131
G1 X37.859 Y47.382 E8.34721
G1 X37.870 Y47.227 E8.35895
G1 X37.765 Y46.911 E8.38423
G1 X37.859 Y46.723 E8.40013
G1 X37.870 Y46.568 E8.41187
G1 X37.765 Y46.252 E8.43714
G1 X37.859 Y46.064 E8.45305
G1 X37.870 Y45.909 E8.46478
G1 X37.765 Y45.593 E8.49006
G1 X37.859 Y45.405 E8.50596
G1 X37.870 Y45.250 E8.51770
G1 X37.765 Y44.934 E8.54298
G1 X37.859 Y44.746 E8.55888
G1 X37.870 Y44.592 E8.57062
G1 X37.765 Y44.275 E8.59589
G1 X37.859 Y44.087 E8.61179
G1 X37.870 Y43.933 E8.62353
G1 X37.764 Y43.616 E8.64881
G1 X37.859 Y43.428 E8.66471
G1 X37.870 Y43.274 E8.67645
G1 X37.765 Y42.957 E8.70172
G1 X37.859 Y42.769 E8.71763
G1 X37.870 Y42.615 E8.72937
G1 X37.765 Y42.298 E8.75464
G1 X37.859 Y42.110 E8.77054
G1 X37.870 Y41.956 E8.78228
G1 X37.765 Y41.639 E8.80756
G1 X37.859 Y41.451 E8.82346
G1 X37.870 Y41.297 E8.83520
G1 X37.765 Y40.980 E8.86047
G1 X38.629 Y39.255 E9.00667
G1 X39.128 Y38.710 E9.06258
G1 X39.415 Y38.973 F3600.000
G1 X40.149 Y38.513 E9.12814 F1500.000
G1 X40.827 Y38.321 E9.18152
G1 X57.620 Y38.321 E10.45351
G1 X59.550 Y38.321 E10.59971 F1500.000
G1 X60.701 Y38.963 E10.69946
G1 X61.538 Y40.319 E10.82017
G1 X61.573 Y41.104 E10.87968
G1 X61.815 Y41.857 E10.93960
G1 X61.721 Y42.044 E10.95550
G1 X61.710 Y42.199 E10.96724
G1 X61.815 Y42.516 E10.99252
G1 X61.721 Y42.703 E11.00842
G1 X61.710 Y42.858 E11.02016
G1 X61.815 Y43.175 E11.04543
G1 X61.721 Y43.362 E11.06134
G1 X61.710 Y43.517 E11.07307
G1 X61.815 Y43.834 E11.09835
G1 X61.721 Y44.021 E11.11425
G1 X61.710 Y44.176 E11.12599
G1 X61.815 Y44.493 E11.15126
G1 X61.721 Y44.680 E11.16717
G1 X61.710 Y44.835 E11.17891
G1 X61.815 Y45.151 E11.20418
G1 X61.721 Y45.339 E11.22008
G1 X61.710 Y45.494 E11.23182
G1 X61.815 Y45.810 E11.25710
G1 X61.721 Y45.998 E11.27300
G1 X61.710 Y46.153 E11.28474
G1 X61.815 Y46.469 E11.31001
G1 X61.721 Y46.657 E11.32592
G1 X61.710 Y46.812 E11.33765
G1 X61.815 Y47.128 E11.36293
G1 X61.721 Y47.316 E11.37883
G1 X61.710 Y47.471 E11.39057
G1 X61.815 Y47.787 E11.41584
G1 X61.721 Y47.975 E11.43175
G1 X61.710 Y48.130 E11.44349
G1 X61.815 Y48.446 E11.46876
G1 X61.721 Y48.634 E11.48466
G1 X61.710 Y48.789 E11.49640
G1 X61.815 Y49.105 E11.52168
G1 X61.721 Y49.293 E11.53758
G1 X61.710 Y49.448 E11.54932
G1 X61.815 Y49.764 E11.57459
G1 X61.721 Y49.952 E11.59050
G1 X61.710 Y50.106 E11.60223
G1 X61.815 Y50.423 E11.62751
G1 X61.721 Y50.611 E11.64341
G1 X61.710 Y50.765 E11.65515
G1 X61.815 Y51.082 E11.68043
G1 X61.721 Y51.270 E11.69633
G1 X61.710 Y51.424 E11.70807
G1 X61.815 Y51.741 E11.73334
G1 X61.721 Y51.929 E11.74924
G1 X61.710 Y52.083 E11.76098
G1 X61.815 Y52.400 E11.78626
G1 X61.721 Y52.588 E11.80216
G1 X61.710 Y52.742 E11.81390
G1 X61.815 Y53.059 E11.83917
G1 X61.721 Y53.247 E11.85508
G1 X61.710 Y53.401 E11.86681
G1 X61.815 Y53.718 E11.89209
G1 X61.721 Y53.906 E11.90799
G1 X61.710 Y54.060 E11.91973
G1 X61.815 Y54.377 E11.94501
G1 X61.721 Y54.565 E11.96091
G1 X61.710 Y54.719 E11.97265
G1 X61.815 Y55.036 E11.99792
G1 X61.721 Y55.224 E12.01383
G1 X61.710 Y55.378 E12.02556
G1 X61.815 Y55.695 E12.05084
G1 X61.721 Y55.882 E12.06674
G1 X61.710 Y56.037 E12.07848
G1 X61.815 Y56.354 E12.10375
G1 X61.721 Y56.541 E12.11966
G1 X61.710 Y56.696 E12.13140
G1 X61.815 Y57.013 E12.15667
G1 X61.721 Y57.200 E12.17257
G1 X61.710 Y57.355 E12.18431
G1 X61.815 Y57.672 E12.20959
G1 X61.721 Y57.859 E12.22549
G1 X61.710 Y58.014 E12.23723
G1 X61.815 Y58.331 E12.26250
G1 X61.739 Y58.481 E12.27526
G1 X61.721 Y58.602 E12.28454
G1 X61.791 Y59.038 E12.31796
G1 X60.766 Y61.082 E12.49116
G1 X59.289 Y61.573 E12.60904
G1 X58.762 Y61.832 E12.65353
G1 X57.824 Y61.679 E12.72554
G1 X40.450 Y61.679 E14.04149
G1 X39.299 Y61.037 E14.14124
G1 X38.462 Y59.681 E14.26195
G1 X38.427 Y58.896 E14.32148
G1 X38.185 Y58.143 E14.38139
G1 X38.279 Y57.955 E14.39729
G1 X38.290 Y57.801 E14.40903
G1 X38.185 Y57.484 E14.43430
G1 X38.279 Y57.297 E14.45021
G1 X38.290 Y57.142 E14.46194
G1 X38.185 Y56.825 E14.48722
G1 X38.279 Y56.638 E14.50312
G1 X38.290 Y56.483 E14.51486
G1 X38.185 Y56.166 E14.54013
G1 X38.279 Y55.979 E14.55604
G1 X38.290 Y55.824 E14.56778
G1 X38.185 Y55.507 E14.59305
G1 X38.279 Y55.320 E14.60895
G1 X38.290 Y55.165 E14.62069
G1 X38.185 Y54.848 E14.64597
G1 X38.279 Y54.661 E14.66187
G1 X38.290 Y54.506 E14.67361
G1 X38.185 Y54.189 E14.69888
G1 X38.279 Y54.002 E14.71479
G1 X38.290 Y53.847 E14.72652
G1 X38.185 Y53.531 E14.75180
G1 X38.279 Y53.343 E14.76770
G1 X38.290 Y53.188 E14.77944
G1 X38.185 Y52.872 E14.80471
G1 X38.279 Y52.684 E14.82062
G1 X38.290 Y52.529 E14.83236
G1 X38.185 Y52.213 E14.85763
G1 X38.279 Y52.025 E14.87353
G1 X38.290 Y51.870 E14.88527
G1 X38.185 Y51.554 E14.91055
G1 X38.279 Y51.366 E14.92645
G1 X38.290 Y51.211 E14.93819
G1 X38.185 Y50.895 E14.96346
G1 X38.279 Y50.707 E14.97937
G1 X38.290 Y50.552 E14.99110
G1 X38.185 Y50.236 E15.01638
G1 X38.279 Y50.048 E15.03228
G1 X38.290 Y49.893 E15.04402
G1 X38.185 Y49.577 E15.06930
G1 X38.279 Y49.389 E15.08520
G1 X38.290 Y49.235 E15.09694
G1 X38.185 Y48.918 E15.12221
G1 X38.279 Y48.730 E15.13811
G1 X38.290 Y48.576 E15.14985
G1 X38.185 Y48.259 E15.17513
G1 X38.279 Y48.071 E15.19103
G1 X38.290 Y47.917 E15.20277
G1 X38.185 Y47.600 E15.22804
G1 X38.279 Y47.412 E15.24395
G1 X38.290 Y47.258 E15.25569
G1 X38.185 Y46.941 E15.28096
G1 X38.279 Y46.753 E15.29686
G1 X38.290 Y46.599 E15.30860
G1 X38.185 Y46.282 E15.33388
G1 X38.279 Y46.094 E15.34978
G1 X38.290 Y45.940 E15.36152
G1 X38.185 Y45.623 E15.38679
G1 X38.279 Y45.435 E15.40270
G1 X38.290 Y45.281 E15.41443
G1 X38.185 Y44.964 E15.43971
G1 X38.279 Y44.776 E15.45561
G1 X38.290 Y44.622 E15.46735
G1 X38.185 Y44.305 E15.49262
G1 X38.279 Y44.117 E15.50853
G1 X38.290 Y43.963 E15.52027
G1 X38.185 Y43.646 E15.54554
G1 X38.279 Y43.459 E15.56144
G1 X38.290 Y43.304 E15.57318
G1 X38.185 Y42.987 E15.59846
G1 X38.279 Y42.800 E15.61436
G1 X38.290 Y42.645 E15.62610
G1 X38.185 Y42.328 E15.65137
G1 X38.279 Y42.141 E15.66728
G1 X38.290 Y41.986 E15.67901
G1 X38.185 Y41.669 E15.70429
G1 X38.279 Y41.482 E15.72019
G1 X38.290 Y41.327 E15.73193
G1 X38.185 Y41.010 E15.75720
G1 X38.953 Y39.478 E15.88707
G1 X39.364 Y39.028 E15.93320
G1 X39.652 Y39.291 F3600.000
G1 X40.307 Y38.873 E15.99206 F1500.000
G1 X40.881 Y38.711 E16.03723
G1 X57.519 Y38.711 E17.29745
G1 X59.449 Y38.711 E17.44364 F1500.000
G1 X60.422 Y39.254 E17.52805
G1 X61.153 Y40.437 E17.63341
G1 X61.186 Y41.175 E17.68936
G1 X61.394 Y41.826 E17.74116
G1 X61.300 Y42.014 E17.75706
G1 X61.289 Y42.169 E17.76880
G1 X61.394 Y42.485 E17.79407
G1 X61.300 Y42.673 E17.80998
G1 X61.289 Y42.828 E17.82172
G1 X61.394 Y43.144 E17.84699
G1 X61.300 Y43.332 E17.86289
G1 X61.289 Y43.487 E17.87463
G1 X61.394 Y43.803 E17.89991
G1 X61.300 Y43.991 E17.91581
G1 X61.289 Y44.146 E17.92755
G1 X61.394 Y44.462 E17.95282
G1 X61.300 Y44.650 E17.96873
G1 X61.289 Y44.805 E17.98046
G1 X61.394 Y45.121 E18.00574
G1 X61.300 Y45.309 E18.02164
G1 X61.289 Y45.463 E18.03338
G1 X61.394 Y45.780 E18.05865
G1 X61.300 Y45.968 E18.07456
G1 X61.289 Y46.122 E18.08630
G1 X61.394 Y46.439 E18.11157
G1 X61.300 Y46.627 E18.12747
G1 X61.289 Y46.781 E18.13921
G1 X61.394 Y47.098 E18.16449
G1 X61.300 Y47.286 E18.18039
G1 X61.289 Y47.440 E18.19213
G1 X61.394 Y47.757 E18.21740
G1 X61.300 Y47.945 E18.23331
G1 X61.289 Y48.099 E18.24504
G1 X61.394 Y48.416 E18.27032
G1 X61.300 Y48.604 E18.28622
G1 X61.289 Y48.758 E18.29796
G1 X61.394 Y49.075 E18.32323
G1 X61.300 Y49.263 E18.33914
G1 X61.289 Y49.417 E18.35088
G1 X61.394 Y49.734 E18.37615
G1 X61.300 Y49.922 E18.39205
G1 X61.289 Y50.076 E18.40379
G1 X61.394 Y50.393 E18.42907
G1 X61.300 Y50.581 E18.44497
G1 X61.289 Y50.735 E18.45671
G1 X61.394 Y51.052 E18.48198
G1 X61.300 Y51.239 E18.49789
G1 X61.289 Y51.394 E18.50962
G1 X61.394 Y51.711 E18.53490
G1 X61.300 Y51.898 E18.55080
G1 X61.289 Y52.053 E18.56254
G1 X61.394 Y52.370 E18.58781
G1 X61.300 Y52.557 E18.60372
G1 X61.289 Y52.712 E18.61546
G1 X61.394 Y53.029 E18.64073
G1 X61.300 Y53.216 E18.65663
G1 X61.289 Y53.371 E18.66837
G1 X61.394 Y53.688 E18.69365
G1 X61.300 Y53.875 E18.70955
G1 X61.289 Y54.030 E18.72129
G1 X61.394 Y54.347 E18.74656
G1 X61.300 Y54.534 E18.76247
G1 X61.289 Y54.689 E18.77420
G1 X61.394 Y55.005 E18.79948
G1 X61.300 Y55.193 E18.81538
G1 X61.289 Y55.348 E18.82712
G1 X61.394 Y55.664 E18.85240
G1 X61.300 Y55.852 E18.86830
G1 X61.289 Y56.007 E18.88004
G1 X61.394 Y56.323 E18.90531
G1 X61.300 Y56.511 E18.92121
G1 X61.289 Y56.666 E18.93295
G1 X61.394 Y56.982 E18.95823
G1 X61.300 Y57.170 E18.97413
G1 X61.289 Y57.325 E18.98587
G1 X61.394 Y57.641 E19.01114
G1 X61.300 Y57.829 E19.02705
G1 X61.289 Y57.984 E19.03878
G1 X61.394 Y58.300 E19.06406
G1 X61.335 Y58.419 E19.07411
G1 X61.316 Y58.540 E19.08339
G1 X61.386 Y58.976 E19.11680
G1 X60.490 Y60.763 E19.26827
G1 X59.141 Y61.212 E19.37599
G1 X58.702 Y61.427 E19.41301
G1 X57.856 Y61.289 E19.47793
G1 X40.551 Y61.289 E20.78864
G1 X39.578 Y60.746 E20.87304
G1 X38.847 Y59.563 E20.97841
G1 X38.814 Y58.825 E21.03437
G1 X38.606 Y58.173 E21.08616
G1 X38.700 Y57.986 E21.10206
G1 X38.711 Y57.831 E21.11380
G1 X38.606 Y57.515 E21.13908
G1 X38.700 Y57.327 E21.15498
G1 X38.711 Y57.172 E21.16672
G1 X38.606 Y56.856 E21.19199
G1 X38.700 Y56.668 E21.20790
G1 X38.711 Y56.513 E21.21963
G1 X38.606 Y56.197 E21.24491
G1 X38.700 Y56.009 E21.26081
G1 X38.711 Y55.854 E21.27255
G1 X38.606 Y55.538 E21.29783
G1 X38.700 Y55.350 E21.31373
G1 X38.711 Y55.195 E21.32547
G1 X38.606 Y54.879 E21.35074
G1 X38.700 Y54.691 E21.36664
G1 X38.711 Y54.536 E21.37838
G1 X38.606 Y54.220 E21.40366
G1 X38.700 Y54.032 E21.41956
G1 X38.711 Y53.877 E21.43130
G1 X38.606 Y53.561 E21.45657
G1 X38.700 Y53.373 E21.47248
G1 X38.711 Y53.219 E21.48421
G1 X38.606 Y52.902 E21.50949
G1 X38.700 Y52.714 E21.52539
G1 X38.711 Y52.560 E21.53713
G1 X38.606 Y52.243 E21.56241
G1 X38.700 Y52.055 E21.57831
G1 X38.711 Y51.901 E21.59005
G1 X38.606 Y51.584 E21.61532
G1 X38.700 Y51.396 E21.63122
G1 X38.711 Y51.242 E21.64296
G1 X38.606 Y50.925 E21.66824
G1 X38.700 Y50.737 E21.68414
G1 X38.711 Y50.583 E21.69588
G1 X38.606 Y50.266 E21.72115
G1 X38.700 Y50.078 E21.73706
G1 X38.711 Y49.924 E21.74880
G1 X38.606 Y49.607 E21.77407
G1 X38.700 Y49.419 E21.78997
G1 X38.711 Y49.265 E21.80171
G1 X38.606 Y48.948 E21.82699
G1 X38.700 Y48.760 E21.84289
G1 X38.711 Y48.606 E21.85463
G1 X38.606 Y48.289 E21.87990
G1 X38.700 Y48.101 E21.89581
G1 X38.711 Y47.947 E21.90754
G1 X38.606 Y47.630 E21.93282
G1 X38.700 Y47.443 E21.94872
G1 X38.711 Y47.288 E21.96046
G1 X38.606 Y46.971 E21.98573
G1 X38.700 Y46.784 E22.00164
G1 X38.711 Y46.629 E22.01338
G1 X38.606 Y46.312 E22.03865
G1 X38.700 Y46.125 E22.05455
G1 X38.711 Y45.970 E22.06629
G1 X38.606 Y45.653 E22.09157
G1 X38.700 Y45.466 E22.10747
G1 X38.711 Y45.311 E22.11921
G1 X38.606 Y44.994 E22.14448
G1 X38.700 Y44.807 E22.16039
G1 X38.711 Y44.652 E22.17212
G1 X38.606 Y44.335 E22.19740
G1 X38.700 Y44.148 E22.21330
G1 X38.711 Y43.993 E22.22504
G1 X38.606 Y43.677 E22.25031
G1 X38.700 Y43.489 E22.26622
G1 X38.711 Y43.334 E22.27796
G1 X38.606 Y43.018 E22.30323
G1 X38.700 Y42.830 E22.31913
G1 X38.711 Y42.675 E22.33087
G1 X38.606 Y42.359 E22.35615
G1 X38.700 Y42.171 E22.37205
G1 X38.711 Y42.016 E22.38379
G1 X38.606 Y41.700 E22.40906
G1 X38.700 Y41.512 E22.42497
G1 X38.711 Y41.357 E22.43670
G1 X38.606 Y41.041 E22.46198
G1 X39.277 Y39.701 E22.57552
G1 X39.601 Y39.347 E22.61186
G1 X39.889 Y39.610 F3600.000
G1 X39.931 Y39.564 E22.61658 F1500.000
G1 X40.466 Y39.233 E22.66420
G1 X40.935 Y39.100 E22.70115
G1 X57.418 Y39.100 E23.94959
