; generated by Slic3r 1.2.9 on 2017-06-18 at 12:02:07

; external perimeters extrusion width = 0.40mm
; perimeters extrusion width = 0.40mm
; infill extrusion width = 0.40mm
; solid infill extrusion width = 0.40mm
; top infill extrusion width = 0.40mm
; support material extrusion width = 0.40mm

M107
M190 S77 ; set bed temperature
M104 S280 ; set temperature
;G28 ; home all axes
G1 Z5 F5000 ; lift nozzle

M109 S280 ; wait for temperature to be reached
G21 ; set units to millimeters
G90 ; use absolute coordinates
M82 ; use absolute distances for extrusion
G92 E0
G1 Z0.496 F3600.000
G1 E-2.00000 F2400.00000
G92 E0
G1 X55.03748458096536 Y0.7786787496688821 F3600.000
G1 E2.00000 F2400.00000
G1 X55.27140142967247 Y0.76190739921616 E2.07225 F1500.000
G1 X55.687671391430975 Y0.7493160956377639 E2.13385
G1 X69.06945812006924 Y0.5813729241086247 E3.41762
G1 X70.69032370133837 Y0.5663787739500478 E3.56381 F1500.000
G1 X72.20776983815522 Y0.5651773951905987 E3.67891
G1 X73.82748762486774 Y0.5758079486681138 E3.81497
G1 X74.35142356404484 Y0.5854548336076434 E3.88210
G1 X75.01810444152798 Y0.5924058744212349 E3.94608
G1 X75.04538297590331 Y0.5951835366134521 E3.96199
G1 X75.12273518050311 Y0.596963109235284 E3.97373
G1 X75.38804508010537 Y0.5996578335428544 E3.99900
G1 X75.41683258397956 Y0.6024191470260765 E4.01490
G1 X75.49514847988578 Y0.6041824926127681 E4.02664
G1 X75.76191160471072 Y0.6068385939288433 E4.05192
G1 X75.79219174822694 Y0.6095834610410408 E4.06782
G1 X75.8714578019956 Y0.6113306316998645 E4.07956
G1 X76.13964618383775 Y0.6139484693147221 E4.10483
G1 X76.17140267186892 Y0.61667680264392 E4.12074
G1 X76.25160546506545 Y0.6184078562082761 E4.13247
G1 X76.52119153541717 Y0.6209877959389081 E4.15775
G1 X76.55440811605821 Y0.6236995180015318 E4.17365
G1 X76.63553434928212 Y0.6254145177558967 E4.18539
G1 X76.90649094192246 Y0.6279569313673886 E4.21066
G1 X76.94115141457138 Y0.6306519742876646 E4.22657
G1 X77.02318791117388 Y0.6323509886979476 E4.23831
G1 X77.29548826419301 Y0.6348562533443829 E4.26358
G1 X77.33098127529483 Y0.637524167284011 E4.27948
G1 X77.41451019673251 Y0.63921766098501 E4.29122
G1 X77.68812795401881 Y0.6416861586699719 E4.31650
G1 X77.72502717915253 Y0.644337390360953 E4.33240
G1 X77.80944585331527 Y0.6460149450488522 E4.34414
G1 X78.08435506553153 Y0.6484470621055325 E4.36941
G1 X78.12264458529293 Y0.6510815699363806 E4.38532
G1 X78.20794014037193 Y0.6527432687168051 E4.39705
G1 X78.48411526544719 Y0.6551393953076676 E4.42233
G1 X78.52377923915786 Y0.6577571459905116 E4.43823
G1 X78.60993893904256 Y0.6594030761553017 E4.44997
G1 X78.88735484220523 Y0.6617636057911971 E4.47524
G1 X78.92837751404751 Y0.6643645740566215 E4.49115
G1 X79.01538876067117 Y0.665994826843069 E4.50289
G1 X79.2940207140488 Y0.6683201559216473 E4.52816
G1 X79.33638641884315 Y0.6709043242176734 E4.54406
G1 X79.4242367542805 Y0.6725189945743443 E4.55580
G1 X79.7034356913176 Y0.6747997252963113 E4.58108
G1 X79.74775360472543 Y0.6773768801331411 E4.59698
G1 X79.8364307130523 Y0.67897606649237 E4.60872
G1 X80.11679245950877 Y0.6812224971911666 E4.63399
G1 X80.16242737093232 Y0.6837827380962049 E4.64990
G1 X80.25191907985753 Y0.6853665421533216 E4.66163
G1 X80.5334201993185 Y0.6875790745380702 E4.68691
G1 X80.58035666960032 Y0.6901224061213992 E4.70281
G1 X80.67065095187964 Y0.6916909326207257 E4.71455
G1 X80.95326840838484 Y0.6938699696131884 E4.73983
G1 X81.00149110973206 Y0.6963964030627009 E4.75573
G1 X81.09257608437409 Y0.6979497595903355 E4.76747
G1 X81.37628724020284 Y0.7000957049573535 E4.79274
G1 X81.42578096033222 Y0.7026052577619654 E4.80864
G1 X81.5176448936057 Y0.7041435545453498 E4.82038
G1 X81.80242750676778 Y0.7062568125488112 E4.84566
G1 X81.8531771527532 Y0.7087495082275381 E4.86156
G1 X81.94580845900539 Y0.7102728579417872 E4.87330
G1 X82.23164068045827 Y0.7123538330057364 E4.89857
G1 X82.2836312822909 Y0.7148297008428038 E4.91448
G1 X82.37636190072976 Y0.7163290627000928 E4.92622
G1 X82.66387889519822 Y0.7183873148182446 E4.95149
G1 X82.71709560906983 Y0.720846389604366 E4.96739
G1 X82.81056636082137 Y0.7223311321063038 E4.97913
G1 X83.09909494693669 Y0.7243578136095612 E5.00441
G1 X83.15352305825652 Y0.7268001353894994 E5.02031
G1 X83.247722875764 Y0.7282703766004267 E5.03205
G1 X83.53724229348249 Y0.7302658914259637 E5.05732
G1 X83.59286721963782 Y0.7326915052524626 E5.07323
G1 X83.68778518398011 Y0.7341473649677374 E5.08496
G1 X83.97827505373041 Y0.73611211605506 E5.11024
G1 X84.03508234660093 Y0.7385210717492108 E5.12614
G1 X84.13070768750255 Y0.7399626713354838 E5.13788
G1 X84.42214800631407 Y0.7418970603719253 E5.16315
G1 X84.48012335455009 Y0.7442894122900128 E5.17906
G1 X84.57644545025525 Y0.7457168745317924 E5.19080
G1 X84.86881658771966 Y0.7476213017125849 E5.21607
G1 X84.92794581879394 Y0.7499971085194379 E5.23197
G1 X85.02495419581243 Y0.7514105574718357 E5.24371
G1 X85.31823688989358 Y0.7532854212742948 E5.26899
G1 X85.37657515384416 Y0.7555694996553309 E5.28446
G1 X85.44646189281332 Y0.7567612387328565 E5.29373
G1 X85.79643363800153 Y0.7598873957404287 E5.32715
G1 X86.58064775109968 Y0.788330131507446 E5.52209
G1 X85.84111019785334 Y0.8059601400044318 E5.65014
G1 X85.63569263455514 Y0.8136000697521582 E5.70209
G1 X84.80846670586611 Y0.8210660296571014 E5.78118
G1 X74.03054683709962 Y0.9943854304252033 E7.10238
G1 X72.68949047145675 Y1.0041356923966684 E7.21748
G1 X70.8935676137123 Y1.0037998912981998 E7.35353
G1 X70.12286614935246 Y0.9975669399581847 E7.42068
G1 X69.30595929644146 Y0.9945233318801483 E7.48465
G1 X69.19977966727929 Y0.9919039472464473 E7.50056
G1 X69.07695231406782 Y0.9905509526217886 E7.51230
G1 X68.75432598026106 Y0.9893004973108163 E7.53757
G1 X68.6490978600593 Y0.9866520405322334 E7.55347
G1 X68.52676443551088 Y0.9852787834558299 E7.56521
G1 X68.20459845201056 Y0.9839933241602223 E7.59049
G1 X68.10034016067762 Y0.9813153441077961 E7.60639
G1 X67.97851211228443 Y0.9799214224057401 E7.61813
G1 X67.65682316662526 Y0.9786000592716951 E7.64340
G1 X67.55355345945911 Y0.975892099390212 E7.65931
G1 X67.43224255502705 Y0.9744771028601025 E7.67104
G1 X67.11104792804237 Y0.9731189121876637 E7.69632
G1 X67.00878600601567 Y0.9703805106640412 E7.71222
G1 X66.88800434308082 Y0.9689440210180946 E7.72396
G1 X66.56732193050883 Y0.9675480547528195 E7.74923
G1 X66.46608745066916 Y0.9647787447089482 E7.76514
G1 X66.34584746613763 Y0.9633203355282581 E7.77688
G1 X66.02569580095313 Y0.9618856207583777 E7.80215
G1 X65.92550888692479 Y0.959084930470336 E7.81805
G1 X65.80582336693311 Y0.9576041671715515 E7.82979
G1 X65.4862216424188 Y0.9561297056327042 E7.85507
G1 X65.38710289498994 Y0.9532971587783761 E7.87097
G1 X65.26798498498326 Y0.9517935985941729 E7.88271
G1 X64.94895307855239 Y0.9502783661840091 E7.90798
G1 X64.85173549720933 Y0.9474224839629296 E7.92389
G1 X64.73238680135316 Y0.9458866740960803 E7.93562
G1 X64.41394529913535 Y0.9443296204012739 E7.96090
G1 X64.31783505373917 Y0.9414410663893945 E7.97680
G1 X64.19908488444364 Y0.9398813994816111 E7.98854
G1 X63.88125510664298 Y0.9382814473200626 E8.01381
G1 X63.78627420534922 Y0.9353597363050073 E8.02972
G1 X63.66813693677552 Y0.9337757419791037 E8.04146
G1 X63.350940963808895 Y0.9321317869603931 E8.06673
G1 X63.25711193217724 Y0.929176430509654 E8.08263
G1 X63.13960234274524 Y0.9275676302369533 E8.09437
G1 X62.82306304216628 Y0.9258785403443893 E8.11965
G1 X62.73040893378585 Y0.9228890472296706 E8.13555
G1 X62.613542217319086 Y0.9212549544040873 E8.14729
G1 X62.29768327153106 Y0.9195195696020145 E8.17256
G1 X62.20622767858537 Y0.9164954462667168 E8.18847
G1 X62.09001945562587 Y0.9148355663034416 E8.20020
G1 X61.775656767046996 Y0.9130625941879982 E8.22548
G1 X61.684632454121015 Y0.9099934492465849 E8.24138
G1 X61.569098783399454 Y0.9083072797076234 E8.25312
G1 X61.25546233602355 Y0.9064857759265007 E8.27839
G1 X61.16568941816972 Y0.9033808399776295 E8.29430
G1 X61.05084680821388 Y0.9016678707265997 E8.30604
G1 X60.73796279922467 Y0.8997965925928001 E8.33131
G1 X60.649466650581516 Y0.8966553649291739 E8.34721
G1 X60.535332071444024 Y0.8949150783179154 E8.35895
G1 X60.22322762854877 Y0.8929927539487801 E8.38423
G1 X60.13603420579046 Y0.8898147338409315 E8.40013
G1 X60.02262510087342 Y0.8880466049306462 E8.41187
G1 X59.71132831381329 Y0.8860719330475441 E8.43714
G1 X59.62546416590818 Y0.8828566204752119 E8.45305
G1 X59.51279846385986 Y0.8810601172950107 E8.46478
G1 X59.20233841665378 Y0.8790317670777368 E8.49006
G1 X59.11783069430068 Y0.875778663524408 E8.50596
G1 X59.00592682095588 Y0.8739532473703117 E8.51770
G1 X58.696333624852585 Y0.8718698583726225 E8.54298
G1 X58.61321008953528 Y0.868578467687029 E8.55888
G1 X58.502849195573376 Y0.8667346583502461 E8.57062
G1 X58.1933918069741 Y0.8645837755978396 E8.59589
G1 X58.1116808395696 Y0.8612536049263155 E8.61179
G1 X58.002115383837506 Y0.8593799782980496 E8.62353
G1 X57.69293849337196 Y0.8571841588822063 E8.64881
G1 X57.61332367603869 Y0.8538016159262632 E8.66471
G1 X57.504573522459935 Y0.8518976191139249 E8.67645
G1 X57.19701979998609 Y0.8496292026594718 E8.70172
G1 X57.118221628478594 Y0.8462200117606714 E8.71763
G1 X57.01030718212277 Y0.8442850868487691 E8.72937
G1 X56.7037567450341 Y0.8419556949802417 E8.75464
G1 X56.62646007830615 Y0.8385062757916253 E8.77054
G1 X56.5194022969104 Y0.8365398603915379 E8.78228
G1 X56.21389104127199 Y0.83414798207305 E8.80756
G1 X56.13812681235454 Y0.830657865814607 E8.82346
G1 X56.03194721763647 Y0.8286593936762593 E8.83520
G1 X55.72751228073975 Y0.82620348941067 E8.86047
G1 X55.07408343313577 Y0.7934355846912423 E9.00667
G1 X55.04057125430295 Y0.7800280873171659 E9.06258
G1 X55.429567506882094 Y0.779759604998571 F3600.000
G1 X55.63446207163326 Y0.7646033173841718 E9.12814 F1500.000
G1 X55.994133353414796 Y0.7537465349823274 E9.18152
G1 X69.19944682582369 Y0.5868923924623145 E10.45351
G1 X70.81455740877011 Y0.5717990486768518 E10.59971 F1500.000
G1 X72.12992977953049 Y0.5706485894062258 E10.69946
G1 X73.57001566535106 Y0.5800141438006059 E10.82017
G1 X74.03224395491466 Y0.5886244963444738 E10.87968
G1 X74.65321609950907 Y0.5952138294576514 E10.93960
G1 X74.68051805524651 Y0.5979929490088373 E10.95550
G1 X74.75881018983648 Y0.5997893302513694 E10.96724
G1 X75.02469247521111 Y0.6024871105338787 E10.99252
G1 X75.05350125077443 Y0.6052497280780033 E11.00842
G1 X75.13276425102433 Y0.6070295709947376 E11.02016
G1 X75.40009847473675 Y0.6096883442264873 E11.04543
G1 X75.43039761926222 Y0.6124343637593544 E11.06134
G1 X75.51061772360228 Y0.6141977243760713 E11.07307
G1 X75.77937569682136 Y0.6168178599517883 E11.09835
G1 X75.81114879752185 Y0.6195471958346612 E11.11425
G1 X75.89231236429681 Y0.6212941359819217 E11.12599
G1 X76.16246630723036 Y0.623876009761176 E11.15126
G1 X76.19569699792764 Y0.6265885863902415 E11.16717
G1 X76.2777905094268 Y0.628319173419221 E11.17891
G1 X76.54872321600145 Y0.6308526180550931 E11.20418
G1 X76.58398502297983 Y0.633558918613197 E11.22008
G1 X76.66699508915164 Y0.6352732251173111 E11.23182
G1 X76.93926387092613 Y0.6377692835511701 E11.25710
G1 X76.9759562785679 Y0.6404585956157932 E11.27300
G1 X77.05986964042957 Y0.6421566991583884 E11.28474
G1 X77.33344804158159 Y0.6446157625431542 E11.31001
G1 X77.37155478598062 Y0.6472880392889012 E11.32592
G1 X77.45635831873327 Y0.6489700221372422 E11.33765
G1 X77.73122029789575 Y0.6513924858250204 E11.36293
G1 X77.77072519270989 Y0.6540476891852612 E11.37883
G1 X77.85640590856991 Y0.6557136380510162 E11.39057
G1 X78.13252583911517 Y0.6580999010858634 E11.41584
G1 X78.1734127820962 Y0.6607380014331926 E11.43175
G1 X78.25995783285346 Y0.6623880072195806 E11.44349
G1 X78.53731050271584 Y0.6647384718504176 E11.46876
G1 X78.57956348186212 Y0.6673594476812367 E11.48466
G1 X78.66696016117567 Y0.6689936052369707 E11.49640
G1 X78.94552077223888 Y0.6713086764504616 E11.52168
G1 X78.9891238715812 Y0.673912514074096 E11.53758
G1 X79.07735961702313 Y0.6755309219542306 E11.54932
G1 X79.35710378409736 Y0.6778110070273966 E11.57459
G1 X79.40204118912811 Y0.6803977002601189 E11.59050
G1 X79.49047324050852 Y0.6819906943765482 E11.60223
G1 X79.77200733339986 Y0.6842459685661776 E11.62751
G1 X79.81826333615633 Y0.6868155184304655 E11.64341
G1 X79.90750481024921 Y0.688393071850306 E11.65515
G1 X80.19017987883554 Y0.6906140779606744 E11.68043
G1 X80.23773888264799 Y0.6931664923899978 E11.69633
G1 X80.32777773597375 Y0.6947287126148233 E11.70807
G1 X80.61157054666532 Y0.6969158631104462 E11.73334
G1 X80.66041707058054 Y0.6994511566598378 E11.74924
G1 X80.75124140841427 Y0.700998153995882 E11.76098
G1 X81.03612913386226 Y0.7031518620488248 E11.78626
G1 X81.08624781675373 Y0.7056700556114585 E11.80216
G1 X81.17784589406152 Y0.7072019429669423 E11.81390
G1 X81.46380611044393 Y0.7093226221021266 E11.83917
G1 X81.51518171481924 Y0.7118237426320906 E11.85508
G1 X81.60754193700483 Y0.7133406353215285 E11.86681
G1 X81.89455262103823 Y0.7154286990797338 E11.89209
G1 X81.94717003655465 Y0.7179127793211624 E11.90799
G1 X82.04028096002597 Y0.7194147948765981 E11.91973
G1 X82.3283204857235 Y0.7214706564947302 E11.94501
G1 X82.38216473242251 Y0.7239377347174211 E11.96091
G1 X82.47601506498722 Y0.725424992706532 E11.97265
G1 X82.76506220018203 Y0.7274490648147073 E11.99792
G1 X82.8201184314536 Y0.7298991845563325 E12.01383
G1 X82.91469703255268 Y0.7313718064073242 E12.02556
G1 X83.20473093520584 Y0.7333645007423116 E12.05084
G1 X83.26031326508446 Y0.7357888072088267 E12.06674
G1 X83.35628032128113 Y0.7372558193905026 E12.07848
G1 X83.64728053559183 Y0.7392175465250518 E12.10375
G1 X83.70404125249867 Y0.7416250905376374 E12.11966
G1 X83.80071906612736 Y0.7430776202062671 E12.13140
G1 X84.09266551846243 Y0.7450087892938445 E12.15667
G1 X84.15059025936776 Y0.747399627813018 E12.17257
G1 X84.24796807638747 Y0.7488378018952925 E12.18431
G1 X84.54084107104684 Y0.7507388204297436 E12.20959
G1 X84.59991561461513 Y0.7531130147142834 E12.22549
G1 X84.69798283312302 Y0.7545369613686099 E12.23723
G1 X84.9917630479566 Y0.7564082349582599 E12.26250
G1 X85.03958773418412 Y0.7583044787907901 E12.27526
G1 X85.10978936056651 Y0.759482073513144 E12.28454
G1 X85.4611790522457 Y0.7626178394132781 E12.31796
G1 X86.15983681507295 Y0.7879915526329112 E12.49116
G1 X85.47759852733346 Y0.8042934999948778 E12.60904
G1 X85.30046229651983 Y0.8108499857176915 E12.65353
G1 X84.54533705060263 Y0.8176455851418688 E12.72554
G1 X73.75975556494205 Y0.9903442402530714 E14.04149
G1 X72.59426127456632 Y0.9987528433987433 E14.14124
G1 X71.0010366473617 Y0.9983257264637756 E14.26195
G1 X70.32334708331224 Y0.9926970840687561 E14.32148
G1 X69.56078402375867 Y0.9896955550503062 E14.38139
G1 X69.45548118039353 Y0.9870784472289116 E14.39729
G1 X69.33310681773895 Y0.9857219139957774 E14.40903
G1 X69.01090117510422 Y0.9844535427999737 E14.43430
G1 X68.90738748494243 Y0.9818156556257485 E14.45021
G1 X68.78468044557596 Y0.9804308815844276 E14.46194
G1 X68.46294508710533 Y0.9791274713679182 E14.48722
G1 X68.36040436539268 Y0.9764604313153087 E14.50312
G1 X68.23821062278816 Y0.9750549526529319 E14.51486
G1 X67.91696239526618 Y0.9737156120515164 E14.54013
G1 X67.81541330700566 Y0.9710189755179752 E14.55604
G1 X67.69374473317309 Y0.9695923857203278 E14.56778
G1 X67.37300107609872 Y0.9682162001168769 E14.59305
G1 X67.27246272435698 Y0.9654895186877532 E14.60895
G1 X67.15133152067799 Y0.9640414034100265 E14.62069
G1 X66.83111048755661 Y0.9626274344580055 E14.64597
G1 X66.73160242343954 Y0.959870255111563 E14.66187
G1 X66.61102113014032 Y0.958400192144954 E14.67361
G1 X66.2913414104738 Y0.9569474772988046 E14.69888
G1 X66.19288364318328 Y0.9541593426375222 E14.71479
G1 X66.0728651490156 Y0.952666901888654 E14.72652
G1 X65.75456019167036 Y0.9511832856860282 E14.75180
G1 X65.65635909795792 Y0.9483549024532629 E14.76770
G1 X65.53691665008355 Y0.9468396459377896 E14.77944
G1 X65.21918896306516 Y0.9453154299130715 E14.80471
G1 X65.12208302104594 Y0.9424550189200461 E14.82062
G1 X65.00323023511986 Y0.9409165007719087 E14.83236
