; generated by Slic3r 1.2.9 on 2017-06-18 at 16:44:52

; external perimeters extrusion width = 0.40mm
; perimeters extrusion width = 0.40mm
; infill extrusion width = 0.40mm
; solid infill extrusion width = 0.40mm
; top infill extrusion width = 0.40mm
; support material extrusion width = 0.40mm

M107
M190 S77 ; set bed temperature
M104 S280 ; set temperature
G1 X3 Y0
G1 Z5 F5000 ; lift nozzle

M109 S280 ; wait for temperature to be reached
G21 ; set units to millimeters
G90 ; use absolute coordinates
M82 ; use absolute distances for extrusion
G92 E0
G1 Z0.496 F3600.000
G1 E-2.00000 F2400.00000
G92 E0
G1 X0.08762301560411061 Y-1.5415845005456412 F3600.000
G1 X7.136141534470851 Y-3.100101752279746 F3600.000
G1 E2.00000 F2400.00000
G1 X7.260838037031263 Y-3.0572047392106154 E2.02527 F1500.000
G1 X7.185671924044403 Y-3.030028702885232 E2.04118
G1 X7.193672566916012 Y-3.008444024175029 E2.05292
G1 X7.345792401096017 Y-2.9676932763316777 E2.07819
G1 X7.288522621217553 Y-2.9400533223869236 E2.09409
G1 X7.310396432478884 Y-2.918977023557589 E2.10583
G1 X7.487998731303311 Y-2.8809042366372792 E2.13111
G1 X7.448476689901097 Y-2.853260688198269 E2.14701
G1 X7.4835438797404 Y-2.8329842238163994 E2.15875
G1 X7.68427914641315 Y-2.7979471874470456 E2.18402
G1 X7.661958626878639 Y-2.7707081225840873 E2.19993
G1 X7.709314106974757 Y-2.751451270885443 E2.21166
G1 X7.930619710968368 Y-2.7196298800852863 E2.23694
G1 X7.924643651294359 Y-2.693126178717543 E2.25284
G1 X7.983243764285292 Y-2.6750320507557372 E2.26458
G1 X8.22252236238978 Y-2.6464486889598855 E2.28985
G1 X8.231822762912234 Y-2.6209246998443003 E2.30576
G1 X8.300566245744925 Y-2.6040657072354474 E2.31750
G1 X8.555324716222056 Y-2.578619682575713 E2.34277
G1 X8.578717678068209 Y-2.554236650449995 E2.35867
G1 X8.65594385379203 Y-2.5387222102031615 E2.37041
G1 X8.924452364150978 Y-2.5161328461228836 E2.39569
G1 X8.960717047201078 Y-2.492980324435802 E2.41159
G1 X9.045904542940967 Y-2.4786782258096065 E2.42333
G1 X9.325592796171192 Y-2.45881316468241 E2.44860
G1 X9.37353001808817 Y-2.4369238238602553 E2.46451
G1 X9.465726385227919 Y-2.423776348439183 E2.47624
G1 X9.754797486365362 Y-2.406377318674807 E2.50152
G1 X9.813268670529713 Y-2.3857418284908927 E2.51742
G1 X9.911615660425904 Y-2.3736739798581383 E2.52916
G1 X10.208527268906128 Y-2.3584802796587723 E2.55444
G1 X10.276477071448172 Y-2.3390603884377983 E2.57034
G1 X10.380213677954805 Y-2.3279888062062017 E2.58208
G1 X10.683657894185867 Y-2.3147502964547226 E2.60735
G1 X10.76012462753104 Y-2.2964893666172195 E2.62325
G1 X10.868583578369353 Y-2.2863286078325493 E2.63499
G1 X11.177460579219236 Y-2.274813218660713 E2.66027
G1 X12.064396628095414 Y-2.1271375956313654 E2.80646
G1 X12.3089280199374 Y-2.0634776476301155 E2.86806
G1 X12.402895468397693 Y-1.9866138630450518 E2.94031
G1 X12.317375735115009 Y-1.9211765291756746 E3.00190
G1 X11.569 Y-1.5707963267948966 E4.28568
G1 X17.195669367605323 Y-0.7379676231786791 E4.28568
G1 X18.66876709908825 Y-0.6683580145868332 E4.43187 F1500.000
G1 X19.30217669072584 Y-0.5955606910578071 E4.54697
G1 X19.285028896393918 Y-0.5534057831907566 E4.68303
G1 X19.310047358823333 Y-0.5024960832532656 E4.68303
G1 X18.94093941704054 Y-0.46036568089793506 E4.75016
G1 X18.841523133759647 Y-0.41594483340076394 E4.81414
G1 X18.680056370364625 Y-0.40877193157883834 E4.83004
G1 X18.609254176350003 Y-0.40141318357801514 E4.84178
G1 X18.58503002418882 Y-0.3835038801997722 E4.86706
G1 X18.42803942366089 Y-0.37595165584567525 E4.88296
G1 X18.361793049699692 Y-0.3683703141856888 E4.89470
G1 X18.348630739104212 Y-0.3501911595448609 E4.91997
G1 X18.196409810729147 Y-0.3422587164924947 E4.93588
G1 X18.13491408857511 Y-0.33446284238691654 E4.94761
G1 X18.132979655248466 Y-0.3198566172672232 E4.97289
G1 X18.13311117817348 Y-0.3160478904167451 E4.97289
G1 X17.98595521511159 Y-0.30773729931050864 E4.98879
G1 X17.929398651377017 Y-0.2997373159678397 E5.00053
G1 X17.939223896255935 Y-0.2811250942540804 E5.02580
G1 X17.797426836483975 Y-0.2724416624937002 E5.04171
G1 X17.745988983429466 Y-0.26425042086555595 E5.05345
G1 X17.76767708508909 Y-0.24548372737723803 E5.07872
G1 X17.631528039282358 Y-0.23643621265749548 E5.09462
G1 X17.585376765938225 Y-0.22806899714623016 E5.10636
G1 X17.61912330395585 Y-0.20919455365846173 E5.13164
G1 X17.48910132053674 Y-0.1998513450831304 E5.14754
G1 X17.448191568182644 Y-0.19126976958061676 E5.15928
G1 X17.494148307362664 Y-0.17233772751266327 E5.18455
G1 X17.37028641099507 Y-0.16265954296478832 E5.20046
G1 X17.33498958753653 Y-0.15393876743222026 E5.21219
G1 X17.393260361415855 Y-0.13500207012011842 E5.23747
G1 X17.275809590291274 Y-0.12500834520981696 E5.25337
G1 X17.246243098135892 Y-0.11617042338754184 E5.26511
G1 X17.316880463871083 Y-0.09728403809045989 E5.29038
G1 X17.206071777137275 Y-0.08699763233409424 E5.30629
G1 X17.182331040926897 Y-0.0780663600374455 E5.31803
G1 X17.26533388035111 Y-0.05928640242635683 E5.34330
G1 X17.161374566158738 Y-0.04873333406321697 E5.35920
G1 X17.143531170677758 Y-0.0397338925108637 E5.37094
G1 X17.238843377674733 Y-0.02111667503126576 E5.39622
G1 X17.141913837141985 Y-0.010325751666039584 E5.41212
G1 X17.13001412725629 Y-0.0012842958496370454 E5.42386
G1 X17.237507389411032 Y0.017056657287515903 E5.44913
G1 X17.147775511709966 Y0.02811230489306169 E5.46504
G1 X17.141839720403407 Y0.03716909664998927 E5.47677
G1 X17.261327700962052 Y0.055238208255937095 E5.50205
G1 X17.178933668886433 Y0.06646748847723574 E5.51795
G1 X17.178768774675504 Y0.07084895954460482 E5.52969
G1 X17.178955614355605 Y0.07551288467561229 E5.52969
G1 X17.31022151793558 Y0.093259294516777 E5.55497
G1 X17.235251115083873 Y0.10462790979639691 E5.57087
G1 X17.241198479224114 Y0.11363559507326455 E5.58261
G1 X17.38397727794189 Y0.13101200175871555 E5.60788
G1 X17.316482379513456 Y0.14248506884474135 E5.62378
G1 X17.328297550538537 Y0.1514295920772274 E5.63552
G1 X17.482280314650033 Y0.1683929767335019 E5.66080
G1 X17.42227898410538 Y0.17993564079759677 E5.67670
G1 X17.43988041816801 Y0.1887928234588102 E5.68844
G1 X17.604719424063536 Y0.20530502460366304 E5.71371
G1 X17.552196728614913 Y0.21688304589216764 E5.72962
G1 X17.57548076156098 Y0.22563033532693652 E5.74135
G1 X17.750795165287666 Y0.2416584588983691 E5.76663
G1 X17.705704645678463 Y0.25323874923513945 E5.78253
G1 X17.734288821376516 Y0.26180103996918785 E5.79427
G1 X17.91992951995068 Y0.27737216480920746 E5.81955
G1 X17.88219522318219 Y0.28892325588301476 E5.83545
G1 X17.916163121606143 Y0.29733760154352684 E5.84719
G1 X18.11147649972249 Y0.31237435591113955 E5.87246
G1 X18.080995464852037 Y0.3238667867867563 E5.88837
G1 X18.12019216233647 Y0.33211703703099316 E5.90010
G1 X18.32473328591715 Y0.3466030232054272 E5.92538
G1 X18.301378363391102 Y0.35800964027686266 E5.94128
G1 X18.345636783715083 Y0.36608196457205 E5.95302
G1 X18.558951505944506 Y0.38000609199156027 E5.97829
G1 X18.542574389765836 Y0.3913022600854864 E5.99420
G1 X18.591717941061823 Y0.39918514992499066 E6.00594
G1 X18.81334829316674 Y0.41254131531567556 E6.03121
G1 X18.803782651370973 Y0.42370504341315995 E6.04711
G1 X18.857627767033687 Y0.431389257404216 E6.05885
G1 X19.087116833089276 Y0.4441759420071242 E6.08413
G1 X19.084181433847245 Y0.45518793080046643 E6.10003
G1 X19.142539956860478 Y0.46266639260698783 E6.11177
G1 X19.379436163108565 Y0.47488620252867 E6.13704
G1 X19.382790949705875 Y0.48538381730486274 E6.15251
G1 X19.423255391411605 Y0.49139586915214906 E6.16179
G1 X19.693349765847355 Y0.5091946271885917 E6.19520
G1 X19.97447283409502 Y0.6382744138908577 E6.39014
G1 X19.05413865804487 Y0.7109601894473785 E6.51820
G1 X18.79571368690213 Y0.7445684254466374 E6.57014
G1 X17.933628327809185 Y0.7766053613387748 E6.64924
G1 X12.569 Y1.5707963267948966 E7.97043
G1 X13.402270889666422 Y1.9252791133295757 E7.97043
G1 X13.253302418642683 Y2.038830612567712 E8.08553
G1 X12.410396004962937 Y2.162575786294381 E8.22159
G1 X11.712828736048351 Y2.2080478371220007 E8.28874
G1 X11.248510745872094 Y2.2694615972496277 E8.35271
G1 X11.044206897736025 Y2.2738933440289872 E8.36861
G1 X10.919997298534465 Y2.282243493930309 E8.38035
G1 X10.75227143444584 Y2.3088929113942984 E8.40563
G1 X10.550101279134719 Y2.314292419424241 E8.42153
G1 X10.429738443508542 Y2.32351043402586 E8.43327
G1 X10.274349127803667 Y2.352065126189133 E8.45854
G1 X10.07488610357457 Y2.358580785494379 E8.47445
G1 X9.95897128221585 Y2.3687621732889172 E8.48618
G1 X9.817419263737289 Y2.3993512973909223 E8.51146
G1 X9.62136087047981 Y2.4071474795461 E8.52736
G1 X9.510590728235549 Y2.418390686334267 E8.53910
G1 X9.384548683873934 Y2.4511247655144164 E8.56437
G1 X9.192736371723056 Y2.460378924986961 E8.58028
G1 X9.08791092605996 Y2.4727804956536605 E8.59202
G1 X8.979217616251429 Y2.507736187157541 E8.61729
G1 X8.79265494603308 Y2.518632860508076 E8.63319
G1 X8.694680902712877 Y2.532280022597905 E8.64493
G1 X8.605318471735952 Y2.569480147902588 E8.67021
G1 X8.425183796214775 Y2.582200716090465 E8.68611
G1 X8.335069825742313 Y2.5971609117269887 E8.69785
G1 X8.267117091223518 Y2.636550188126055 E8.72312
G1 X8.094765283811507 Y2.6512574505854785 E8.73903
G1 X8.013604931614735 Y2.667564794590247 E8.75076
G1 X7.969159679665102 Y2.708983302225104 E8.77604
G1 X7.8065099116058265 Y2.7256834658715285 E8.79194
G1 X7.735043697355561 Y2.743440202011668 E8.80368
G1 X7.716109706322222 Y2.7865989274077205 E8.82895
G1 X7.564317946781454 Y2.8054606173172454 E8.84486
G1 X7.504165509901817 Y2.8244775485032183 E8.85660
G1 X7.512506505820811 Y2.8689428585866894 E8.88187
G1 X7.373247384972242 Y2.8899364581348896 E8.89777
G1 X7.325480257293716 Y2.910056444190664 E8.90951
G1 X7.362453463350381 Y2.955251812687853 E8.93479
G1 X7.237348271293844 Y2.97823849075162 E8.95069
G1 X7.202873315559562 Y2.9992243824965135 E8.96243
G1 X7.269267500924697 Y3.0444563343345394 E8.98770
G1 X7.1597629150691855 Y3.069180623716161 E9.00361
G1 X7.139234482771944 Y3.090724931929189 E9.01534
G1 X7.235146232108927 Y3.1352347572274772 E9.04062
G1 X7.142391896276765 Y-3.1218500852687203 E9.05652
G1 X7.139421335094322 Y-3.110632818227221 E9.06258
G1 X6.748239029554302 Y-3.0892588248038857 F3600.000
G1 X6.839806210705096 Y-3.0563995074348607 E9.08088 F1500.000
G1 X6.764964227547696 Y-3.0275237020728287 E9.09678
G1 X6.773320898938717 Y-3.0047483809735116 E9.10852
G1 X6.9270705207901555 Y-2.96146800062824 E9.13380
G1 X6.871235842263021 Y-2.9320951556068104 E9.14970
G1 X6.8941996634852405 Y-2.9099122952611056 E9.16144
G1 X7.074901059378852 Y-2.869700051849909 E9.18671
G1 X7.0378679299912985 Y-2.8403776148149062 E9.20262
G1 X7.07464939060587 Y-2.819126919626188 E9.21435
G1 X7.279608918066959 Y-2.7823878788076852 E9.23963
G1 X7.260705888548302 Y-2.7535926189537765 E9.25553
G1 X7.310259981696958 Y-2.7335215990123145 E9.26727
G1 X7.5365608204273125 Y-2.7004365029309123 E9.29254
G1 X7.534654656983292 Y-2.677945044588986 E9.30845
G1 X7.534764561683398 Y-2.672543862544175 E9.30845
G1 X7.595900209981697 Y-2.6538036814069157 E9.32019
G1 X7.840622041649501 Y-2.6243607002313496 E9.34546
G1 X7.854684334841217 Y-2.5976360501663684 E9.36136
G1 X7.926163069228389 Y-2.5802919071714157 E9.37310
G1 X8.186545119890319 Y-2.554335383102028 E9.39838
G1 X8.215109068052596 Y-2.528942042102596 E9.41428
G1 X8.295720824617955 Y-2.5129913438633125 E9.42602
G1 X8.569261928544373 Y-2.490272822109658 E9.45129
G1 X8.61095407025261 Y-2.4662894755403246 E9.46720
G1 X8.699567173141432 Y-2.45168177384785 E9.47893
G1 X8.984071515743851 Y-2.4319039520365617 E9.50421
G1 X9.036897808429616 Y-2.409427334980329 E9.52011
G1 X9.13315476711087 Y-2.3959998906889086 E9.53185
G1 X9.426738248195926 Y-2.378849677040425 E9.55712
G1 X9.490091727691572 Y-2.3577592009338515 E9.57303
G1 X9.592451459350734 Y-2.34550562341873 E9.58477
G1 X9.893523588691746 Y-2.3306763299984254 E9.61004
G1 X9.966279245535919 Y-2.310912964260498 E9.62594
G1 X10.073941433222648 Y-2.299730388523527 E9.63768
G1 X10.381174596354693 Y-2.2869349697438164 E9.66296
G1 X10.462321205162839 Y-2.268422752292311 E9.67886
G1 X10.574593561929461 Y-2.2582092145784807 E9.69060
G1 X10.886887755460695 Y-2.2471869591013167 E9.71587
G1 X11.704985818017894 Y-2.1136919762003283 E9.84574
G1 X11.92349801861853 Y-2.056949983146875 E9.89912
G1 X12.010261029636283 Y-1.986577451077163 E9.96316
G1 X11.932475434711776 Y-1.9280662772575237 E10.01654
G1 X11.179 Y-1.5707963267948966 E11.28854
G1 X16.8592538684249 Y-0.7249232321748588 E11.28854
G1 X18.348638668849524 Y-0.6551207608831827 E11.43473 F1500.000
G1 X18.90898648791098 Y-0.5910681439102187 E11.53449
G1 X18.89529524064683 Y-0.5530116664519754 E11.65520
G1 X18.915501711559227 Y-0.5067852774979299 E11.65520
G1 X18.578405340609834 Y-0.46891933330988145 E11.71471
G1 X18.470508222569297 Y-0.42661853175040887 E11.77463
G1 X18.308024934437903 Y-0.41944442957663786 E11.79053
G1 X18.23536950544189 Y-0.41192687504890224 E11.80227
G1 X18.207703891485057 Y-0.3936631100387734 E11.82754
G1 X18.04968282269802 Y-0.3860927962249693 E11.84345
G1 X17.981664661537874 Y-0.37833772074388927 E11.85518
G1 X17.965240048493648 Y-0.3597804748069755 E11.88046
G1 X17.81198711542314 Y-0.35181200954433484 E11.89636
G1 X17.748813735007754 Y-0.34382741185152704 E11.90810
G1 X17.743950546594746 Y-0.32501193543006807 E11.93337
G1 X17.595774549590022 Y-0.31664654063296543 E11.94928
G1 X17.537647390684988 Y-0.30844301237659466 E11.96102
G1 X17.544636616356577 Y-0.2894095300305015 E11.98629
G1 X17.40184590783403 Y-0.28065190864699 E12.00219
G1 X17.34895746147301 Y-0.2722427259494073 E12.01393
G1 X17.368054842152016 Y-0.25303624765328664 E12.03921
G1 X17.230953601005375 Y-0.24389484343722714 E12.05511
G1 X17.18348439636153 Y-0.2352959913963333 E12.06685
G1 X17.215119081783897 Y-0.21602269933371174 E12.09212
G1 X17.083788953273803 Y-0.20645313758114361 E12.10803
G1 X17.041904500377886 Y-0.19768325677049084 E12.11976
G1 X17.08599385461671 Y-0.17834062580339077 E12.14504
G1 X16.960969606717654 Y-0.1684151508845592 E12.16094
G1 X16.9248173993104 Y-0.15949539809078597 E12.17268
G1 X16.981478410315166 Y-0.1401398506198281 E12.19795
G1 X16.863027515840685 Y-0.12987894683360454 E12.21386
G1 X16.832734210460284 Y-0.12083276666729276 E12.22560
G1 X16.9020292864496 Y-0.10152308599882959 E12.25087
G1 X16.790398029826452 Y-0.09095106137938541 E12.26677
G1 X16.766066921016392 Y-0.08180387075598371 E12.27851
G1 X16.848001098053146 Y-0.06260022831499601 E12.30379
G1 X16.743410554603265 Y-0.05174492830225936 E12.31969
G1 X16.72511946145677 Y-0.042523721667949425 E12.33143
G1 X16.81963881895209 Y-0.023486611194946622 E12.35670
G1 X16.722281243897317 Y-0.012379010007753951 E12.37261
G1 X16.71008090943907 Y-0.0031118989913440577 E12.38434
G1 X16.817072307628344 Y0.01569897777865903 E12.40962
G1 X16.72710808836961 Y0.027025294704111805 E12.42552
G1 X16.720984899221698 Y0.036249822783612634 E12.43726
G1 X16.840313358129652 Y0.05483643474135278 E12.46254
G1 X16.757868659229906 Y0.06634587628236284 E12.47844
G1 X16.75766239240629 Y0.07130746478528541 E12.49018
G1 X16.757813849067546 Y0.07555904946532961 E12.49018
G1 X16.889255430598475 Y0.09380653690630956 E12.51545
G1 X16.814420626355226 Y0.10546217271034447 E12.53135
G1 X16.82040058976004 Y0.11463582328849521 E12.54309
G1 X16.963676075662374 Y0.13249309992052952 E12.56837
G1 X16.896505023228915 Y0.14425735689352143 E12.58427
G1 X16.90845909596732 Y0.15336426918965698 E12.59601
G1 X17.063241925261448 Y0.17078499888301046 E12.62128
G1 X17.0037520859368 Y0.18262035560387158 E12.63719
G1 X17.02159404991201 Y0.1916347239573707 E12.64893
G1 X17.187515992719835 Y0.2085779679473945 E12.67420
G1 X17.13568936459809 Y0.22044761638703278 E12.69010
G1 X17.1593094558027 Y0.22934543915138275 E12.70184
G1 X17.33596691851943 Y0.2457761111236947 E12.72712
G1 X17.291751704208572 Y0.25764455892688815 E12.74302
G1 X17.32101902314064 Y0.2664039555753987 E12.75476
G1 X17.507979723543205 Y0.282293078804848 E12.78003
G1 X17.471292625332563 Y0.29412667108677754 E12.79593
G1 X17.50605783721738 Y0.3027281152113748 E12.80767
