; generated by Slic3r 1.2.9 on 2017-06-18 at 16:44:52

; external perimeters extrusion width = 0.40mm
; perimeters extrusion width = 0.40mm
; infill extrusion width = 0.40mm
; solid infill extrusion width = 0.40mm
; top infill extrusion width = 0.40mm
; support material extrusion width = 0.40mm

M107
M190 S77 ; set bed temperature
M104 S280 ; set temperature
G1 X3 Y0 
G1 Z5 F5000 ; lift nozzle

M109 S280 ; wait for temperature to be reached
G21 ; set units to millimeters
G90 ; use absolute coordinates
M82 ; use absolute distances for extrusion
G92 E0
G1 Z0.496 F3600.000
G1 E-2.00000 F2400.00000
G92 E0
G1 X3.0 Y0.0 F3600.000
G1 X0.08762301560411068 Y-0.13507828274636588 F3600.000
G1 E2.00000 F2400.00000
G1 X7.136141534470851 Y-22.12276487552936 E2.02527 F1500.000
G1 X7.260838037031263 Y-22.197868457452678 E2.04118
G1 X7.185671924044403 Y-21.77279217937109 E2.05292
G1 X7.193672566916012 Y-21.64176124581032 E2.07819
G1 X7.345792401096017 Y-21.80005871806098 E2.09409
G1 X7.288522621217553 Y-21.428645147802918 E2.10583
G1 X7.310396432478884 Y-21.33887921950323 E2.13111
G1 X7.487998731303311 Y-21.572207268946283 E2.14701
G1 X7.448476689901097 Y-21.252445726255967 E2.15875
G1 X7.4835438797404 Y-21.200761749542323 E2.18402
G1 X7.68427914641315 Y-21.500207225264656 E2.19993
G1 X7.661958626878639 Y-21.229051002395867 E2.21166
G1 X7.709314106974757 Y-21.211802097290768 E2.23694
G1 X7.930619710968368 Y-21.56835033354291 E2.25284
G1 X7.924643651294359 Y-21.342065274308613 E2.26458
G1 X7.983243764285292 Y-21.355432938459035 E2.28985
G1 X8.22252236238978 Y-21.760483525889775 E2.30576
G1 X8.231822762912234 Y-21.574987604057227 E2.31750
G1 X8.300566245744925 Y-21.61521991118044 E2.34277
G1 X8.555324716222056 Y-22.060928704076673 E2.35867
G1 X8.578717678068209 Y-21.912075107185103 E2.37041
G1 X8.65594385379203 Y-21.975036911893373 E2.39569
G1 X8.924452364150978 Y-22.455107727099296 E2.41159
G1 X8.960717047201078 Y-22.338891291508762 E2.42333
G1 X9.045904542940967 Y-22.421886623339976 E2.44860
G1 X9.325592796171192 Y-22.929890335693173 E2.46451
G1 X9.37353001808817 Y-22.842578614748312 E2.47624
G1 X9.465726385227919 Y-22.942803733312154 E2.50152
G1 X9.754797486365362 Y-23.473723419455627 E2.51742
G1 X9.813268670529713 Y-23.411925541501947 E2.52916
G1 X9.911615660425904 Y-23.526944191507404 E2.55444
G1 X10.208527268906128 Y-24.076610248073926 E2.57034
G1 X10.276477071448172 Y-24.037300450513687 E2.58208
G1 X10.380213677954805 Y-24.16502124830729 E2.60735
G1 X10.683657894185867 Y-24.730000277787575 E2.62325
G1 X10.76012462753104 Y-24.710511790601103 E2.63499
G1 X10.868583578369353 Y-24.84915356184491 E2.66027
G1 X11.177460579219236 Y-25.426635076666948 E2.80646
G1 X12.064396628095414 Y-25.66263163623003 E2.86806
G1 X12.3089280199374 Y-25.39919783542884 E2.94031
G1 X12.402895468397693 Y-24.63976407941751 E3.00190
G1 X12.317375735115009 Y-23.663853163340928 E4.28568
G1 X11.569 Y-18.17254270469016 E4.28568
G1 X17.195669367605323 Y-12.68984725217812 E4.43187 F1500.000
G1 X18.66876709908825 Y-12.477420113130616 E4.54697
G1 X19.30217669072584 Y-11.495617688848577 E4.68303
G1 X19.285028896393918 Y-10.672446520265249 E4.68303
G1 X19.310047358823333 Y-9.70322316524379 E4.75016
G1 X18.94093941704054 Y-8.719758471572405 E4.81414
G1 X18.841523133759647 Y-7.837034200888296 E4.83004
G1 X18.680056370364625 Y-7.635882724515532 E4.84178
G1 X18.609254176350003 Y-7.469999962941129 E4.86706
G1 X18.58503002418882 Y-7.1274311279056795 E4.88296
G1 X18.42803942366089 Y-6.928051935314695 E4.89470
G1 X18.361793049699692 Y-6.763939474730472 E4.91997
G1 X18.348630739104212 Y-6.425528274587382 E4.93588
G1 X18.196409810729147 Y-6.2278798665915955 E4.94761
G1 X18.13491408857511 Y-6.065454912507368 E4.97289
G1 X18.132979655248466 Y-5.799953533503153 E4.97289
G1 X18.13311117817348 Y-5.730931534554027 E4.98879
G1 X17.98595521511159 Y-5.534949283418199 E5.00053
G1 X17.929398651377017 Y-5.374109828681152 E5.02580
G1 X17.939223896255935 Y-5.043166008680001 E5.04171
G1 X17.797426836483975 Y-4.84876055544169 E5.05345
G1 X17.745988983429466 Y-4.6893850575467555 E5.07872
G1 X17.76767708508909 Y-4.36167559768281 E5.09462
G1 X17.631528039282358 Y-4.168731712972358 E5.10636
G1 X17.585376765938225 Y-4.010679243446147 E5.13164
G1 X17.61912330395585 Y-3.6858246354244453 E5.14754
G1 X17.48910132053674 Y-3.4952204232044197 E5.15928
G1 X17.448191568182644 Y-3.337311580844754 E5.18455
G1 X17.494148307362664 Y-3.014901764060386 E5.20046
G1 X17.37028641099507 Y-2.8254428487799315 E5.21219
G1 X17.33498958753653 Y-2.6685269305557457 E5.23747
G1 X17.393260361415855 Y-2.3481261549293393 E5.25337
G1 X17.275809590291274 Y-2.159620369042198 E5.26511
G1 X17.246243098135892 Y-2.003503362554918 E5.29038
G1 X17.316880463871083 Y-1.6846560586551753 E5.30629
G1 X17.206071777137275 Y-1.4968875063814242 E5.31803
G1 X17.182331040926897 Y-1.341362041323575 E5.34330
G1 X17.26533388035111 Y-1.0235995324559088 E5.35920
G1 X17.161374566158738 Y-0.836330999716609 E5.37094
G1 X17.143531170677758 Y-0.6811792247923513 E5.39622
G1 X17.238843377674733 Y-0.3640270535212451 E5.41212
G1 X17.141913837141985 Y-0.17700314536297584 E5.42386
G1 X17.13001412725629 Y-0.022000006047859216 E5.44913
G1 X17.237507389411032 Y0.29401425603220693 E5.46504
G1 X17.147775511709966 Y0.48206349342296756 E5.47677
G1 X17.141839720403407 Y0.6371466973262992 E5.50205
G1 X17.261327700962052 Y0.9534848143197178 E5.51795
G1 X17.178933668886433 Y1.1418405756879062 E5.52969
G1 X17.178768774675504 Y1.2170978939431054 E5.52969
G1 X17.178955614355605 Y1.297232494154297 E5.55497
G1 X17.31022151793558 Y1.614339046691805 E5.57087
G1 X17.235251115083873 Y1.8032882989872447 E5.58261
G1 X17.241198479224114 Y1.959213848962896 E5.60788
G1 X17.38397727794189 Y2.277509661711194 E5.62378
G1 X17.316482379513456 Y2.4673401839937252 E5.63552
G1 X17.328297550538537 Y2.624017029470869 E5.66080
G1 X17.482280314650033 Y2.943893222273421 E5.67670
G1 X17.42227898410538 Y3.134888933159505 E5.68844
G1 X17.43988041816801 Y3.292524264929954 E5.71371
G1 X17.604719424063536 Y3.6143373544979487 E5.72962
G1 X17.552196728614913 Y3.8067738886005427 E5.74135
G1 X17.57548076156098 Y3.965561617763125 E5.76663
G1 X17.750795165287666 Y4.289629803864038 E5.78253
G1 X17.705704645678463 Y4.483770498798412 E5.79427
G1 X17.734288821376516 Y4.642855256550315 E5.81955
G1 X17.91992951995068 Y4.9704896441771425 E5.83545
G1 X17.88219522318219 Y5.166582066217492 E5.84719
G1 X17.916163121606143 Y5.327148971440957 E5.87246
G1 X18.11147649972249 Y5.657560806200553 E5.88837
G1 X18.080995464852037 Y5.855833903107542 E5.90010
G1 X18.12019216233647 Y6.018024531387413 E5.92538
G1 X18.32473328591715 Y6.3514079563320065 E5.94128
G1 X18.301378363391102 Y6.5520698844484055 E5.95302
G1 X18.345636783715083 Y6.716006755107682 E5.97829
G1 X18.558951505944506 Y7.052514633234854 E5.99420
G1 X18.542574389765836 Y7.25575126651863 E6.00594
G1 X18.591717941061823 Y7.421537713665902 E6.03121
G1 X18.81334829316674 Y7.761283450354926 E6.04711
G1 X18.803782651370973 Y7.967257544630762 E6.05885
G1 X18.857627767033687 Y8.134978038825787 E6.08413
G1 X19.087116833089276 Y8.478038099537466 E6.10003
G1 X19.084181433847245 Y8.686889057893605 E6.11177
G1 X19.142539956860478 Y8.856609907175763 E6.13704
G1 X19.379436163108565 Y9.203026846645406 E6.15251
G1 X19.382790949705875 Y9.408093061190383 E6.16179
G1 X19.423255391411605 Y9.54450746482687 E6.19520
G1 X19.693349765847355 Y10.027747892115183 E6.39014
G1 X19.97447283409502 Y12.749194940960859 E6.51820
G1 X19.05413865804487 Y13.546734030080199 E6.57014
G1 X18.79571368690213 Y13.99469494500253 E6.64924
G1 X17.933628327809185 Y13.92735190763354 E7.97043
G1 X12.569 Y19.743339031485057 E7.97043
G1 X13.402270889666422 Y25.803112215059752 E8.08553
G1 X13.253302418642683 Y27.0212386887464 E8.22159
G1 X12.410396004962937 Y26.83842189865737 E8.28874
G1 X11.712828736048351 Y25.86248615721198 E8.35271
G1 X11.248510745872094 Y25.528063164006483 E8.36861
G1 X11.044206897736025 Y25.11334855484098 E8.38035
G1 X10.919997298534465 Y24.92209278831683 E8.40563
G1 X10.75227143444584 Y24.825843296379404 E8.42153
G1 X10.550101279134719 Y24.41601941445947 E8.43327
G1 X10.429738443508542 Y24.23360609765273 E8.45854
G1 X10.274349127803667 Y24.16593827779874 E8.47445
G1 X10.07488610357457 Y23.762432779935317 E8.48618
G1 X9.95897128221585 Y23.590434458183534 E8.51146
G1 X9.817419263737289 Y23.555437647478698 E8.52736
G1 X9.62136087047981 Y23.160034569178944 E8.53910
G1 X9.510590728235549 Y23.000324038701883 E8.56437
G1 X9.384548683873934 Y23.00269969221912 E8.58028
G1 X9.192736371723056 Y22.61761483194851 E8.59202
G1 X9.08791092605996 Y22.472408884198867 E8.61729
G1 X8.979217616251429 Y22.51750894863618 E8.63319
G1 X8.79265494603308 Y22.14546967818778 E8.64493
G1 X8.694680902712877 Y22.017366752803337 E8.67021
G1 X8.605318471735952 Y22.111194979504965 E8.68611
G1 X8.425183796214775 Y21.755515631779573 E8.69785
G1 X8.335069825742313 Y21.647517547933017 E8.72312
G1 X8.267117091223518 Y21.79666912212549 E8.73903
G1 X8.094765283811507 Y21.461306769445933 E8.75076
G1 X8.013604931614735 Y21.37681039333025 E8.77604
G1 X7.969159679665102 Y21.58832050497832 E8.79194
G1 X7.8065099116058265 Y21.27807499222621 E8.80368
G1 X7.735043697355561 Y21.220629843642218 E8.82895
G1 X7.716109706322222 Y21.501703031397806 E8.84486
G1 X7.564317946781454 Y21.221396096561417 E8.85660
G1 X7.504165509901817 Y21.19534700296989 E8.88187
G1 X7.512506505820811 Y21.55295188996066 E8.89777
G1 X7.373247384972242 Y21.308216432679018 E8.90951
G1 X7.325480257293716 Y21.31756102952906 E8.93479
G1 X7.362453463350381 Y21.757903943396176 E8.95069
G1 X7.237348271293844 Y21.554549192542023 E8.96243
G1 X7.202873315559562 Y21.60303327205974 E8.98770
G1 X7.269267500924697 Y22.1309674891624 E9.00361
G1 X7.1597629150691855 Y21.97460560933188 E9.01534
G1 X7.139234482771944 Y22.065410010791837 E9.04062
G1 X7.235146232108927 Y22.68388194053133 E9.05652
G1 X7.142391896276765 Y-22.297476750414237 E9.06258
G1 X7.139421335094322 Y-22.208118308095997 F3600.000
G1 X6.748239029554302 Y-20.84705697393664 E9.08088 F1500.000
G1 X6.839806210705096 Y-20.90518033334896 E9.09678
G1 X6.764964227547696 Y-20.481089542575454 E9.10852
G1 X6.773320898938717 Y-20.35212500490016 E9.13380
G1 X6.9270705207901555 Y-20.514297685415244 E9.14970
G1 X6.871235842263021 Y-20.147117326131283 E9.16144
G1 X6.8941996634852405 Y-20.061516366760678 E9.18671
G1 X7.074901059378852 Y-20.30284393693247 E9.20262
G1 X7.0378679299912985 Y-19.990202524371007 E9.21435
G1 X7.07464939060587 Y-19.944334543974016 E9.23963
G1 X7.279608918066959 Y-20.254695616089833 E9.25553
G1 X7.260705888548302 Y-19.993026143100828 E9.26727
G1 X7.310259981696958 Y-19.982753554364002 E9.29254
G1 X7.5365608204273125 Y-20.35200394604086 E9.30845
G1 X7.534654656983292 Y-20.177391101357735 E9.30845
G1 X7.534764561683398 Y-20.136988785042313 E9.32019
G1 X7.595900209981697 Y-20.158027940848992 E9.34546
G1 X7.840622041649501 Y-20.576620351472638 E9.36136
G1 X7.854684334841217 Y-20.403611190860587 E9.37310
G1 X7.926163069228389 Y-20.451814422450962 E9.39838
G1 X8.186545119890319 Y-20.911181865097074 E9.41428
G1 X8.215109068052596 Y-20.775534702656486 E9.42602
G1 X8.295720824617955 Y-20.847074623371544 E9.45129
G1 X8.569261928544373 Y-21.339800086193048 E9.46720
G1 X8.61095407025261 Y-21.237105397825133 E9.47893
G1 X8.699567173141432 Y-21.32857027875591 E9.50421
G1 X8.984071515743851 Y-21.848399024516574 E9.52011
G1 X9.036897808429616 Y-21.773748603054145 E9.53185
G1 X9.13315476711087 Y-21.88303782364253 E9.55712
G1 X9.426738248195926 Y-22.4247932372655 E9.57303
G1 X9.490091727691572 Y-22.375351088671035 E9.58477
G1 X9.592451459350734 Y-22.49914884027835 E9.61004
G1 X9.893523588691746 Y-23.05860124844493 E9.62594
G1 X9.966279245535919 Y-23.03120391394929 E9.63768
G1 X10.073941433222648 Y-23.167349246188376 E9.66296
G1 X10.381174596354693 Y-23.741071211419694 E9.67886
G1 X10.462321205162839 Y-23.732967463581694 E9.69060
G1 X10.574593561929461 Y-23.879644621971387 E9.71587
G1 X10.886887755460695 Y-24.464872189271077 E9.84574
G1 X11.704985818017894 Y-24.74073460508306 E9.89912
G1 X11.92349801861853 Y-24.52603904844918 E9.96316
G1 X12.010261029636283 Y-23.85931374302623 E10.01654
G1 X11.932475434711776 Y-23.006603489871587 E11.28854
G1 X11.179 Y-17.55993213724015 E11.28854
G1 X16.8592538684249 Y-12.22166480635507 E11.43473 F1500.000
G1 X18.348638668849524 Y-12.02057412590729 E11.53449
G1 X18.90898648791098 Y-11.176499546632947 E11.65520
G1 X18.89529524064683 Y-10.449318709132184 E11.65520
G1 X18.915501711559227 Y-9.58609778390511 E11.71471
G1 X18.578405340609834 Y-8.711773446279505 E11.77463
G1 X18.470508222569297 Y-7.8798610985963675 E11.79053
G1 X18.308024934437903 Y-7.679199075300168 E11.80227
G1 X18.23536950544189 Y-7.511638775738724 E11.82754
G1 X18.207703891485057 Y-7.167701340587085 E11.84345
G1 X18.04968282269802 Y-6.968852511989275 E11.85518
G1 X17.981664661537874 Y-6.803142023227179 E11.88046
G1 X17.965240048493648 Y-6.463542594668336 E11.89636
G1 X17.81198711542314 Y-6.266470981054815 E11.90810
G1 X17.748813735007754 Y-6.1025286899425515 E11.93337
G1 X17.743950546594746 Y-5.766995709324172 E11.94928
G1 X17.595774549590022 Y-5.571641140885256 E11.96102
G1 X17.537647390684988 Y-5.409364791181403 E11.98629
G1 X17.544636616356577 Y-5.077585037695686 E12.00219
G1 X17.40184590783403 Y-4.883861268014433 E12.01393
G1 X17.34895746147301 Y-4.723127471691721 E12.03921
G1 X17.368054842152016 Y-4.394747426294642 E12.05511
G1 X17.230953601005375 Y-4.202540730791331 E12.06685
G1 X17.18348439636153 Y-4.04320499668531 E12.09212
G1 X17.215119081783897 Y-3.7188564933982464 E12.10803
G1 X17.083788953273803 Y-3.527001831177458 E12.11976
G1 X17.041904500377886 Y-3.368899183206385 E12.14504
G1 X17.08599385461671 Y-3.047126836505233 E12.16094
G1 X16.960969606717654 Y-2.8564842554637764 E12.17268
G1 X16.9248173993104 Y-2.699430488716873 E12.19795
G1 X16.981478410315166 Y-2.379781847725403 E12.21386
G1 X16.863027515840685 Y-2.1901522541834826 E12.22560
G1 X16.832734210460284 Y-2.033945845225104 E12.25087
G1 X16.9020292864496 Y-1.715946172802959 E12.26677
G1 X16.790398029826452 Y-1.5271045217950576 E12.27851
G1 X16.766066921016392 Y-1.3715291714929987 E12.30379
G1 X16.848001098053146 Y-1.0546887153894304 E12.31969
G1 X16.743410554603265 Y-0.8663865786832385 E12.33143
G1 X16.72511946145677 Y-0.7112143248421919 E12.35670
G1 X16.81963881895209 Y-0.39503631738015893 E12.37261
G1 X16.722281243897317 Y-0.2070052868706811 E12.38434
G1 X16.71008090943907 Y-0.05200008392736103 E12.40962
G1 X16.817072307628344 Y0.26401084445955947 E12.42552
G1 X16.72710808836961 Y0.45205502563572103 E12.43726
G1 X16.720984899221698 Y0.6061327393642495 E12.46254
G1 X16.840313358129652 Y0.9234627444870082 E12.47844
G1 X16.757868659229906 Y1.111815480821353 E12.49018
G1 X16.75766239240629 Y1.194946420930213 E12.49018
G1 X16.757813849067546 Y1.2662044855524803 E12.51545
G1 X16.889255430598475 Y1.584322562870525 E12.53135
G1 X16.814420626355226 Y1.7732853321210533 E12.54309
G1 X16.82040058976004 Y1.9282204696494327 E12.56837
G1 X16.963676075662374 Y2.247570029312231 E12.58427
G1 X16.896505023228915 Y2.437445155389111 E12.59601
G1 X16.90845909596732 Y2.5931534723762364 E12.62128
G1 X17.063241925261448 Y2.9141457531463137 E12.63719
G1 X17.0037520859368 Y3.1052312525338515 E12.64893
G1 X17.02159404991201 Y3.2619284770693118 E12.67420
G1 X17.187515992719835 Y3.584937159824848 E12.69010
G1 X17.13568936459809 Y3.777521875574277 E12.70184
G1 X17.1593094558027 Y3.9354093626755446 E12.72712
G1 X17.33596691851943 Y4.260766531802727 E12.74302
G1 X17.291751704208572 Y4.455125740904084 E12.75476
G1 X17.32101902314064 Y4.614387982361395 E12.78003
G1 X17.507979723543205 Y4.942381499811863 E12.79593
G1 X17.471292625332563 Y5.138773139472033 E12.80767
G1 X17.50605783721738 Y5.2995758938421345 E12.83295
G1 X17.70286759256816 Y5.6304481655858245 E12.84885
G1 X17.673596606237226 Y5.8291097766070665 E12.86059
G1 X17.713694815029417 Y5.991598835500578 E12.88586
