; generated by Slic3r 1.2.9 on 2017-06-18 at 16:44:52

; external perimeters extrusion width = 0.40mm
; perimeters extrusion width = 0.40mm
; infill extrusion width = 0.40mm
; solid infill extrusion width = 0.40mm
; top infill extrusion width = 0.40mm
; support material extrusion width = 0.40mm

M107
M190 S77 ; set bed temperature
M104 S280 ; set temperature
G28 ; home all axes
G1 Z5 F5000 ; lift nozzle

M109 S280 ; wait for temperature to be reached
G21 ; set units to millimeters
G90 ; use absolute coordinates
M82 ; use absolute distances for extrusion
G92 E0
G1 Z0.496 F3600.000
G1 E-2.00000 F2400.00000
G92 E0
G1 X-7.130 Y-0.296 F3600.000
G1 E2.00000 F2400.00000
G1 X-7.235 Y-0.612 E2.02527 F1500.000
G1 X-7.141 Y-0.800 E2.04118
G1 X-7.130 Y-0.955 E2.05292
G1 X-7.235 Y-1.271 E2.07819
G1 X-7.141 Y-1.459 E2.09409
G1 X-7.130 Y-1.614 E2.10583
G1 X-7.235 Y-1.930 E2.13111
G1 X-7.141 Y-2.118 E2.14701
G1 X-7.130 Y-2.273 E2.15875
G1 X-7.235 Y-2.589 E2.18402
G1 X-7.141 Y-2.777 E2.19993
G1 X-7.130 Y-2.932 E2.21166
G1 X-7.235 Y-3.248 E2.23694
G1 X-7.141 Y-3.436 E2.25284
G1 X-7.130 Y-3.591 E2.26458
G1 X-7.235 Y-3.907 E2.28985
G1 X-7.141 Y-4.095 E2.30576
G1 X-7.130 Y-4.250 E2.31750
G1 X-7.235 Y-4.566 E2.34277
G1 X-7.141 Y-4.754 E2.35867
G1 X-7.130 Y-4.908 E2.37041
G1 X-7.235 Y-5.225 E2.39569
G1 X-7.141 Y-5.413 E2.41159
G1 X-7.130 Y-5.567 E2.42333
G1 X-7.235 Y-5.884 E2.44860
G1 X-7.141 Y-6.072 E2.46451
G1 X-7.130 Y-6.226 E2.47624
G1 X-7.235 Y-6.543 E2.50152
G1 X-7.141 Y-6.731 E2.51742
G1 X-7.130 Y-6.885 E2.52916
G1 X-7.235 Y-7.202 E2.55444
G1 X-7.141 Y-7.390 E2.57034
G1 X-7.130 Y-7.544 E2.58208
G1 X-7.235 Y-7.861 E2.60735
G1 X-7.141 Y-8.049 E2.62325
G1 X-7.130 Y-8.203 E2.63499
G1 X-7.235 Y-8.520 E2.66027
G1 X-6.371 Y-10.245 E2.80646
G1 X-5.822 Y-10.845 E2.86806
G1 X-5.010 Y-11.346 E2.94031
G1 X-4.228 Y-11.569 E3.00190
G1 X12.722 Y-11.569 E4.28568
G1 X14.652 Y-11.569 E4.43187 F1500.000
G1 X15.979 Y-10.828 E4.54697
G1 X16.923 Y-9.300 E4.68303
G1 X16.969 Y-8.415 E4.75016
G1 X17.235 Y-7.613 E4.81414
G1 X17.141 Y-7.425 E4.83004
G1 X17.130 Y-7.271 E4.84178
G1 X17.235 Y-6.954 E4.86706
G1 X17.141 Y-6.766 E4.88296
G1 X17.130 Y-6.612 E4.89470
G1 X17.235 Y-6.295 E4.91997
G1 X17.141 Y-6.107 E4.93588
G1 X17.130 Y-5.953 E4.94761
G1 X17.235 Y-5.636 E4.97289
G1 X17.141 Y-5.448 E4.98879
G1 X17.130 Y-5.294 E5.00053
G1 X17.235 Y-4.977 E5.02580
G1 X17.141 Y-4.789 E5.04171
G1 X17.130 Y-4.635 E5.05345
G1 X17.235 Y-4.318 E5.07872
G1 X17.141 Y-4.130 E5.09462
G1 X17.130 Y-3.976 E5.10636
G1 X17.235 Y-3.659 E5.13164
G1 X17.141 Y-3.472 E5.14754
G1 X17.130 Y-3.317 E5.15928
G1 X17.235 Y-3.000 E5.18455
G1 X17.141 Y-2.813 E5.20046
G1 X17.130 Y-2.658 E5.21219
G1 X17.235 Y-2.341 E5.23747
G1 X17.141 Y-2.154 E5.25337
G1 X17.130 Y-1.999 E5.26511
G1 X17.235 Y-1.682 E5.29038
G1 X17.141 Y-1.495 E5.30629
G1 X17.130 Y-1.340 E5.31803
G1 X17.235 Y-1.023 E5.34330
G1 X17.141 Y-0.836 E5.35920
G1 X17.130 Y-0.681 E5.37094
G1 X17.235 Y-0.364 E5.39622
G1 X17.141 Y-0.177 E5.41212
G1 X17.130 Y-0.022 E5.42386
G1 X17.235 Y0.294 E5.44913
G1 X17.141 Y0.482 E5.46504
G1 X17.130 Y0.637 E5.47677
G1 X17.235 Y0.953 E5.50205
G1 X17.141 Y1.141 E5.51795
G1 X17.130 Y1.296 E5.52969
G1 X17.235 Y1.612 E5.55497
G1 X17.141 Y1.800 E5.57087
G1 X17.130 Y1.955 E5.58261
G1 X17.235 Y2.271 E5.60788
G1 X17.141 Y2.459 E5.62378
G1 X17.130 Y2.614 E5.63552
G1 X17.235 Y2.930 E5.66080
G1 X17.141 Y3.118 E5.67670
G1 X17.130 Y3.273 E5.68844
G1 X17.235 Y3.589 E5.71371
G1 X17.141 Y3.777 E5.72962
G1 X17.130 Y3.932 E5.74135
G1 X17.235 Y4.248 E5.76663
G1 X17.141 Y4.436 E5.78253
G1 X17.130 Y4.590 E5.79427
G1 X17.235 Y4.907 E5.81955
G1 X17.141 Y5.095 E5.83545
G1 X17.130 Y5.249 E5.84719
G1 X17.235 Y5.566 E5.87246
G1 X17.141 Y5.754 E5.88837
G1 X17.130 Y5.908 E5.90010
G1 X17.235 Y6.225 E5.92538
G1 X17.141 Y6.413 E5.94128
G1 X17.130 Y6.567 E5.95302
G1 X17.235 Y6.884 E5.97829
G1 X17.141 Y7.072 E5.99420
G1 X17.130 Y7.226 E6.00594
G1 X17.235 Y7.543 E6.03121
G1 X17.141 Y7.731 E6.04711
G1 X17.130 Y7.885 E6.05885
G1 X17.235 Y8.202 E6.08413
G1 X17.141 Y8.390 E6.10003
G1 X17.130 Y8.544 E6.11177
G1 X17.235 Y8.861 E6.13704
G1 X17.144 Y9.043 E6.15251
G1 X17.125 Y9.165 E6.16179
G1 X17.195 Y9.600 E6.19520
G1 X16.042 Y11.901 E6.39014
G1 X14.438 Y12.434 E6.51820
G1 X13.822 Y12.737 E6.57014
G1 X12.792 Y12.569 E6.64924
G1 X-4.652 Y12.569 E7.97043
G1 X-5.979 Y11.828 E8.08553
G1 X-6.923 Y10.300 E8.22159
G1 X-6.969 Y9.414 E8.28874
G1 X-7.235 Y8.613 E8.35271
G1 X-7.141 Y8.425 E8.36861
G1 X-7.130 Y8.271 E8.38035
G1 X-7.235 Y7.954 E8.40563
G1 X-7.141 Y7.766 E8.42153
G1 X-7.130 Y7.612 E8.43327
G1 X-7.235 Y7.295 E8.45854
G1 X-7.141 Y7.107 E8.47445
G1 X-7.130 Y6.953 E8.48618
G1 X-7.235 Y6.636 E8.51146
G1 X-7.141 Y6.448 E8.52736
G1 X-7.130 Y6.294 E8.53910
G1 X-7.235 Y5.977 E8.56437
G1 X-7.141 Y5.789 E8.58028
G1 X-7.130 Y5.635 E8.59202
G1 X-7.235 Y5.318 E8.61729
G1 X-7.141 Y5.130 E8.63319
G1 X-7.130 Y4.976 E8.64493
G1 X-7.235 Y4.659 E8.67021
G1 X-7.141 Y4.471 E8.68611
G1 X-7.130 Y4.317 E8.69785
G1 X-7.235 Y4.000 E8.72312
G1 X-7.141 Y3.812 E8.73903
G1 X-7.130 Y3.658 E8.75076
G1 X-7.235 Y3.341 E8.77604
G1 X-7.141 Y3.154 E8.79194
G1 X-7.130 Y2.999 E8.80368
G1 X-7.235 Y2.682 E8.82895
G1 X-7.141 Y2.495 E8.84486
G1 X-7.130 Y2.340 E8.85660
G1 X-7.235 Y2.023 E8.88187
G1 X-7.141 Y1.836 E8.89777
G1 X-7.130 Y1.681 E8.90951
G1 X-7.235 Y1.364 E8.93479
G1 X-7.141 Y1.177 E8.95069
G1 X-7.130 Y1.022 E8.96243
G1 X-7.235 Y0.705 E8.98770
G1 X-7.141 Y0.518 E9.00361
G1 X-7.130 Y0.363 E9.01534
G1 X-7.235 Y0.046 E9.04062
G1 X-7.141 Y-0.141 E9.05652
G1 X-7.136 Y-0.221 E9.06258
G1 X-6.739 Y-0.353 F3600.000
G1 X-6.815 Y-0.582 E9.08088 F1500.000
G1 X-6.721 Y-0.770 E9.09678
G1 X-6.710 Y-0.924 E9.10852
G1 X-6.815 Y-1.241 E9.13380
G1 X-6.721 Y-1.429 E9.14970
G1 X-6.710 Y-1.583 E9.16144
G1 X-6.815 Y-1.900 E9.18671
G1 X-6.721 Y-2.088 E9.20262
G1 X-6.710 Y-2.242 E9.21435
G1 X-6.815 Y-2.559 E9.23963
G1 X-6.721 Y-2.747 E9.25553
G1 X-6.710 Y-2.901 E9.26727
G1 X-6.815 Y-3.218 E9.29254
G1 X-6.721 Y-3.406 E9.30845
G1 X-6.710 Y-3.560 E9.32019
G1 X-6.815 Y-3.877 E9.34546
G1 X-6.721 Y-4.065 E9.36136
G1 X-6.710 Y-4.219 E9.37310
G1 X-6.815 Y-4.536 E9.39838
G1 X-6.721 Y-4.724 E9.41428
G1 X-6.710 Y-4.878 E9.42602
G1 X-6.815 Y-5.195 E9.45129
G1 X-6.721 Y-5.383 E9.46720
G1 X-6.710 Y-5.537 E9.47893
G1 X-6.815 Y-5.854 E9.50421
G1 X-6.721 Y-6.041 E9.52011
G1 X-6.710 Y-6.196 E9.53185
G1 X-6.815 Y-6.513 E9.55712
G1 X-6.721 Y-6.700 E9.57303
G1 X-6.710 Y-6.855 E9.58477
G1 X-6.815 Y-7.172 E9.61004
G1 X-6.721 Y-7.359 E9.62594
G1 X-6.710 Y-7.514 E9.63768
G1 X-6.815 Y-7.831 E9.66296
G1 X-6.721 Y-8.018 E9.67886
G1 X-6.710 Y-8.173 E9.69060
G1 X-6.815 Y-8.490 E9.71587
G1 X-6.047 Y-10.022 E9.84574
G1 X-5.571 Y-10.542 E9.89912
G1 X-4.851 Y-10.987 E9.96316
G1 X-4.173 Y-11.179 E10.01654
G1 X12.620 Y-11.179 E11.28854
G1 X14.550 Y-11.179 E11.43473 F1500.000
G1 X15.701 Y-10.537 E11.53449
G1 X16.538 Y-9.181 E11.65520
G1 X16.573 Y-8.396 E11.71471
G1 X16.815 Y-7.643 E11.77463
G1 X16.721 Y-7.456 E11.79053
G1 X16.710 Y-7.301 E11.80227
G1 X16.815 Y-6.984 E11.82754
G1 X16.721 Y-6.797 E11.84345
G1 X16.710 Y-6.642 E11.85518
G1 X16.815 Y-6.325 E11.88046
G1 X16.721 Y-6.138 E11.89636
G1 X16.710 Y-5.983 E11.90810
G1 X16.815 Y-5.666 E11.93337
G1 X16.721 Y-5.479 E11.94928
G1 X16.710 Y-5.324 E11.96102
G1 X16.815 Y-5.007 E11.98629
G1 X16.721 Y-4.820 E12.00219
G1 X16.710 Y-4.665 E12.01393
G1 X16.815 Y-4.348 E12.03921
G1 X16.721 Y-4.161 E12.05511
G1 X16.710 Y-4.006 E12.06685
G1 X16.815 Y-3.690 E12.09212
G1 X16.721 Y-3.502 E12.10803
G1 X16.710 Y-3.347 E12.11976
G1 X16.815 Y-3.031 E12.14504
G1 X16.721 Y-2.843 E12.16094
G1 X16.710 Y-2.688 E12.17268
G1 X16.815 Y-2.372 E12.19795
G1 X16.721 Y-2.184 E12.21386
G1 X16.710 Y-2.029 E12.22560
G1 X16.815 Y-1.713 E12.25087
G1 X16.721 Y-1.525 E12.26677
G1 X16.710 Y-1.370 E12.27851
G1 X16.815 Y-1.054 E12.30379
G1 X16.721 Y-0.866 E12.31969
G1 X16.710 Y-0.711 E12.33143
G1 X16.815 Y-0.395 E12.35670
G1 X16.721 Y-0.207 E12.37261
G1 X16.710 Y-0.052 E12.38434
G1 X16.815 Y0.264 E12.40962
G1 X16.721 Y0.452 E12.42552
G1 X16.710 Y0.606 E12.43726
G1 X16.815 Y0.923 E12.46254
G1 X16.721 Y1.111 E12.47844
G1 X16.710 Y1.265 E12.49018
G1 X16.815 Y1.582 E12.51545
G1 X16.721 Y1.770 E12.53135
G1 X16.710 Y1.924 E12.54309
G1 X16.815 Y2.241 E12.56837
G1 X16.721 Y2.429 E12.58427
G1 X16.710 Y2.583 E12.59601
G1 X16.815 Y2.900 E12.62128
G1 X16.721 Y3.088 E12.63719
G1 X16.710 Y3.242 E12.64893
G1 X16.815 Y3.559 E12.67420
G1 X16.721 Y3.747 E12.69010
G1 X16.710 Y3.901 E12.70184
G1 X16.815 Y4.218 E12.72712
G1 X16.721 Y4.406 E12.74302
G1 X16.710 Y4.560 E12.75476
G1 X16.815 Y4.877 E12.78003
G1 X16.721 Y5.065 E12.79593
G1 X16.710 Y5.219 E12.80767
G1 X16.815 Y5.536 E12.83295
G1 X16.721 Y5.724 E12.84885
G1 X16.710 Y5.878 E12.86059
G1 X16.815 Y6.195 E12.88586
G1 X16.721 Y6.382 E12.90177
G1 X16.710 Y6.537 E12.91351
G1 X16.815 Y6.854 E12.93878
G1 X16.721 Y7.041 E12.95468
G1 X16.710 Y7.196 E12.96642
G1 X16.815 Y7.513 E12.99170
G1 X16.721 Y7.700 E13.00760
G1 X16.710 Y7.855 E13.01934
G1 X16.815 Y8.172 E13.04461
G1 X16.721 Y8.359 E13.06052
G1 X16.710 Y8.514 E13.07225
G1 X16.815 Y8.831 E13.09753
G1 X16.739 Y8.981 E13.11029
G1 X16.721 Y9.102 E13.11957
G1 X16.791 Y9.538 E13.15298
G1 X15.766 Y11.582 E13.32619
G1 X14.289 Y12.073 E13.44407
G1 X13.762 Y12.332 E13.48855
G1 X12.824 Y12.179 E13.56056
G1 X-4.550 Y12.179 E14.87651
G1 X-5.701 Y11.537 E14.97626
G1 X-6.538 Y10.181 E15.09698
G1 X-6.573 Y9.396 E15.15651
G1 X-6.815 Y8.643 E15.21641
G1 X-6.721 Y8.455 E15.23232
G1 X-6.710 Y8.301 E15.24405
G1 X-6.815 Y7.984 E15.26933
G1 X-6.721 Y7.797 E15.28523
G1 X-6.710 Y7.642 E15.29697
G1 X-6.815 Y7.325 E15.32224
G1 X-6.721 Y7.138 E15.33815
G1 X-6.710 Y6.983 E15.34989
G1 X-6.815 Y6.666 E15.37516
G1 X-6.721 Y6.479 E15.39106
G1 X-6.710 Y6.324 E15.40280
G1 X-6.815 Y6.007 E15.42808
G1 X-6.721 Y5.820 E15.44398
G1 X-6.710 Y5.665 E15.45572
G1 X-6.815 Y5.348 E15.48099
G1 X-6.721 Y5.161 E15.49690
G1 X-6.710 Y5.006 E15.50863
G1 X-6.815 Y4.689 E15.53391
G1 X-6.721 Y4.502 E15.54981
G1 X-6.710 Y4.347 E15.56155
G1 X-6.815 Y4.031 E15.58682
G1 X-6.721 Y3.843 E15.60273
G1 X-6.710 Y3.688 E15.61447
G1 X-6.815 Y3.372 E15.63974
G1 X-6.721 Y3.184 E15.65564
G1 X-6.710 Y3.029 E15.66738
G1 X-6.815 Y2.713 E15.69266
G1 X-6.721 Y2.525 E15.70856
G1 X-6.710 Y2.370 E15.72030
G1 X-6.815 Y2.054 E15.74557
G1 X-6.721 Y1.866 E15.76148
G1 X-6.710 Y1.711 E15.77321
G1 X-6.815 Y1.395 E15.79849
G1 X-6.721 Y1.207 E15.81439
G1 X-6.710 Y1.052 E15.82613
G1 X-6.815 Y0.736 E15.85141
G1 X-6.721 Y0.548 E15.86731
G1 X-6.710 Y0.393 E15.87905
G1 X-6.815 Y0.077 E15.90432
G1 X-6.721 Y-0.111 E15.92022
G1 X-6.715 Y-0.282 E15.93317
G1 X-6.345 Y-0.405 F3600.000
G1 X-6.394 Y-0.552 E15.94493 F1500.000
G1 X-6.300 Y-0.740 E15.96083
G1 X-6.289 Y-0.894 E15.97257
G1 X-6.394 Y-1.211 E15.99784
G1 X-6.300 Y-1.399 E16.01375
G1 X-6.289 Y-1.553 E16.02548
G1 X-6.394 Y-1.870 E16.05076
G1 X-6.300 Y-2.057 E16.06666
G1 X-6.289 Y-2.212 E16.07840
G1 X-6.394 Y-2.529 E16.10367
G1 X-6.300 Y-2.716 E16.11958
G1 X-6.289 Y-2.871 E16.13132
G1 X-6.394 Y-3.188 E16.15659
G1 X-6.300 Y-3.375 E16.17249
G1 X-6.289 Y-3.530 E16.18423
G1 X-6.394 Y-3.847 E16.20951
G1 X-6.300 Y-4.034 E16.22541
G1 X-6.289 Y-4.189 E16.23715
G1 X-6.394 Y-4.506 E16.26242
G1 X-6.300 Y-4.693 E16.27833
G1 X-6.289 Y-4.848 E16.29006
G1 X-6.394 Y-5.165 E16.31534
G1 X-6.300 Y-5.352 E16.33124
G1 X-6.289 Y-5.507 E16.34298
G1 X-6.394 Y-5.823 E16.36825
G1 X-6.300 Y-6.011 E16.38416
G1 X-6.289 Y-6.166 E16.39590
G1 X-6.394 Y-6.482 E16.42117
G1 X-6.300 Y-6.670 E16.43707
G1 X-6.289 Y-6.825 E16.44881
G1 X-6.394 Y-7.141 E16.47409
G1 X-6.300 Y-7.329 E16.48999
G1 X-6.289 Y-7.484 E16.50173
G1 X-6.394 Y-7.800 E16.52700
G1 X-6.300 Y-7.988 E16.54291
G1 X-6.289 Y-8.143 E16.55464
G1 X-6.394 Y-8.459 E16.57992
G1 X-5.723 Y-9.799 E16.69346
G1 X-5.320 Y-10.239 E16.73863
G1 X-4.693 Y-10.627 E16.79446
G1 X-4.119 Y-10.789 E16.83963
G1 X12.519 Y-10.789 E18.09984
G1 X14.449 Y-10.789 E18.24603 F1500.000
G1 X15.422 Y-10.246 E18.33044
G1 X16.153 Y-9.063 E18.43581
G1 X16.186 Y-8.325 E18.49175
G1 X16.394 Y-7.674 E18.54355
G1 X16.300 Y-7.486 E18.55946
G1 X16.289 Y-7.331 E18.57119
G1 X16.394 Y-7.015 E18.59647
G1 X16.300 Y-6.827 E18.61237
G1 X16.289 Y-6.672 E18.62411
G1 X16.394 Y-6.356 E18.64938
G1 X16.300 Y-6.168 E18.66529
G1 X16.289 Y-6.013 E18.67703
G1 X16.394 Y-5.697 E18.70230
G1 X16.300 Y-5.509 E18.71820
G1 X16.289 Y-5.354 E18.72994
G1 X16.394 Y-5.038 E18.75522
G1 X16.300 Y-4.850 E18.77112
G1 X16.289 Y-4.695 E18.78286
G1 X16.394 Y-4.379 E18.80813
G1 X16.300 Y-4.191 E18.82404
G1 X16.289 Y-4.037 E18.83577
G1 X16.394 Y-3.720 E18.86105
G1 X16.300 Y-3.532 E18.87695
G1 X16.289 Y-3.378 E18.88869
G1 X16.394 Y-3.061 E18.91396
G1 X16.300 Y-2.873 E18.92987
G1 X16.289 Y-2.719 E18.94161
G1 X16.394 Y-2.402 E18.96688
G1 X16.300 Y-2.214 E18.98278
G1 X16.289 Y-2.060 E18.99452
G1 X16.394 Y-1.743 E19.01980
G1 X16.300 Y-1.555 E19.03570
G1 X16.289 Y-1.401 E19.04744
G1 X16.394 Y-1.084 E19.07271
G1 X16.300 Y-0.896 E19.08862
G1 X16.289 Y-0.742 E19.10035
G1 X16.394 Y-0.425 E19.12563
G1 X16.300 Y-0.237 E19.14153
G1 X16.289 Y-0.083 E19.15327
G1 X16.394 Y0.234 E19.17855
G1 X16.300 Y0.422 E19.19445
G1 X16.289 Y0.576 E19.20619
G1 X16.394 Y0.893 E19.23146
G1 X16.300 Y1.081 E19.24736
G1 X16.289 Y1.235 E19.25910
G1 X16.394 Y1.552 E19.28438
G1 X16.300 Y1.739 E19.30028
G1 X16.289 Y1.894 E19.31202
G1 X16.394 Y2.211 E19.33729
G1 X16.300 Y2.398 E19.35320
G1 X16.289 Y2.553 E19.36494
G1 X16.394 Y2.870 E19.39021
G1 X16.300 Y3.057 E19.40611
G1 X16.289 Y3.212 E19.41785
G1 X16.394 Y3.529 E19.44313
G1 X16.300 Y3.716 E19.45903
G1 X16.289 Y3.871 E19.47077
G1 X16.394 Y4.188 E19.49604
G1 X16.300 Y4.375 E19.51195
G1 X16.289 Y4.530 E19.52368
G1 X16.394 Y4.847 E19.54896
G1 X16.300 Y5.034 E19.56486
G1 X16.289 Y5.189 E19.57660
G1 X16.394 Y5.505 E19.60187
G1 X16.300 Y5.693 E19.61778
G1 X16.289 Y5.848 E19.62952
G1 X16.394 Y6.164 E19.65479
G1 X16.300 Y6.352 E19.67069
G1 X16.289 Y6.507 E19.68243
G1 X16.394 Y6.823 E19.70771
G1 X16.300 Y7.011 E19.72361
G1 X16.289 Y7.166 E19.73535
G1 X16.394 Y7.482 E19.76062
G1 X16.300 Y7.670 E19.77653
G1 X16.289 Y7.825 E19.78826
G1 X16.394 Y8.141 E19.81354
G1 X16.300 Y8.329 E19.82944
G1 X16.289 Y8.484 E19.84118
G1 X16.394 Y8.800 E19.86645
G1 X16.335 Y8.919 E19.87651
G1 X16.316 Y9.040 E19.88578
G1 X16.386 Y9.476 E19.91920
G1 X15.490 Y11.263 E20.07067
G1 X14.141 Y11.712 E20.17838
G1 X13.702 Y11.927 E20.21540
G1 X12.856 Y11.789 E20.28033
G1 X-4.449 Y11.789 E21.59103
G1 X-5.422 Y11.246 E21.67544
G1 X-6.153 Y10.063 E21.78080
G1 X-6.186 Y9.325 E21.83677
G1 X-6.394 Y8.673 E21.88856
G1 X-6.300 Y8.486 E21.90446
G1 X-6.289 Y8.331 E21.91620
G1 X-6.394 Y8.015 E21.94147
G1 X-6.300 Y7.827 E21.95737
G1 X-6.289 Y7.672 E21.96911
G1 X-6.394 Y7.356 E21.99439
G1 X-6.300 Y7.168 E22.01029
G1 X-6.289 Y7.013 E22.02203
G1 X-6.394 Y6.697 E22.04730
G1 X-6.300 Y6.509 E22.06321
G1 X-6.289 Y6.354 E22.07495
G1 X-6.394 Y6.038 E22.10022
G1 X-6.300 Y5.850 E22.11612
G1 X-6.289 Y5.695 E22.12786
G1 X-6.394 Y5.379 E22.15314
G1 X-6.300 Y5.191 E22.16904
G1 X-6.289 Y5.036 E22.18078
G1 X-6.394 Y4.720 E22.20605
G1 X-6.300 Y4.532 E22.22196
G1 X-6.289 Y4.377 E22.23369
G1 X-6.394 Y4.061 E22.25897
G1 X-6.300 Y3.873 E22.27487
G1 X-6.289 Y3.719 E22.28661
G1 X-6.394 Y3.402 E22.31188
G1 X-6.300 Y3.214 E22.32779
G1 X-6.289 Y3.060 E22.33953
G1 X-6.394 Y2.743 E22.36480
G1 X-6.300 Y2.555 E22.38070
G1 X-6.289 Y2.401 E22.39244
G1 X-6.394 Y2.084 E22.41772
G1 X-6.300 Y1.896 E22.43362
G1 X-6.289 Y1.742 E22.44536
G1 X-6.394 Y1.425 E22.47063
G1 X-6.300 Y1.237 E22.48654
G1 X-6.289 Y1.083 E22.49827
G1 X-6.394 Y0.766 E22.52355
G1 X-6.300 Y0.578 E22.53945
G1 X-6.289 Y0.424 E22.55119
G1 X-6.394 Y0.107 E22.57646
G1 X-6.300 Y-0.081 E22.59237
G1 X-6.289 Y-0.235 E22.60411
G1 X-6.322 Y-0.333 E22.61194
G1 X-5.952 Y-0.456 F3600.000
G1 X-5.974 Y-0.522 E22.61716 F1500.000
G1 X-5.880 Y-0.709 E22.63306
G1 X-5.869 Y-0.864 E22.64480
G1 X-5.974 Y-1.181 E22.67007
G1 X-5.880 Y-1.368 E22.68598
G1 X-5.869 Y-1.523 E22.69772
G1 X-5.974 Y-1.839 E22.72299
G1 X-5.880 Y-2.027 E22.73889
G1 X-5.869 Y-2.182 E22.75063
G1 X-5.974 Y-2.498 E22.77591
G1 X-5.880 Y-2.686 E22.79181
G1 X-5.869 Y-2.841 E22.80355
