; generated by Slic3r 1.2.9 on 2017-06-18 at 17:07:25

; external perimeters extrusion width = 0.40mm
; perimeters extrusion width = 0.40mm
; infill extrusion width = 0.40mm
; solid infill extrusion width = 0.40mm
; top infill extrusion width = 0.40mm
; support material extrusion width = 0.40mm

M107
M190 S77 ; set bed temperature
M104 S280 ; set temperature
G28 ; home all axes
G1 Z5 F5000 ; lift nozzle

M109 S280 ; wait for temperature to be reached
G21 ; set units to millimeters
G90 ; use absolute coordinates
M82 ; use absolute distances for extrusion
G92 E0
G1 Z0.496 F3600.000
G1 E-2.00000 F2400.00000
G92 E0
G1 X37.765 Y0.205 F3600.000
G1 E2.00000 F2400.00000
G1 X37.859 Y0.018 E2.01590 F1500.000
G1 X37.870 Y-0.137 E2.02764
G1 X37.765 Y-0.454 E2.05292
G1 X37.859 Y-0.641 E2.06882
G1 X37.870 Y-0.796 E2.08056
G1 X37.765 Y-1.112 E2.10583
G1 X37.859 Y-1.300 E2.12174
G1 X37.870 Y-1.455 E2.13347
G1 X37.765 Y-1.771 E2.15875
G1 X37.859 Y-1.959 E2.17465
G1 X37.870 Y-2.114 E2.18639
G1 X37.765 Y-2.430 E2.21166
G1 X37.859 Y-2.618 E2.22757
G1 X37.870 Y-2.773 E2.23931
G1 X37.765 Y-3.089 E2.26458
G1 X37.859 Y-3.277 E2.28048
G1 X37.870 Y-3.432 E2.29222
G1 X37.765 Y-3.748 E2.31750
G1 X37.859 Y-3.936 E2.33340
G1 X37.870 Y-4.091 E2.34514
G1 X37.765 Y-4.407 E2.37041
G1 X37.859 Y-4.595 E2.38632
G1 X37.870 Y-4.750 E2.39805
G1 X37.765 Y-5.066 E2.42333
G1 X37.859 Y-5.254 E2.43923
G1 X37.870 Y-5.408 E2.45097
G1 X37.765 Y-5.725 E2.47624
G1 X37.859 Y-5.913 E2.49215
G1 X37.870 Y-6.067 E2.50389
G1 X37.764 Y-6.384 E2.52916
G1 X37.859 Y-6.572 E2.54506
G1 X37.870 Y-6.726 E2.55680
G1 X37.765 Y-7.043 E2.58208
G1 X37.859 Y-7.231 E2.59798
G1 X37.870 Y-7.385 E2.60972
G1 X37.765 Y-7.702 E2.63499
G1 X37.859 Y-7.890 E2.65090
G1 X37.870 Y-8.044 E2.66263
G1 X37.765 Y-8.361 E2.68791
G1 X37.859 Y-8.549 E2.70381
G1 X37.870 Y-8.703 E2.71555
G1 X37.765 Y-9.020 E2.74082
G1 X38.629 Y-10.745 E2.88702
G1 X39.178 Y-11.345 E2.94861
G1 X39.990 Y-11.846 E3.02087
G1 X40.772 Y-12.069 E3.08246
G1 X57.722 Y-12.069 E4.36623
G1 X59.652 Y-12.069 E4.51243 F1500.000
G1 X60.979 Y-11.328 E4.62753
G1 X61.923 Y-9.800 E4.76359
G1 X61.969 Y-8.915 E4.83071
G1 X62.235 Y-8.113 E4.89470
G1 X62.141 Y-7.925 E4.91060
G1 X62.130 Y-7.771 E4.92234
G1 X62.235 Y-7.454 E4.94761
G1 X62.141 Y-7.266 E4.96352
G1 X62.130 Y-7.112 E4.97526
G1 X62.235 Y-6.795 E5.00053
G1 X62.141 Y-6.607 E5.01643
G1 X62.130 Y-6.453 E5.02817
G1 X62.235 Y-6.136 E5.05345
G1 X62.141 Y-5.948 E5.06935
G1 X62.130 Y-5.794 E5.08109
G1 X62.235 Y-5.477 E5.10636
G1 X62.141 Y-5.289 E5.12227
G1 X62.130 Y-5.135 E5.13400
G1 X62.235 Y-4.818 E5.15928
G1 X62.141 Y-4.630 E5.17518
G1 X62.130 Y-4.476 E5.18692
G1 X62.235 Y-4.159 E5.21219
G1 X62.141 Y-3.972 E5.22810
G1 X62.130 Y-3.817 E5.23984
G1 X62.235 Y-3.500 E5.26511
G1 X62.141 Y-3.313 E5.28101
G1 X62.130 Y-3.158 E5.29275
G1 X62.235 Y-2.841 E5.31803
G1 X62.141 Y-2.654 E5.33393
G1 X62.130 Y-2.499 E5.34567
G1 X62.235 Y-2.182 E5.37094
G1 X62.141 Y-1.995 E5.38685
G1 X62.130 Y-1.840 E5.39858
G1 X62.235 Y-1.523 E5.42386
G1 X62.141 Y-1.336 E5.43976
G1 X62.130 Y-1.181 E5.45150
G1 X62.235 Y-0.864 E5.47678
G1 X62.141 Y-0.677 E5.49268
G1 X62.130 Y-0.522 E5.50442
G1 X62.235 Y-0.206 E5.52969
G1 X62.141 Y-0.018 E5.54559
G1 X62.130 Y0.137 E5.55733
G1 X62.235 Y0.453 E5.58261
G1 X62.141 Y0.641 E5.59851
G1 X62.130 Y0.796 E5.61025
G1 X62.235 Y1.112 E5.63552
G1 X62.141 Y1.300 E5.65143
G1 X62.130 Y1.455 E5.66316
G1 X62.235 Y1.771 E5.68844
G1 X62.141 Y1.959 E5.70434
G1 X62.130 Y2.114 E5.71608
G1 X62.235 Y2.430 E5.74136
G1 X62.141 Y2.618 E5.75726
G1 X62.130 Y2.773 E5.76900
G1 X62.235 Y3.089 E5.79427
G1 X62.141 Y3.277 E5.81017
G1 X62.130 Y3.432 E5.82191
G1 X62.235 Y3.748 E5.84719
G1 X62.141 Y3.936 E5.86309
G1 X62.130 Y4.090 E5.87483
G1 X62.235 Y4.407 E5.90010
G1 X62.141 Y4.595 E5.91601
G1 X62.130 Y4.749 E5.92775
G1 X62.235 Y5.066 E5.95302
G1 X62.141 Y5.254 E5.96892
G1 X62.130 Y5.408 E5.98066
G1 X62.235 Y5.725 E6.00594
G1 X62.141 Y5.913 E6.02184
G1 X62.130 Y6.067 E6.03358
G1 X62.235 Y6.384 E6.05885
G1 X62.141 Y6.572 E6.07476
G1 X62.130 Y6.726 E6.08649
G1 X62.235 Y7.043 E6.11177
G1 X62.141 Y7.231 E6.12767
G1 X62.130 Y7.385 E6.13941
G1 X62.235 Y7.702 E6.16468
G1 X62.141 Y7.890 E6.18059
G1 X62.130 Y8.044 E6.19233
G1 X62.235 Y8.361 E6.21760
G1 X62.144 Y8.543 E6.23307
G1 X62.125 Y8.665 E6.24235
G1 X62.195 Y9.100 E6.27576
G1 X61.042 Y11.401 E6.47070
G1 X59.438 Y11.934 E6.59876
G1 X58.822 Y12.237 E6.65070
G1 X57.792 Y12.069 E6.72979
G1 X40.348 Y12.069 E8.05099
G1 X39.021 Y11.328 E8.16609
G1 X38.077 Y9.800 E8.30215
G1 X38.031 Y8.914 E8.36930
G1 X37.765 Y8.113 E8.43327
G1 X37.859 Y7.925 E8.44917
G1 X37.870 Y7.771 E8.46091
G1 X37.765 Y7.454 E8.48618
G1 X37.859 Y7.266 E8.50209
G1 X37.870 Y7.112 E8.51383
G1 X37.765 Y6.795 E8.53910
G1 X37.859 Y6.607 E8.55500
G1 X37.870 Y6.453 E8.56674
G1 X37.765 Y6.136 E8.59202
G1 X37.859 Y5.948 E8.60792
G1 X37.870 Y5.794 E8.61966
G1 X37.765 Y5.477 E8.64493
G1 X37.859 Y5.289 E8.66084
G1 X37.870 Y5.135 E8.67257
G1 X37.765 Y4.818 E8.69785
G1 X37.859 Y4.630 E8.71375
G1 X37.870 Y4.476 E8.72549
G1 X37.765 Y4.159 E8.75076
G1 X37.859 Y3.971 E8.76667
G1 X37.870 Y3.817 E8.77841
G1 X37.765 Y3.500 E8.80368
G1 X37.859 Y3.312 E8.81958
G1 X37.870 Y3.158 E8.83132
G1 X37.765 Y2.841 E8.85660
G1 X37.859 Y2.654 E8.87250
G1 X37.870 Y2.499 E8.88424
G1 X37.765 Y2.182 E8.90951
G1 X37.859 Y1.995 E8.92542
G1 X37.870 Y1.840 E8.93715
G1 X37.765 Y1.523 E8.96243
G1 X37.859 Y1.336 E8.97833
G1 X37.870 Y1.181 E8.99007
G1 X37.765 Y0.864 E9.01534
G1 X37.859 Y0.677 E9.03125
G1 X37.870 Y0.522 E9.04299
G1 X37.788 Y0.277 E9.06258
G1 X38.185 Y0.236 F3600.000
G1 X38.279 Y0.048 E9.07848 F1500.000
G1 X38.290 Y-0.107 E9.09022
G1 X38.185 Y-0.423 E9.11550
G1 X38.279 Y-0.611 E9.13140
G1 X38.290 Y-0.765 E9.14314
G1 X38.185 Y-1.082 E9.16841
G1 X38.279 Y-1.270 E9.18432
G1 X38.290 Y-1.424 E9.19605
G1 X38.185 Y-1.741 E9.22133
G1 X38.279 Y-1.929 E9.23723
G1 X38.290 Y-2.083 E9.24897
G1 X38.185 Y-2.400 E9.27424
G1 X38.279 Y-2.588 E9.29015
G1 X38.290 Y-2.742 E9.30189
G1 X38.185 Y-3.059 E9.32716
G1 X38.279 Y-3.247 E9.34306
G1 X38.290 Y-3.401 E9.35480
G1 X38.185 Y-3.718 E9.38008
G1 X38.279 Y-3.906 E9.39598
G1 X38.290 Y-4.060 E9.40772
G1 X38.185 Y-4.377 E9.43299
G1 X38.279 Y-4.565 E9.44890
G1 X38.290 Y-4.719 E9.46063
G1 X38.185 Y-5.036 E9.48591
G1 X38.279 Y-5.224 E9.50181
G1 X38.290 Y-5.378 E9.51355
G1 X38.185 Y-5.695 E9.53882
G1 X38.279 Y-5.883 E9.55473
G1 X38.290 Y-6.037 E9.56647
G1 X38.185 Y-6.354 E9.59174
G1 X38.279 Y-6.541 E9.60764
G1 X38.290 Y-6.696 E9.61938
G1 X38.185 Y-7.013 E9.64466
G1 X38.279 Y-7.200 E9.66056
G1 X38.290 Y-7.355 E9.67230
G1 X38.185 Y-7.672 E9.69757
G1 X38.279 Y-7.859 E9.71348
G1 X38.290 Y-8.014 E9.72521
G1 X38.185 Y-8.331 E9.75049
G1 X38.279 Y-8.518 E9.76639
G1 X38.290 Y-8.673 E9.77813
G1 X38.185 Y-8.990 E9.80340
G1 X38.953 Y-10.522 E9.93327
G1 X39.429 Y-11.042 E9.98665
G1 X40.149 Y-11.487 E10.05070
G1 X40.827 Y-11.679 E10.10407
G1 X57.620 Y-11.679 E11.37607
G1 X59.550 Y-11.679 E11.52226 F1500.000
G1 X60.701 Y-11.037 E11.62202
G1 X61.538 Y-9.681 E11.74273
G1 X61.573 Y-8.896 E11.80224
G1 X61.815 Y-8.143 E11.86216
G1 X61.721 Y-7.956 E11.87806
G1 X61.710 Y-7.801 E11.88980
G1 X61.815 Y-7.484 E11.91507
G1 X61.721 Y-7.297 E11.93098
G1 X61.710 Y-7.142 E11.94272
G1 X61.815 Y-6.825 E11.96799
G1 X61.721 Y-6.638 E11.98389
G1 X61.710 Y-6.483 E11.99563
G1 X61.815 Y-6.166 E12.02091
G1 X61.721 Y-5.979 E12.03681
G1 X61.710 Y-5.824 E12.04855
G1 X61.815 Y-5.507 E12.07382
G1 X61.721 Y-5.320 E12.08973
G1 X61.710 Y-5.165 E12.10146
G1 X61.815 Y-4.848 E12.12674
G1 X61.721 Y-4.661 E12.14264
G1 X61.710 Y-4.506 E12.15438
G1 X61.815 Y-4.190 E12.17965
G1 X61.721 Y-4.002 E12.19556
G1 X61.710 Y-3.847 E12.20730
G1 X61.815 Y-3.531 E12.23257
G1 X61.721 Y-3.343 E12.24847
G1 X61.710 Y-3.188 E12.26021
G1 X61.815 Y-2.872 E12.28549
G1 X61.721 Y-2.684 E12.30139
G1 X61.710 Y-2.529 E12.31313
G1 X61.815 Y-2.213 E12.33840
G1 X61.721 Y-2.025 E12.35431
G1 X61.710 Y-1.870 E12.36604
G1 X61.815 Y-1.554 E12.39132
G1 X61.721 Y-1.366 E12.40722
G1 X61.710 Y-1.211 E12.41896
G1 X61.815 Y-0.895 E12.44423
G1 X61.721 Y-0.707 E12.46014
G1 X61.710 Y-0.552 E12.47188
G1 X61.815 Y-0.236 E12.49715
G1 X61.721 Y-0.048 E12.51305
G1 X61.710 Y0.106 E12.52479
G1 X61.815 Y0.423 E12.55007
G1 X61.721 Y0.611 E12.56597
G1 X61.710 Y0.765 E12.57771
G1 X61.815 Y1.082 E12.60298
G1 X61.721 Y1.270 E12.61889
G1 X61.710 Y1.424 E12.63062
G1 X61.815 Y1.741 E12.65590
G1 X61.721 Y1.929 E12.67180
G1 X61.710 Y2.083 E12.68354
G1 X61.815 Y2.400 E12.70882
G1 X61.721 Y2.588 E12.72472
G1 X61.710 Y2.742 E12.73646
G1 X61.815 Y3.059 E12.76173
G1 X61.721 Y3.247 E12.77763
G1 X61.710 Y3.401 E12.78937
G1 X61.815 Y3.718 E12.81465
G1 X61.721 Y3.906 E12.83055
G1 X61.710 Y4.060 E12.84229
G1 X61.815 Y4.377 E12.86756
G1 X61.721 Y4.565 E12.88347
G1 X61.710 Y4.719 E12.89520
G1 X61.815 Y5.036 E12.92048
G1 X61.721 Y5.224 E12.93638
G1 X61.710 Y5.378 E12.94812
G1 X61.815 Y5.695 E12.97340
G1 X61.721 Y5.882 E12.98930
G1 X61.710 Y6.037 E13.00104
G1 X61.815 Y6.354 E13.02631
G1 X61.721 Y6.541 E13.04221
G1 X61.710 Y6.696 E13.05395
G1 X61.815 Y7.013 E13.07923
G1 X61.721 Y7.200 E13.09513
G1 X61.710 Y7.355 E13.10687
G1 X61.815 Y7.672 E13.13214
G1 X61.721 Y7.859 E13.14805
G1 X61.710 Y8.014 E13.15979
G1 X61.815 Y8.331 E13.18506
G1 X61.739 Y8.481 E13.19782
G1 X61.721 Y8.602 E13.20710
G1 X61.791 Y9.038 E13.24051
G1 X60.766 Y11.082 E13.41372
G1 X59.289 Y11.573 E13.53160
G1 X58.762 Y11.832 E13.57608
G1 X57.824 Y11.679 E13.64809
G1 X40.450 Y11.679 E14.96404
G1 X39.299 Y11.037 E15.06380
G1 X38.462 Y9.681 E15.18451
G1 X38.427 Y8.896 E15.24404
G1 X38.185 Y8.143 E15.30394
G1 X38.279 Y7.955 E15.31985
G1 X38.290 Y7.801 E15.33159
G1 X38.185 Y7.484 E15.35686
G1 X38.279 Y7.297 E15.37276
G1 X38.290 Y7.142 E15.38450
G1 X38.185 Y6.825 E15.40978
G1 X38.279 Y6.638 E15.42568
G1 X38.290 Y6.483 E15.43742
G1 X38.185 Y6.166 E15.46269
G1 X38.279 Y5.979 E15.47860
G1 X38.290 Y5.824 E15.49033
G1 X38.185 Y5.507 E15.51561
G1 X38.279 Y5.320 E15.53151
G1 X38.290 Y5.165 E15.54325
G1 X38.185 Y4.848 E15.56852
G1 X38.279 Y4.661 E15.58443
G1 X38.290 Y4.506 E15.59617
G1 X38.185 Y4.189 E15.62144
G1 X38.279 Y4.002 E15.63734
G1 X38.290 Y3.847 E15.64908
G1 X38.185 Y3.531 E15.67436
G1 X38.279 Y3.343 E15.69026
G1 X38.290 Y3.188 E15.70200
G1 X38.185 Y2.872 E15.72727
G1 X38.279 Y2.684 E15.74318
G1 X38.290 Y2.529 E15.75491
G1 X38.185 Y2.213 E15.78019
G1 X38.279 Y2.025 E15.79609
G1 X38.290 Y1.870 E15.80783
G1 X38.185 Y1.554 E15.83310
G1 X38.279 Y1.366 E15.84901
G1 X38.290 Y1.211 E15.86075
G1 X38.185 Y0.895 E15.88602
G1 X38.279 Y0.707 E15.90192
G1 X38.290 Y0.552 E15.91366
G1 X38.209 Y0.307 E15.93326
G1 X38.606 Y0.266 F3600.000
G1 X38.700 Y0.078 E15.94916 F1500.000
G1 X38.711 Y-0.076 E15.96090
G1 X38.606 Y-0.393 E15.98617
G1 X38.700 Y-0.581 E16.00208
G1 X38.711 Y-0.735 E16.01381
G1 X38.606 Y-1.052 E16.03909
G1 X38.700 Y-1.240 E16.05499
G1 X38.711 Y-1.394 E16.06673
G1 X38.606 Y-1.711 E16.09200
G1 X38.700 Y-1.899 E16.10791
G1 X38.711 Y-2.053 E16.11965
G1 X38.606 Y-2.370 E16.14492
G1 X38.700 Y-2.557 E16.16082
G1 X38.711 Y-2.712 E16.17256
G1 X38.606 Y-3.029 E16.19784
G1 X38.700 Y-3.216 E16.21374
G1 X38.711 Y-3.371 E16.22548
G1 X38.606 Y-3.688 E16.25075
G1 X38.700 Y-3.875 E16.26666
G1 X38.711 Y-4.030 E16.27839
G1 X38.606 Y-4.347 E16.30367
G1 X38.700 Y-4.534 E16.31957
G1 X38.711 Y-4.689 E16.33131
G1 X38.606 Y-5.006 E16.35658
G1 X38.700 Y-5.193 E16.37249
G1 X38.711 Y-5.348 E16.38423
G1 X38.606 Y-5.665 E16.40950
G1 X38.700 Y-5.852 E16.42540
G1 X38.711 Y-6.007 E16.43714
G1 X38.606 Y-6.323 E16.46242
G1 X38.700 Y-6.511 E16.47832
G1 X38.711 Y-6.666 E16.49006
G1 X38.606 Y-6.982 E16.51533
G1 X38.700 Y-7.170 E16.53124
G1 X38.711 Y-7.325 E16.54297
G1 X38.606 Y-7.641 E16.56825
G1 X38.700 Y-7.829 E16.58415
G1 X38.711 Y-7.984 E16.59589
G1 X38.606 Y-8.300 E16.62116
G1 X38.700 Y-8.488 E16.63707
G1 X38.711 Y-8.643 E16.64881
G1 X38.606 Y-8.959 E16.67408
G1 X39.277 Y-10.299 E16.78762
G1 X39.680 Y-10.739 E16.83279
G1 X40.307 Y-11.127 E16.88862
G1 X40.881 Y-11.289 E16.93379
G1 X57.519 Y-11.289 E18.19400
G1 X59.449 Y-11.289 E18.34020 F1500.000
G1 X60.422 Y-10.746 E18.42460
G1 X61.153 Y-9.563 E18.52997
G1 X61.186 Y-8.825 E18.58591
G1 X61.394 Y-8.174 E18.63771
G1 X61.300 Y-7.986 E18.65362
G1 X61.289 Y-7.831 E18.66536
G1 X61.394 Y-7.515 E18.69063
G1 X61.300 Y-7.327 E18.70653
G1 X61.289 Y-7.172 E18.71827
G1 X61.394 Y-6.856 E18.74355
G1 X61.300 Y-6.668 E18.75945
G1 X61.289 Y-6.513 E18.77119
G1 X61.394 Y-6.197 E18.79646
G1 X61.300 Y-6.009 E18.81237
G1 X61.289 Y-5.854 E18.82410
G1 X61.394 Y-5.538 E18.84938
G1 X61.300 Y-5.350 E18.86528
G1 X61.289 Y-5.195 E18.87702
G1 X61.394 Y-4.879 E18.90229
G1 X61.300 Y-4.691 E18.91820
G1 X61.289 Y-4.537 E18.92994
G1 X61.394 Y-4.220 E18.95521
G1 X61.300 Y-4.032 E18.97111
G1 X61.289 Y-3.878 E18.98285
G1 X61.394 Y-3.561 E19.00813
G1 X61.300 Y-3.373 E19.02403
G1 X61.289 Y-3.219 E19.03577
G1 X61.394 Y-2.902 E19.06104
G1 X61.300 Y-2.714 E19.07695
G1 X61.289 Y-2.560 E19.08868
G1 X61.394 Y-2.243 E19.11396
G1 X61.300 Y-2.055 E19.12986
G1 X61.289 Y-1.901 E19.14160
G1 X61.394 Y-1.584 E19.16688
G1 X61.300 Y-1.396 E19.18278
G1 X61.289 Y-1.242 E19.19452
G1 X61.394 Y-0.925 E19.21979
G1 X61.300 Y-0.737 E19.23569
G1 X61.289 Y-0.583 E19.24743
G1 X61.394 Y-0.266 E19.27271
G1 X61.300 Y-0.078 E19.28861
G1 X61.289 Y0.076 E19.30035
G1 X61.394 Y0.393 E19.32562
G1 X61.300 Y0.581 E19.34153
G1 X61.289 Y0.735 E19.35326
G1 X61.394 Y1.052 E19.37854
G1 X61.300 Y1.239 E19.39444
G1 X61.289 Y1.394 E19.40618
G1 X61.394 Y1.711 E19.43146
G1 X61.300 Y1.898 E19.44736
G1 X61.289 Y2.053 E19.45910
G1 X61.394 Y2.370 E19.48437
G1 X61.300 Y2.557 E19.50027
G1 X61.289 Y2.712 E19.51201
G1 X61.394 Y3.029 E19.53729
G1 X61.300 Y3.216 E19.55319
G1 X61.289 Y3.371 E19.56493
G1 X61.394 Y3.688 E19.59020
G1 X61.300 Y3.875 E19.60611
G1 X61.289 Y4.030 E19.61784
G1 X61.394 Y4.347 E19.64312
G1 X61.300 Y4.534 E19.65902
G1 X61.289 Y4.689 E19.67076
G1 X61.394 Y5.005 E19.69604
G1 X61.300 Y5.193 E19.71194
G1 X61.289 Y5.348 E19.72368
G1 X61.394 Y5.664 E19.74895
G1 X61.300 Y5.852 E19.76486
G1 X61.289 Y6.007 E19.77659
G1 X61.394 Y6.323 E19.80187
G1 X61.300 Y6.511 E19.81777
G1 X61.289 Y6.666 E19.82951
G1 X61.394 Y6.982 E19.85478
G1 X61.300 Y7.170 E19.87069
G1 X61.289 Y7.325 E19.88243
G1 X61.394 Y7.641 E19.90770
G1 X61.300 Y7.829 E19.92360
G1 X61.289 Y7.984 E19.93534
G1 X61.394 Y8.300 E19.96062
G1 X61.335 Y8.419 E19.97067
G1 X61.316 Y8.540 E19.97994
G1 X61.386 Y8.976 E20.01336
G1 X60.490 Y10.763 E20.16483
G1 X59.141 Y11.212 E20.27254
G1 X58.702 Y11.427 E20.30956
G1 X57.856 Y11.289 E20.37449
G1 X40.551 Y11.289 E21.68519
G1 X39.578 Y10.746 E21.76960
G1 X38.847 Y9.563 E21.87496
G1 X38.814 Y8.825 E21.93093
G1 X38.606 Y8.173 E21.98272
G1 X38.700 Y7.986 E21.99862
G1 X38.711 Y7.831 E22.01036
G1 X38.606 Y7.515 E22.03563
G1 X38.700 Y7.327 E22.05154
G1 X38.711 Y7.172 E22.06327
G1 X38.606 Y6.856 E22.08855
G1 X38.700 Y6.668 E22.10445
G1 X38.711 Y6.513 E22.11619
G1 X38.606 Y6.197 E22.14147
G1 X38.700 Y6.009 E22.15737
G1 X38.711 Y5.854 E22.16911
G1 X38.606 Y5.538 E22.19438
G1 X38.700 Y5.350 E22.21029
G1 X38.711 Y5.195 E22.22202
G1 X38.606 Y4.879 E22.24730
G1 X38.700 Y4.691 E22.26320
G1 X38.711 Y4.536 E22.27494
G1 X38.606 Y4.220 E22.30021
G1 X38.700 Y4.032 E22.31612
G1 X38.711 Y3.877 E22.32786
G1 X38.606 Y3.561 E22.35313
G1 X38.700 Y3.373 E22.36903
G1 X38.711 Y3.219 E22.38077
G1 X38.606 Y2.902 E22.40605
G1 X38.700 Y2.714 E22.42195
G1 X38.711 Y2.560 E22.43369
G1 X38.606 Y2.243 E22.45896
G1 X38.700 Y2.055 E22.47487
G1 X38.711 Y1.901 E22.48660
G1 X38.606 Y1.584 E22.51188
G1 X38.700 Y1.396 E22.52778
G1 X38.711 Y1.242 E22.53952
G1 X38.606 Y0.925 E22.56479
G1 X38.700 Y0.737 E22.58070
G1 X38.711 Y0.583 E22.59244
G1 X38.629 Y0.337 E22.61203
G1 X39.026 Y0.296 F3600.000
G1 X39.120 Y0.109 E22.62793 F1500.000
G1 X39.131 Y-0.046 E22.63967
G1 X39.026 Y-0.363 E22.66495
G1 X39.120 Y-0.550 E22.68085
G1 X39.131 Y-0.705 E22.69259
G1 X39.026 Y-1.022 E22.71786
G1 X39.120 Y-1.209 E22.73376
G1 X39.131 Y-1.364 E22.74550
G1 X39.026 Y-1.681 E22.77078
G1 X39.120 Y-1.868 E22.78668
G1 X39.131 Y-2.023 E22.79842
G1 X39.026 Y-2.339 E22.82369
G1 X39.120 Y-2.527 E22.83960
