; generated by Slic3r 1.2.9 on 2017-06-18 at 17:07:25

; external perimeters extrusion width = 0.40mm
; perimeters extrusion width = 0.40mm
; infill extrusion width = 0.40mm
; solid infill extrusion width = 0.40mm
; top infill extrusion width = 0.40mm
; support material extrusion width = 0.40mm

M107
M190 S77 ; set bed temperature
M104 S280 ; set temperature
G1 X3 Y0 
G1 Z5 F5000 ; lift nozzle

M109 S280 ; wait for temperature to be reached
G21 ; set units to millimeters
G90 ; use absolute coordinates
M82 ; use absolute distances for extrusion
G92 E0
G1 Z0.496 F3600.000
G1 E-2.00000 F2400.00000
G92 E0
G1 X3.0 Y0.0 F3600.000
G1 E2.00000 F2400.00000
G1 X37.76555639733115 Y0.20500100675620817 E2.01590 F1500.000
G1 X37.859004279035126 Y0.018000000678153393 E2.02764
G1 X37.870247807480744 Y-0.1370002988248532 E2.05292
G1 X37.767728830312265 Y-0.45401093459775155 E2.06882
G1 X37.864426075143406 Y-0.6410306207691404 E2.08056
G1 X37.87836474823062 Y-0.7960585992192009 E2.10583
G1 X37.78136801387689 Y-1.11216061167272 E2.12174
G1 X37.88131308442198 Y-1.3002553048232925 E2.13347
G1 X37.89794090712581 Y-1.4553576800553767 E2.15875
G1 X37.806502959147124 Y-1.7716483367090965 E2.17465
G1 X37.90964998519507 Y-1.9598729209157364 E2.18639
G1 X37.92895854093545 Y-2.1150960482391867 E2.21166
G1 X37.84309877639515 Y-2.431673020401318 E2.22757
G1 X37.949411128501055 Y-2.6200810347353425 E2.23931
G1 X37.97138961112695 Y-2.7754707552026097 E2.26458
G1 X37.891122258386595 Y-3.092431860227402 E2.28048
G1 X38.00056065375878 Y-3.281075261031851 E2.29222
G1 X38.02519591008046 Y-3.4366767538205685 E2.31750
G1 X37.95053002264922 Y-3.754119626122692 E2.33340
G1 X38.063052649518276 Y-3.9430486327979106 E2.34514
G1 X38.09032923197172 Y-4.098906272903246 E2.37041
G1 X38.021268705817796 Y-4.416928038602427 E2.38632
G1 X38.13683135762592 Y-4.606190991936205 E2.39805
G1 X38.166731586553226 Y-4.762348214289797 E2.42333
G1 X38.103275200433885 Y-5.081045172184671 E2.43923
G1 X38.221831418706245 Y-5.270688406183017 E2.45097
G1 X38.254194070715954 Y-5.42617756590246 E2.47624
G1 X38.19647693177998 Y-5.7466548886649615 E2.49215
G1 X38.31797815647376 Y-5.9367226166562 E2.50389
G1 X38.35290587426199 Y-6.092592374072131 E2.52916
G1 X38.299806161389384 Y-6.413937865429107 E2.54506
G1 X38.42518789804417 Y-6.60447051993386 E2.55680
G1 X38.4626569025074 Y-6.76076049092395 E2.58208
G1 X38.41613038815857 Y-7.083063294765791 E2.59798
G1 X38.543368327119516 Y-7.274103688061012 E2.60972
G1 X38.58335295175887 Y-7.430852096421992 E2.63499
G1 X38.54239262163158 Y-7.754204040110304 E2.65090
G1 X38.67241886668069 Y-7.945787929337115 E2.66263
G1 X38.7148916568289 Y-8.103031516591274 E2.68791
G1 X38.67947189401634 Y-8.427520613547676 E2.70381
G1 X38.81223108763525 Y-8.619682892169697 E2.71555
G1 X38.857162904669195 Y-8.777456838012775 E2.74082
G1 X38.82725363710392 Y-9.103168614604693 E2.88702
G1 X40.09556915670359 Y-10.877953300611729 E2.94861
G1 X40.78755581056555 Y-11.496628019322461 E3.02087
G1 X41.707646972707536 Y-12.011345032936424 E3.08246
G1 X42.520780155119446 Y-12.237227380498558 E4.36623
G1 X58.97024711666045 Y-12.154884090826235 E4.51243 F1500.000
G1 X60.86067585066731 Y-12.14953577699306 E4.62753
G1 X62.022270395399104 Y-11.391946178240577 E4.76359
G1 X62.69368332615336 Y-9.840355107324333 E4.83071
G1 X62.60698192693846 Y-8.945406054376152 E4.89470
G1 X62.761580556898025 Y-8.13576624963707 E4.91060
G1 X62.64430944626974 Y-7.9462926521555435 E4.92234
G1 X62.614098580112135 Y-7.791089207399068 E4.94761
G1 X62.67980010338259 Y-7.471682358165717 E4.96352
G1 X62.56435596248074 Y-7.282433503598134 E4.97526
G1 X62.5357293393145 Y-7.127420818894732 E5.00053
G1 X62.60485005173321 Y-6.808412618431076 E5.01643
G1 X62.491250027503845 Y-6.619371345008666 E5.02817
G1 X62.46421462725678 Y-6.464533608223588 E5.05345
G1 X62.53675496058298 Y-6.145888315821111 E5.06935
G1 X62.42501569883663 Y-5.957037006188124 E5.08109
G1 X62.399578011393636 Y-5.802358171626309 E5.10636
G1 X62.475537244588786 Y-5.484039847302 E5.12227
G1 X62.36567487007576 Y-5.295360445366092 E5.13400
G1 X62.341840885556145 Y-5.140824251434944 E5.15928
G1 X62.421217138085346 Y-4.822796799333132 E5.17518
G1 X62.313247235238826 Y-4.634270828276943 E5.18692
G1 X62.291022435018675 Y-4.479860815783864 E5.21219
G1 X62.37381266204592 Y-4.162088028230746 E5.22810
G1 X62.26781403743028 Y-3.974698644340078 E5.23984
G1 X62.24713960496499 Y-3.8193961406777186 E5.26511
G1 X62.333339594473834 Y-3.501841742755871 E5.28101
G1 X62.22925236574837 Y-3.3145670339198494 E5.29275
G1 X62.210207072473246 Y-3.1593578941831413 E5.31803
G1 X62.29981144433746 Y-2.8419855886895053 E5.33393
G1 X62.19764944915523 Y-2.654806045647848 E5.34567
G1 X62.18023722212709 Y-2.4996732224987492 E5.37094
G1 X62.27323942914805 Y-2.182446735146601 E5.38685
G1 X62.1730158991825 Y-1.995342511281391 E5.39858
G1 X62.157240125346625 Y-1.8402688376470824 E5.42386
G1 X62.25363245626716 Y-1.523151962370295 E5.43976
G1 X62.15536000217519 Y-1.336102896655695 E5.45150
G1 X62.1412235235194 Y-1.181071106522684 E5.47678
G1 X62.24099710801554 Y-0.8640277507392006 E5.49268
G1 X62.14468770538636 Y-0.6770133915217301 E5.50442
G1 X62.13219281499729 Y-0.5220061410225312 E5.52969
G1 X62.235340932624446 Y-0.20600037616501857 E5.54559
G1 X62.14100260697441 Y-0.01800000025171539 E5.55733
G1 X62.130151046009864 Y0.13700011102137008 E5.58261
G1 X62.236648640491566 Y0.45300400001217134 E5.59851
G1 X62.14430594994202 Y0.6410113668714266 E5.61025
G1 X62.13509890553004 Y0.7960217743921681 E5.63552
G1 X62.24493368138487 Y1.112059158543753 E5.65143
G1 X62.1545966200409 Y1.3000948020677974 E5.66316
G1 X62.147034724112146 Y1.4551329548091485 E5.68844
G1 X62.26019326985743 Y1.7712389140449063 E5.70434
G1 X62.171871147650045 Y1.9593243084663519 E5.71608
G1 X62.16595447670694 Y2.1144076473089055 E5.74136
G1 X62.28242227948427 Y2.430616927660759 E5.75726
G1 X62.19612371362061 Y2.618773708791789 E5.76900
G1 X62.191851789442644 Y2.773919644975735 E5.79427
G1 X62.311613251463804 Y3.090266616676277 E5.81017
G1 X62.227346159064176 Y3.278516554619794 E5.82191
G1 X62.22471795034511 Y3.433742448308188 E5.84719
G1 X62.34775640710739 Y3.7502610648909167 E5.86309
G1 X62.26552799904616 Y3.9386260364845387 E5.87483
G1 X62.264476228424186 Y4.092947016776413 E5.90010
G1 X62.390839664168645 Y4.410672934035996 E5.91601
G1 X62.310656440130685 Y4.599174895117292 E5.92775
G1 X62.311234147623814 Y4.75360956762986 E5.95302
G1 X62.44084865694892 Y5.071574376506603 E5.96892
G1 X62.362716401709115 Y5.260235334088331 E5.98066
G1 X62.36492094118295 Y5.414800670318623 E6.00594
G1 X62.49776676010112 Y5.733036949672148 E6.02184
G1 X62.421690541029086 Y5.921878934116077 E6.03358
G1 X62.425518732326125 Y6.076591772212099 E6.05885
G1 X62.56157511604067 Y6.395131532020456 E6.07476
G1 X62.487559281828254 Y6.584176569297676 E6.08649
G1 X62.493007416830245 Y6.739053594280872 E6.11177
G1 X62.63225266585899 Y7.057928241379746 E6.12767
G1 X62.56030084646333 Y7.24719832550415 E6.13941
G1 X62.56736469598189 Y7.402256049977609 E6.16468
G1 X62.70977618362228 Y7.721496355450852 E6.18059
G1 X62.639891291412695 Y7.911013421170798 E6.19233
G1 X62.64856611288083 Y8.066268166567758 E6.21760
G1 X62.79412031392748 Y8.385904234869065 E6.23307
G1 X62.72845913140223 Y8.56963181199575 E6.24235
G1 X62.72637284268874 Y8.692797778129917 E6.27576
G1 X62.857203445587686 Y9.132091577440601 E6.47070
G1 X62.09757293968903 Y11.466042887198316 E6.59876
G1 X60.62422123211151 Y12.01245103819904 E6.65070
G1 X60.08137692330295 Y12.323224056936363 E6.72979
G1 X59.03876713651802 Y12.154680986555741 E8.05099
G1 X42.11439023659253 Y12.240618125587236 E8.16609
G1 X40.63203200678007 Y11.480131315297124 E8.30215
G1 X39.317908502360595 Y9.904418347196412 E8.36930
G1 X39.061699361394915 Y8.993239900712931 E8.43327
G1 X38.626622865583265 Y8.1738675222222 E8.44917
G1 X38.679574790837606 Y7.981522043457353 E8.46091
G1 X38.65909131110042 Y7.824308169647862 E8.48618
G1 X38.49360129943677 Y7.501388389343912 E8.50209
G1 X38.549949896206094 Y7.3097243473648295 E8.51383
G1 X38.532031402457875 Y7.153013200898554 E8.53910
G1 X38.371437945430195 Y6.8310248328808765 E8.55500
G1 X38.43118954703328 Y6.639986361658628 E8.56674
G1 X38.41585752003982 Y6.483738708413901 E8.59202
G1 X38.26023681317198 Y6.162612435945784 E8.60792
G1 X38.32339474785604 Y5.9721425956237155 E8.61966
G1 X38.310668696852574 Y5.816317891794219 E8.64493
G1 X38.160093736782144 Y5.4959808243709585 E8.66084
G1 X38.22665826357308 Y5.306021772659389 E8.67257
G1 X38.21655564019342 Y5.150578269239155 E8.69785
G1 X38.07109597844538 Y4.830954094763133 E8.71375
G1 X38.14106423528321 Y4.641447267256878 E8.72549
G1 X38.13360035454297 Y4.48634212390361 E8.75076
G1 X37.9933218605586 Y4.167351284752178 E8.76667
G1 X38.06668782544654 Y3.978237582893568 E8.77841
G1 X38.06187579455327 Y3.8234269904956046 E8.80368
G1 X37.926840429964635 Y3.504986882743666 E8.81958
G1 X38.00359489574638 Y3.3162068680206964 E8.83132
G1 X38.00144555145238 Y3.1616461791666346 E8.85660
G1 X37.87171115753815 Y2.843671373921178 E8.87250
G1 X37.95191163828246 Y2.6561679120003117 E8.88424
G1 X37.95236357593555 Y2.5008093332073074 E8.90951
G1 X37.82798367610941 Y2.1832118187121643 E8.92542
G1 X37.91152734987078 Y1.9959218847284432 E8.93715
G1 X37.9146739403097 Y1.8407230165608437 E8.96243
G1 X37.79569755937837 Y1.5234124594429503 E8.97833
G1 X37.88256560741366 Y1.336277097455455 E8.99007
G1 X37.888410642305914 Y1.1811913267160996 E9.01534
G1 X37.774882144091464 Y0.8640753504759965 E9.03125
G1 X37.865052621117535 Y0.6770360744823024 E9.04299
G1 X37.87359745257902 Y0.5220165281508654 E9.06258
G1 X37.78901524252782 Y0.2770024806609414 F3600.000
G1 X38.185729284642456 Y0.23600150241546317 E9.07848 F1500.000
G1 X38.27903009481824 Y0.048000012579139086 E9.09022
G1 X38.29014950349502 Y-0.10700013926035076 E9.11550
G1 X38.187342850740485 Y-0.4230086507737054 E9.13140
G1 X38.28387600544125 Y-0.6110259412179351 E9.14314
G1 X38.29764124590442 Y-0.7650508823302136 E9.16841
G1 X38.200326556195826 Y-1.082144728218769 E9.18432
G1 X38.30006189290039 Y-1.2702328498342093 E9.19605
G1 X38.316470035743116 Y-1.424328002986441 E9.22133
G1 X38.22466881478504 Y-1.7416025087158085 E9.23723
G1 X38.32757339044569 Y-1.9298153015871096 E9.24897
G1 X38.346616395713454 Y-2.084025745816629 E9.27424
G1 X38.26034794666667 Y-2.401576720660209 E9.29015
G1 X38.366386134219105 Y-2.5899666656394227 E9.30189
G1 X38.38805366256539 Y-2.7443369956565298 E9.32716
G1 X38.30733227464424 Y-3.0622604123369634 E9.34306
G1 X38.416465870769535 Y-3.250878471784872 E9.35480
G1 X38.44074532315938 Y-3.4054526572937482 E9.38008
G1 X38.36558026408567 Y-3.72384433611132 E9.39598
G1 X38.47776860734001 Y-3.9127398053481746 E9.40772
G1 X38.50464517431631 Y-4.067561055272268 E9.43299
G1 X38.435040705064964 Y-4.386516351467087 E9.44890
G1 X38.55024080339837 Y-4.575736722002372 E9.46063
G1 X38.57969752343841 Y-4.730847354659629 E9.48591
G1 X38.515652934878304 Y-5.050460851549543 E9.50181
G1 X38.633819601483886 Y-5.240051687001937 E9.51355
G1 X38.66583742788975 Y-5.395493007187593 E9.53882
G1 X38.60734709870649 Y-5.715858217512835 E9.55473
G1 X38.72843309507887 Y-5.905863042962642 E9.56647
G1 X38.76299097077004 Y-6.061675226796917 E9.59174
G1 X38.71004444585411 Y-6.382884304556428 E9.60764
G1 X38.833832182775886 Y-6.572330288677249 E9.61938
G1 X38.87107557040325 Y-6.729566498184464 E9.64466
G1 X38.82365765870083 Y-7.051709963071857 E9.66056
G1 X38.950248279054655 Y-7.24164758430528 E9.67230
G1 X38.99000032059502 Y-7.399334121476523 E9.69757
G1 X38.948091211251935 Y-7.722500597819988 E9.71348
G1 X39.07743238750469 Y-7.912966500349312 E9.72521
G1 X39.119666358495444 Y-8.071139795646674 E9.75049
G1 X39.083241753979415 Y-8.395415767531887 E9.76639
G1 X39.2152797388977 Y-8.586444266618647 E9.77813
G1 X39.25996725673622 Y-8.745139242770739 E9.80340
G1 X39.22899852150192 Y-9.070608826784385 E9.93327
G1 X40.34908540475236 Y-10.645059193368592 E9.98665
G1 X40.94596201092362 Y-11.180414357597632 E10.05070
G1 X41.75994935341756 Y-11.637026688063886 E10.10407
G1 X42.46460844044131 Y-11.831484744823738 E11.37607
G1 X58.79169534041351 Y-11.757209790279068 E11.52226 F1500.000
G1 X60.684442330798426 Y-11.752324805984875 E11.62202
G1 X61.696245996008535 Y-11.096732980035314 E11.74273
G1 X62.29484091800861 Y-9.720397433168879 E11.80224
G1 X62.2123230959912 Y-8.926598977011677 E11.86216
G1 X62.34903907840119 Y-8.166329064384707 E11.87806
G1 X62.2316621744912 Y-7.977833531528131 E11.88980
G1 X62.20112298825481 Y-7.82159658270445 E11.91507
G1 X62.26639929368006 Y-7.502137653587865 E11.93098
G1 X62.15084914946858 Y-7.313869238219598 E11.94272
G1 X62.12191452297652 Y-7.157827579055119 E11.96799
G1 X62.190633137153384 Y-6.838774347390912 E11.98389
G1 X62.0769271549422 Y-6.650715816430521 E11.99563
G1 X62.049604261429415 Y-6.494853342953177 E12.02091
G1 X62.121765758870694 Y-6.176169606951554 E12.03681
G1 X62.009920835298594 Y-5.988303261845172 E12.04855
G1 X61.98421634577629 Y-5.832603628240585 E12.07382
G1 X62.05982012542415 Y-5.514252977736128 E12.08973
G1 X61.949852630978874 Y-5.326560671509301 E12.10146
G1 X61.925772704101156 Y-5.1710073083130315 E12.12674
G1 X62.00481698223131 Y-4.852953169276393 E12.14264
G1 X61.89674274143996 Y-4.665416324788525 E12.15438
G1 X61.8742930141428 Y-4.509992457744475 E12.17965
G1 X61.95684243891065 Y-4.193200424567083 E12.19556
G1 X61.850609091584545 Y-4.004797766841943 E12.20730
G1 X61.829794670530816 Y-3.8494864363746633 E12.23257
G1 X61.915766861115436 Y-3.5329167954291307 E12.24847
G1 X61.81146730178794 Y-3.344631894372758 E12.26021
G1 X61.79229275565036 Y-3.1894159756180622 E12.28549
G1 X61.88168233815237 Y-2.8730320461757564 E12.30139
G1 X61.77933066163795 Y-2.684845043404669 E12.31313
G1 X61.761800014248294 Y-2.5297072667396896 E12.33840
G1 X61.85460042713072 Y-2.2134723884356013 E12.35431
G1 X61.75421010748984 Y-2.025363078820787 E12.36604
G1 X61.738326831879725 Y-1.8702860508318353 E12.39132
G1 X61.834530328935145 Y-1.5541636300728052 E12.40722
G1 X61.73611420392442 Y-1.3661114853915286 E12.41896
G1 X61.72188121727982 Y-1.211077710215559 E12.44423
G1 X61.82147887263778 Y-0.8950312665554849 E12.46014
G1 X61.72504912918256 Y-0.7070154600090351 E12.47188
G1 X61.7124687887302 Y-0.5520073609823811 E12.49715
G1 X61.81545050389911 Y-0.23600057331529722 E12.51305
G1 X61.7210186646332 Y-0.04800000483845169 E12.52479
G1 X61.710091038662384 Y0.10600005212601775 E12.55007
G1 X61.81644727740344 Y0.4230033011930314 E12.56597
G1 X61.724024188317465 Y0.6110099789090772 E12.57771
G1 X61.71474155337605 Y0.7650195922925335 E12.60298
G1 X61.82446885335934 Y1.0820552420275338 E12.61889
G1 X61.73406467259385 Y1.270089596880617 E12.63062
G1 X61.7264276951129 Y1.424126339880129 E12.65590
G1 X61.83951249807845 Y1.7412300741879463 E12.67180
G1 X61.751136685894295 Y1.9293138674637111 E12.68354
G1 X61.74514546909741 Y2.083395306026105 E12.70882
G1 X61.86157308863071 Y2.400602469236175 E12.72472
G1 X61.775234398584026 Y2.588757627947698 E12.73646
G1 X61.77088848316819 Y2.742901298768517 E12.76173
G1 X61.89064312155755 Y3.06024685240553 E12.77763
G1 X61.80634959290186 Y3.2484954412633846 E12.78937
G1 X61.80364795867635 Y3.4027188298978217 E12.81465
G1 X61.92671272560816 Y3.720237310493037 E12.83055
G1 X61.844471676941346 Y3.9086015035968904 E12.84229
G1 X61.843412745416956 Y4.062922022752138 E12.86756
G1 X61.969769678448856 Y4.380647500824441 E12.88347
G1 X61.88958770261763 Y4.569149553168227 E12.89520
G1 X61.8901693405342 Y4.723584521245512 E12.92048
G1 X62.01979942727967 Y5.041550561575111 E12.93638
G1 X61.941682387549015 Y5.230212780458225 E12.94812
G1 X61.94390191132618 Y5.384779400411207 E12.97340
G1 X62.07678511327725 Y5.703019023721974 E12.98930
G1 X62.00064326279204 Y5.890859235858107 E13.00104
G1 X62.00459232185951 Y6.046579078733041 E13.02631
G1 X62.140707599769094 Y6.365124724892013 E13.04221
G1 X62.06662969744691 Y6.553168705930115 E13.05395
G1 X62.07222016329043 Y6.709055232527211 E13.07923
