; generated by Slic3r 1.2.9 on 2017-06-18 at 17:07:25

; external perimeters extrusion width = 0.40mm
; perimeters extrusion width = 0.40mm
; infill extrusion width = 0.40mm
; solid infill extrusion width = 0.40mm
; top infill extrusion width = 0.40mm
; support material extrusion width = 0.40mm

M107
M190 S77 ; set bed temperature
M104 S280 ; set temperature
G1 X3 Y0
G1 Z5 F5000 ; lift nozzle

M109 S280 ; wait for temperature to be reached
G21 ; set units to millimeters
G90 ; use absolute coordinates
M82 ; use absolute distances for extrusion
G92 E0
G1 Z0.496 F3600.000
G1 E-2.00000 F2400.00000
G92 E0
G1 X37.76555639733115 Y0.005428253316312727 F3600.000
G1 E2.00000 F2400.00000
G1 X37.859004279035126 Y0.00047544833840548463 E2.01590 F1500.000
G1 X37.870247807480744 Y-0.0036176235107125625 E2.02764
G1 X37.767728830312265 Y-0.012021134144379995 E2.05292
G1 X37.864426075143406 Y-0.016929627283851882 E2.06882
G1 X37.87836474823062 Y-0.021016181783728837 E2.08056
G1 X37.78136801387689 Y-0.02943674806227846 E2.10583
G1 X37.88131308442198 Y-0.03432445179303986 E2.12174
G1 X37.89794090712581 Y-0.038402025155454586 E2.13347
G1 X37.806502959147124 Y-0.04686094184969979 E2.15875
G1 X37.90964998519507 Y-0.05169852324358388 E2.17465
G1 X37.92895854093545 Y-0.05576467505577394 E2.18639
G1 X37.84309877639515 Y-0.06425670991610465 E2.21166
G1 X37.949411128501055 Y-0.06904141478937441 E2.22757
G1 X37.97138961112695 Y-0.07309373672195814 E2.23931
G1 X37.891122258386595 Y-0.08161362545927078 E2.26458
G1 X38.00056065375878 Y-0.08634281191078447 E2.28048
G1 X38.02519591008046 Y-0.090378936165047 E2.29222
G1 X37.95053002264922 Y-0.09892140172699036 E2.31750
G1 X38.063052649518276 Y-0.10359254863516086 E2.33340
G1 X38.09032923197172 Y-0.10761015605669179 E2.34514
G1 X38.021268705817796 Y-0.11616992775221555 E2.37041
G1 X38.13683135762592 Y-0.1207806424383273 E2.38632
G1 X38.166731586553226 Y-0.12477747022927296 E2.39805
G1 X38.103275200433885 Y-0.13334930253257635 E2.42333
G1 X38.221831418706245 Y-0.1378973275363115 E2.43923
G1 X38.254194070715954 Y-0.14184529821414443 E2.45097
G1 X38.19647693177998 Y-0.1504498673772624 E2.47624
G1 X38.31797815647376 Y-0.15493308630255068 E2.49215
G1 X38.35290587426199 Y-0.15885608235387375 E2.50389
G1 X38.299806161389384 Y-0.1674665881702319 E2.52916
G1 X38.42518789804417 Y-0.17187867857557113 E2.54506
G1 X38.4626569025074 Y-0.17577466133087682 E2.55680
G1 X38.41613038815857 Y-0.18437732335865567 E2.58208
G1 X38.543368327119516 Y-0.18872516865483385 E2.59798
G1 X38.58335295175887 Y-0.19259218102980466 E2.60972
G1 X38.54239262163158 Y-0.20118636941491602 E2.63499
G1 X38.67241886668069 Y-0.20546394981729557 E2.65090
G1 X38.7148916568289 Y-0.20930012121477773 E2.66263
G1 X38.67947189401634 Y-0.21788096374840635 E2.68791
G1 X38.81223108763525 Y-0.22208676622343787 E2.70381
G1 X38.857162904669195 Y-0.22589031678784888 E2.71555
G1 X38.82725363710392 Y-0.2344530648416906 E2.74082
G1 X40.09556915670359 Y-0.2713006331970983 E2.88702
G1 X40.78755581056555 Y-0.28186606897254657 E2.94861
G1 X41.707646972707536 Y-0.28798903569880974 E3.02087
G1 X42.520780155119446 Y-0.2877940464840039 E3.08246
G1 X58.97024711666045 Y-0.20611892751238275 E4.36623
G1 X60.86067585066731 Y-0.19962867002667117 E4.51243 F1500.000
G1 X62.022270395399104 Y-0.183675091311808 E4.62753
G1 X62.69368332615336 Y-0.1569592754046933 E4.76359
G1 X62.60698192693846 Y-0.14288192433258204 E4.83071
G1 X62.761580556898025 Y-0.12962972215560115 E4.89470
G1 X62.64430944626974 Y-0.12684779706880014 E4.91060
G1 X62.614098580112135 Y-0.12443027024386039 E4.92234
G1 X62.67980010338259 Y-0.119203991490753 E4.94761
G1 X62.56435596248074 Y-0.11639908045989224 E4.96352
G1 X62.5357293393145 Y-0.1139735778921174 E4.97526
G1 X62.60485005173321 Y-0.10875215918263485 E5.00053
G1 X62.491250027503845 Y-0.10592477094145705 E5.01643
G1 X62.46421462725678 Y-0.10349179361014066 E5.02817
G1 X62.53675496058298 Y-0.09827641871879783 E5.05345
G1 X62.42501569883663 Y-0.09542708062625511 E5.06935
G1 X62.399578011393636 Y-0.09298713799902376 E5.08109
G1 X62.475537244588786 Y-0.08777899461403978 E5.10636
G1 X62.36567487007576 Y-0.08490825211781533 E5.12227
G1 X62.341840885556145 Y-0.08246186154291141 E5.13400
G1 X62.421217138085346 Y-0.077262139709073 E5.15928
G1 X62.313247235238826 Y-0.0743705557629199 E5.17518
G1 X62.291022435018675 Y-0.07191824183745268 E5.18692
G1 X62.37381266204592 Y-0.06672813237795469 E5.21219
G1 X62.26781403743028 Y-0.06383231378494862 E5.22810
G1 X62.24713960496499 Y-0.06135858073023927 E5.23984
G1 X62.333339594473834 Y-0.05617927365255955 E5.26511
G1 X62.22925236574837 Y-0.05326380934867573 E5.28101
G1 X62.210207072473246 Y-0.05078520138186605 E5.29275
G1 X62.29981144433746 Y-0.04561788427287156 E5.31803
G1 X62.19764944915523 Y-0.04268338223646337 E5.33393
G1 X62.18023722212709 Y-0.04020044525673232 E5.34567
G1 X62.27323942914805 Y-0.03504630167232106 E5.37094
G1 X62.1730158991825 Y-0.032093384604616346 E5.38685
G1 X62.157240125346625 Y-0.029606669053130197 E5.39858
G1 X62.25363245626716 Y-0.024466876907790095 E5.42386
G1 X62.15536000217519 Y-0.021496181449338184 E5.43976
G1 X62.1412235235194 Y-0.01900624158254091 E5.45150
G1 X62.24099710801554 Y-0.013881971544249715 E5.47678
G1 X62.14468770538636 Y-0.010894147456839667 E5.49268
G1 X62.13219281499729 Y-0.008401540608374131 E5.50442
G1 X62.235340932624446 Y-0.003310022457947698 E5.52969
G1 X62.14100260697441 Y-0.00028966382093254407 E5.54559
G1 X62.130151046009864 Y0.0022050503453615623 E5.55733
G1 X62.236648640491566 Y0.0072787338313947065 E5.58261
G1 X62.14430594994202 Y0.010314884961266908 E5.59851
G1 X62.13509890553004 Y0.0128111452047809 E5.61025
G1 X62.24493368138487 Y0.017865858195561517 E5.63552
G1 X62.1545966200409 Y0.020917114304762452 E5.65143
G1 X62.147034724112146 Y0.023414358565438973 E5.66316
G1 X62.26019326985743 Y0.028448978729759766 E5.68844
G1 X62.171871147650045 Y0.031514642752398646 E5.70434
G1 X62.16595447670694 Y0.03401230890939117 E5.71608
G1 X62.28242227948427 Y0.0390257289087711 E5.74136
G1 X62.19612371362061 Y0.04210509518004402 E5.75726
G1 X62.191851789442644 Y0.0446026218091583 E5.76900
G1 X62.311613251463804 Y0.04959375075405677 E5.79427
G1 X62.227346159064176 Y0.05268610598046913 E5.81017
G1 X62.22471795034511 Y0.05518293310784133 E5.82191
G1 X62.34775640710739 Y0.06015069797224335 E5.84719
G1 X62.26552799904616 Y0.06325532221528539 E5.86309
G1 X62.264476228424186 Y0.06573486624638067 E5.87483
G1 X62.390839664168645 Y0.07069423905460061 E5.90010
G1 X62.310656440130685 Y0.0738104067245106 E5.91601
G1 X62.311234147623814 Y0.07628816268295875 E5.92775
G1 X62.44084865694892 Y0.08122206032736548 E5.95302
G1 X62.362716401709115 Y0.0843490411835904 E5.96892
G1 X62.36492094118295 Y0.08682446138952668 E5.98066
G1 X62.49776676010112 Y0.09173186894306994 E6.00594
G1 X62.421690541029086 Y0.09486892909803031 E6.02184
G1 X62.425518732326125 Y0.0973414702129728 E6.03358
G1 X62.56157511604067 Y0.10222139580339237 E6.05885
G1 X62.487559281828254 Y0.10536779872617609 E6.07476
G1 X62.493007416830245 Y0.10783692244687763 E6.08649
G1 X62.63225266585899 Y0.11268839840447 E6.11177
G1 X62.56030084646333 Y0.11584340592111858 E6.12767
G1 X62.56736469598189 Y0.11830857965563293 E6.13941
G1 X62.70977618362228 Y0.1231306635960766 E6.16468
G1 X62.639891291412695 Y0.12629353688318612 E6.18059
G1 X62.64856611288083 Y0.1287542344071191 E6.19233
G1 X62.79412031392748 Y0.13354601024658522 E6.21760
G1 X62.72845913140223 Y0.13661473485335052 E6.23307
G1 X62.72637284268874 Y0.13858282225134483 E6.24235
G1 X62.857203445587686 Y0.1452831350562039 E6.27576
G1 X62.09757293968903 Y0.1846455882959302 E6.47070
G1 X60.62422123211151 Y0.1981460675957726 E6.59876
G1 X60.08137692330295 Y0.20510888211945624 E6.65070
G1 X59.03876713651802 Y0.20587626700350842 E6.72979
G1 X42.11439023659253 Y0.2906516764654842 E8.05099
G1 X40.63203200678007 Y0.2825389415272534 E8.16609
G1 X39.317908502360595 Y0.25190603275862866 E8.30215
G1 X39.061699361394915 Y0.23023166036654932 E8.36930
G1 X38.626622865583265 Y0.21161227453578924 E8.43327
G1 X38.679574790837606 Y0.20634978762351885 E8.44917
G1 X38.65909131110042 Y0.20239244907966114 E8.46091
G1 X38.49360129943677 Y0.1948736448687037 E8.48618
G1 X38.549949896206094 Y0.18961696103486295 E8.50209
G1 X38.532031402457875 Y0.1856381026524929 E8.51383
G1 X38.371437945430195 Y0.17802368633136956 E8.53910
G1 X38.43118954703328 Y0.17277597805117137 E8.55500
G1 X38.41585752003982 Y0.16877766440672648 E8.56674
G1 X38.26023681317198 Y0.1610709433409508 E8.59202
G1 X38.32339474785604 Y0.15583542728708344 E8.60792
G1 X38.310668696852574 Y0.15181979562450343 E8.61966
G1 X38.160093736782144 Y0.14402430094330287 E8.64493
G1 X38.22665826357308 Y0.13880422756481436 E8.66084
G1 X38.21655564019342 Y0.13477348188391283 E8.67257
G1 X38.07109597844538 Y0.126892960935463 E8.69785
G1 X38.14106423528321 Y0.12169160353326502 E8.71375
G1 X38.13360035454297 Y0.11764800811337862 E8.72549
G1 X37.9933218605586 Y0.10968641541918882 E8.75076
G1 X38.06668782544654 Y0.1045070587999575 E8.76667
G1 X38.06187579455327 Y0.10045293119901212 E8.77841
G1 X37.926840429964635 Y0.09241441794277441 E8.80368
G1 X38.00359489574638 Y0.08726034674135179 E8.81958
G1 X38.00144555145238 Y0.08319805031853057 E8.83132
G1 X37.87171115753815 Y0.07508695242451861 E8.85660
G1 X37.95191163828246 Y0.06998772386793316 E8.87250
G1 X37.95236357593555 Y0.06589337520978522 E8.88424
G1 X37.82798367610941 Y0.0577142000854513 E8.90951
G1 X37.91152734987078 Y0.05264683393810158 E8.92542
G1 X37.9146739403097 Y0.04854909261408271 E8.93715
G1 X37.79569755937837 Y0.040306504650419954 E8.96243
G1 X37.88256560741366 Y0.03527419740530837 E8.97833
G1 X37.888410642305914 Y0.03117553116353712 E8.99007
G1 X37.774882144091464 Y0.022874336104610465 E9.01534
G1 X37.865052621117535 Y0.017880235933033298 E9.03125
G1 X37.87359745257902 Y0.01378312500692533 E9.04299
G1 X37.78901524252782 Y0.007330238136219077 E9.06258
G1 X38.185729284642456 Y0.0061803586532620785 F3600.000
G1 X38.27903009481824 Y0.0012539505954106383 E9.07848 F1500.000
G1 X38.29014950349502 Y-0.0027944560323689537 E9.09022
G1 X38.187342850740485 Y-0.01107719519598633 E9.11550
G1 X38.28387600544125 Y-0.0159603991281105 E9.13140
G1 X38.29764124590442 Y-0.019976449134763062 E9.14314
G1 X38.200326556195826 Y-0.02832815386085365 E9.16841
G1 X38.30006189290039 Y-0.033165294964436334 E9.18432
G1 X38.316470035743116 Y-0.03717273542311626 E9.19605
G1 X38.22466881478504 Y-0.04556226548762585 E9.22133
G1 X38.32757339044569 Y-0.050350573513432355 E9.23723
G1 X38.346616395713454 Y-0.05434705696874966 E9.24897
G1 X38.26034794666667 Y-0.06276933821950358 E9.27424
G1 X38.366386134219105 Y-0.06750614083324942 E9.29015
G1 X38.38805366256539 Y-0.07148934977999954 E9.30189
G1 X38.30733227464424 Y-0.07993927612557569 E9.32716
G1 X38.416465870769535 Y-0.08462200772763985 E9.34306
G1 X38.44074532315938 Y-0.08858966257457204 E9.35480
G1 X38.36558026408567 Y-0.09706211428260973 E9.38008
G1 X38.47776860734001 Y-0.10168832411455848 E9.39598
G1 X38.50464517431631 Y-0.10563819084315175 E9.40772
G1 X38.435040705064964 Y-0.1141280527091788 E9.43299
G1 X38.55024080339837 Y-0.1186954121853112 E9.44890
G1 X38.57969752343841 Y-0.12262530964078934 E9.46063
G1 X38.515652934878304 Y-0.13112748887027276 E9.48591
G1 X38.633819601483886 Y-0.13563379808297993 E9.50181
G1 X38.66583742788975 Y-0.13954160484044792 E9.51355
G1 X38.60734709870649 Y-0.14805104849341852 E9.53882
G1 X38.72843309507887 Y-0.15249424185232752 E9.55473
G1 X38.76299097077004 Y-0.1563779026073565 E9.56647
G1 X38.71004444585411 Y-0.164889614463877 E9.59174
G1 X38.833832182775886 Y-0.16924238271782766 E9.60764
G1 X38.87107557040325 Y-0.17312529688034695 E9.61938
G1 X38.82365765870083 Y-0.18163435359603441 E9.64466
G1 X38.950248279054655 Y-0.1859204473466591 E9.66056
G1 X38.99000032059502 Y-0.1897751746764695 E9.67230
G1 X38.948091211251935 Y-0.19827674110994664 E9.69757
G1 X39.07743238750469 Y-0.20249453500121833 E9.71348
G1 X39.119666358495444 Y-0.2063192390671783 E9.72521
G1 X39.083241753979415 Y-0.21480858267538858 E9.75049
G1 X39.2152797388977 Y-0.21895659864697434 E9.76639
G1 X39.25996725673622 Y-0.22274952970752288 E9.77813
G1 X39.22899852150192 Y-0.23122203391995 E9.80340
G1 X40.34908540475236 Y-0.26382405168754597 E9.93327
G1 X40.94596201092362 Y-0.27305291678370885 E9.98665
G1 X41.75994935341756 Y-0.2786647701504344 E10.05070
G1 X42.46460844044131 Y-0.2786198949983955 E10.10407
G1 X58.79169534041351 Y-0.1999807918823042 E11.37607
G1 X60.684442330798426 Y-0.19366289537475675 E11.52226 F1500.000
G1 X61.696245996008535 Y-0.17986074842792255 E11.62202
G1 X62.29484091800861 Y-0.15603856258277787 E11.74273
G1 X62.2123230959912 Y-0.14348602548145134 E11.80224
G1 X62.34903907840119 Y-0.1309776250780049 E11.86216
G1 X62.2316621744912 Y-0.1281957327310189 E11.87806
G1 X62.20112298825481 Y-0.12574687090748138 E11.88980
G1 X62.26639929368006 Y-0.12048452678633241 E11.91507
G1 X62.15084914946858 Y-0.11767931312781003 E11.93098
G1 X62.12191452297652 Y-0.11522226309377043 E11.94272
G1 X62.190633137153384 Y-0.10996470050897988 E11.96799
G1 X62.0769271549422 Y-0.1071366789762407 E11.98389
G1 X62.049604261429415 Y-0.10467195432204288 E11.99563
G1 X62.121765758870694 Y-0.09942038078770525 E12.02091
G1 X62.009920835298594 Y-0.096570083966893 E12.03681
G1 X61.98421634577629 Y-0.09409820712588599 E12.04855
G1 X62.05982012542415 Y-0.08885383435839343 E12.07382
G1 X61.949852630978874 Y-0.08598181343930561 E12.08973
G1 X61.925772704101156 Y-0.08350331505787688 E12.10146
G1 X62.00481698223131 Y-0.07826735736784936 E12.12674
G1 X61.89674274143996 Y-0.07537418155067185 E12.14264
G1 X61.8742930141428 Y-0.0728895998329001 E12.15438
G1 X61.95684243891065 Y-0.06767937582844981 E12.17965
G1 X61.850609091584545 Y-0.06474952835002622 E12.19556
G1 X61.829794670530816 Y-0.06225940837887656 E12.20730
G1 X61.915766861115436 Y-0.05706005068715197 E12.23257
G1 X61.81146730178794 Y-0.05411021676678451 E12.24847
G1 X61.79229275565036 Y-0.05161510980390703 E12.26021
G1 X61.88168233815237 Y-0.04642782706643424 E12.28549
G1 X61.77933066163795 Y-0.0434586295230264 E12.30139
G1 X61.761800014248294 Y-0.0409590922893454 E12.31313
G1 X61.85460042713072 Y-0.035785089114644515 E12.33840
G1 X61.75421010748984 Y-0.03279716597937897 E12.35431
G1 X61.738326831879725 Y-0.0302937599187751 E12.36604
G1 X61.834530328935145 Y-0.025134235221085564 E12.39132
G1 X61.73611420392442 Y-0.022128238924773273 E12.40722
G1 X61.72188121727982 Y-0.019621529453261424 E12.41896
G1 X61.82147887263778 Y-0.014477674796479613 E12.44423
G1 X61.72504912918256 Y-0.011454271320697422 E12.46014
G1 X61.7124687887302 Y-0.008944827063589903 E12.47188
G1 X61.81545050389911 Y-0.0038178250161003207 E12.49715
G1 X61.7210186646332 Y-0.0007776930108568705 E12.51305
G1 X61.710091038662384 Y0.0017177101887535216 E12.52479
G1 X61.81644727740344 Y0.006842892463469949 E12.55007
G1 X61.724024188317465 Y0.009899062592628613 E12.56597
G1 X61.71474155337605 Y0.012396059240252683 E12.57771
G1 X61.82446885335934 Y0.017502054802832945 E12.60298
G1 X61.73406467259385 Y0.020573561835212497 E12.61889
G1 X61.7264276951129 Y0.023071582028274123 E12.63062
G1 X61.83951249807845 Y0.028157241282295877 E12.65590
G1 X61.751136685894295 Y0.0312433741467373 E12.67180
G1 X61.74514546909741 Y0.03374184788452422 E12.68354
G1 X61.86157308863071 Y0.03880603659717428 E12.70882
G1 X61.775234398584026 Y0.04190607535771707 E12.72472
G1 X61.77088848316819 Y0.0444044333200084 E12.73646
G1 X61.89064312155755 Y0.04944603413467511 E12.76173
G1 X61.80634959290186 Y0.05255925099379203 E12.77763
G1 X61.80364795867635 Y0.055056925315686456 E12.78937
G1 X61.92671272560816 Y0.06007483922127568 E12.81465
G1 X61.844471676941346 Y0.06320049953719968 E12.83055
G1 X61.843412745416956 Y0.06569692457752067 E12.84229
G1 X61.969769678448856 Y0.07069007232970068 E12.86756
G1 X61.88958770261763 Y0.07382743564431557 E12.88347
G1 X61.8901693405342 Y0.07632204874501546 E12.89520
