; generated by Slic3r 1.2.9 on 2017-06-18 at 17:23:42

; external perimeters extrusion width = 0.40mm
; perimeters extrusion width = 0.40mm
; infill extrusion width = 0.40mm
; solid infill extrusion width = 0.40mm
; top infill extrusion width = 0.40mm
; support material extrusion width = 0.40mm

M107
M190 S77 ; set bed temperature
M104 S280 ; set temperature
G1 X3 Y0 
G1 X3.0 Y0.0 
G1 X3.0 Y0.0 
G1 X3.0 Y0.0 
G1 X3.0 Y0.0 
G1 X3.0 Y0.0 
G1 X3.0 Y0.0 
G1 X3.0 Y0.0 
G1 X3.0 Y0.0 
G1 X3.0 Y0.0 
G1 X3.0 Y0.0 
G1 X3.0 Y0.0 
G1 X3.0 Y0.0 
G1 X3.0 Y0.0 
G1 X3.0 Y0.0 
G1 Z5 F5000 ; lift nozzle

M109 S280 ; wait for temperature to be reached
G21 ; set units to millimeters
G90 ; use absolute coordinates
M82 ; use absolute distances for extrusion
G92 E0
G1 Z0.496 F3600.000
G1 E-2.00000 F2400.00000
G92 E0
G1 X3.0 Y0.0 F3600.000
G1 X6.600970208307933 Y-0.03219927451575601 F3600.000
G1 X10.201940416615866 Y-0.09952933271977472 F3600.000
G1 X13.802910624923799 Y-0.20199017461205612 F3600.000
G1 X17.40388083323173 Y-0.33958180019260026 F3600.000
G1 X21.004851041539663 Y-0.5123042094614071 F3600.000
G1 X24.605821249847594 Y-0.7201574024184766 F3600.000
G1 X28.206791458155525 Y-0.9631413790638087 F3600.000
G1 X31.807761666463456 Y-1.2412561393974038 F3600.000
G1 X35.40873187477139 Y-1.5545016834192613 F3600.000
G1 X39.009702083079326 Y-1.902878011129382 F3600.000
G1 X42.61067229138726 Y-2.286385122527765 F3600.000
G1 X46.211642499695195 Y-2.705023017614411 F3600.000
G1 X49.81261270800313 Y-3.15879169638932 F3600.000
G1 X53.413582916311064 Y-3.6476911588524907 F3600.000
G1 E2.00000 F2400.00000
G1 X57.014553124619 Y-4.171721405003924 E2.83546 F1500.000
G1 X57.004382916311066 Y-3.892912106373083 E2.83546 F1500.000
G1 X56.99421270800313 Y-3.6142020274989917 E2.83546 F1500.000
G1 X56.9840424996952 Y-3.335591168381649 E2.83546 F1500.000
G1 X56.973872291387266 Y-3.0570795290210557 E2.83546 F1500.000
G1 X56.96370208307933 Y-2.778667109417212 E2.83546 F1500.000
G1 X56.9535318747714 Y-2.500353909570118 E2.83546 F1500.000
G1 X56.94336166646347 Y-2.2221399294797735 E2.83546 F1500.000
G1 X56.933191458155534 Y-1.9440251691461785 E2.83546 F1500.000
G1 X56.9230212498476 Y-1.6660096285693329 E2.83546 F1500.000
G1 X56.91285104153967 Y-1.388093307749237 E2.83546 F1500.000
G1 X56.902680833231734 Y-1.1102762066858904 E2.83546 F1500.000
G1 X56.8925106249238 Y-0.8325583253792935 E2.83546 F1500.000
G1 X56.88234041661587 Y-0.5549396638294462 E2.83546 F1500.000
G1 X56.872170208307935 Y-0.2774202220363483 E2.83546 F1500.000
G1 X56.862 Y0.0 E2.83546 F1500.000
G1 X56.889503339326396 Y0.4554853489129758 E2.83546 F1500.000
G1 X56.91700667865279 Y0.9114111083542219 E2.83546 F1500.000
G1 X56.944510017979184 Y1.3677772783237383 E2.83546 F1500.000
G1 X56.97201335730558 Y1.824583858821525 E2.83546 F1500.000
G1 X56.99951669663197 Y2.2818308498475823 E2.83546 F1500.000
G1 X57.027020035958365 Y2.73951825140191 E2.83546 F1500.000
G1 X57.05452337528476 Y3.197646063484508 E2.83546 F1500.000
G1 X57.08202671461115 Y3.656214286095376 E2.83546 F1500.000
G1 X57.10953005393755 Y4.115222919234514 E2.83546 F1500.000
G1 X57.13703339326394 Y4.574671962901924 E2.83546 F1500.000
G1 X57.164536732590335 Y5.034561417097603 E2.83546 F1500.000
G1 X57.19204007191673 Y5.494891281821553 E2.83546 F1500.000
G1 X57.21954341124312 Y5.955661557073772 E2.83546 F1500.000
G1 X57.24704675056952 Y6.416872242854263 E2.83546 F1500.000
G1 X57.27455008989591 Y6.878523339163023 E3.87501 F1500.000
G1 X56.368270932398296 Y6.9111728346019135 E3.87501 F1500.000
G1 X55.46199177490068 Y6.939272587223941 E3.87501 F1500.000
G1 X54.55571261740307 Y6.9628225970291036 E3.87501 F1500.000
G1 X53.64943345990545 Y6.981822864017401 E3.87501 F1500.000
G1 X52.74315430240784 Y6.996273388188835 E3.87501 F1500.000
G1 X51.83687514491022 Y7.006174169543405 E3.87501 F1500.000
G1 X50.93059598741261 Y7.01152520808111 E3.87501 F1500.000
G1 X50.024316829914994 Y7.012326503801951 E3.87501 F1500.000
G1 X49.11803767241738 Y7.008578056705928 E3.87501 F1500.000
G1 X48.211758514919765 Y7.000279866793041 E3.87501 F1500.000
G1 X47.30547935742215 Y6.98743193406329 E3.87501 F1500.000
G1 X46.399200199924536 Y6.970034258516674 E3.87501 F1500.000
G1 X45.49292104242692 Y6.948086840153194 E3.87501 F1500.000
G1 X44.58664188492931 Y6.92158967897285 E3.87501 F1500.000
G1 X43.68036272743169 Y6.890542774975642 E4.91457
G1 X43.64420521226958 Y6.425849691773643 E4.91457
G1 X43.60804769710747 Y5.961917117838828 E4.91457
G1 X43.57189018194536 Y5.498745053171198 E4.91457
G1 X43.535732666783254 Y5.036333497770752 E4.91457
G1 X43.499575151621144 Y4.574682451637489 E4.91457
G1 X43.463417636459035 Y4.1137919147714115 E4.91457
G1 X43.427260121296925 Y3.6536618871725177 E4.91457
G1 X43.391102606134815 Y3.1942923688408085 E4.91457
G1 X43.354945090972706 Y2.735683359776283 E4.91457
G1 X43.318787575810596 Y2.277834859978942 E4.91457
G1 X43.282630060648486 Y1.8207468694487852 E4.91457
G1 X43.24647254548638 Y1.3644193881858127 E4.91457
G1 X43.21031503032427 Y0.9088524161900242 E4.91457
G1 X43.17415751516216 Y0.45404595346141996 E4.91457
G1 X43.13800000000005 Y0.0 E4.91457
G1 X43.17415751516216 Y-0.45404595346142007 E4.91457
G1 X43.21031503032427 Y-0.9088524161900243 E4.91457
G1 X43.24647254548638 Y-1.3644193881858129 E4.91457
G1 X43.282630060648486 Y-1.8207468694487854 E4.91457
G1 X43.318787575810596 Y-2.277834859978942 E4.91457
G1 X43.354945090972706 Y-2.7356833597762837 E4.91457
G1 X43.391102606134815 Y-3.194292368840809 E4.91457
G1 X43.427260121296925 Y-3.653661887172518 E4.91457
G1 X43.463417636459035 Y-4.113791914771412 E4.91457
G1 X43.499575151621144 Y-4.57468245163749 E4.91457
G1 X43.535732666783254 Y-5.036333497770752 E4.91457
G1 X43.57189018194536 Y-5.4987450531711985 E4.91457
G1 X43.60804769710747 Y-5.961917117838829 E4.91457
G1 X43.64420521226958 Y-6.425849691773644 E4.91457
G1 X43.68036272743169 Y-6.890542774975643 E5.95412
G1 X44.58664188492931 Y-6.921589678972851 E5.95412
G1 X45.49292104242692 Y-6.948086840153195 E5.95412
G1 X46.399200199924536 Y-6.970034258516676 E5.95412
G1 X47.30547935742215 Y-6.987431934063291 E5.95412
G1 X48.211758514919765 Y-7.000279866793043 E5.95412
G1 X49.11803767241738 Y-7.00857805670593 E5.95412
G1 X50.024316829914994 Y-7.012326503801953 E5.95412
G1 X50.93059598741261 Y-7.011525208081111 E5.95412
G1 X51.83687514491022 Y-7.0061741695434065 E5.95412
G1 X52.74315430240784 Y-6.996273388188836 E5.95412
G1 X53.64943345990545 Y-6.981822864017403 E5.95412
G1 X54.55571261740307 Y-6.962822597029104 E5.95412
G1 X55.46199177490068 Y-6.939272587223942 E5.95412
G1 X56.368270932398296 Y-6.911172834601916 E5.95412
G1 X57.27455008989591 Y-6.878523339163025 E6.15254
G1 X57.25758575033146 Y-6.702361225997459 E6.15254
G1 X57.240621410767005 Y-6.526302292565542 E6.15254
G1 X57.22365707120255 Y-6.350346538867275 E6.15254
G1 X57.2066927316381 Y-6.174493964902658 E6.15254
G1 X57.18972839207365 Y-5.998744570671691 E6.15254
G1 X57.172764052509194 Y-5.8230983561743725 E6.15254
G1 X57.15579971294474 Y-5.647555321410704 E6.15254
G1 X57.13883537338029 Y-5.472115466380686 E6.15254
G1 X57.121871033815836 Y-5.296778791084317 E6.15254
G1 X57.10490669425138 Y-5.1215452955215985 E6.15254
G1 X57.08794235468693 Y-4.946414979692529 E6.15254
G1 X57.07097801512248 Y-4.771387843597109 E6.15254
G1 X57.054013675558025 Y-4.596463887235339 E6.15254
G1 X57.03704933599357 Y-4.421643110607219 E6.15254
G1 X57.02008499642912 Y-4.246925513712749 F3600.000
G1 X57.04601340189393 Y-4.246934204399609 F3600.000
G1 X57.07194180735874 Y-4.246941147477449 F3600.000
G1 X57.09787021282355 Y-4.246946342946273 F3600.000
G1 X57.12379861828836 Y-4.2469497908060765 F3600.000
G1 X57.14972702375317 Y-4.246951491056861 F3600.000
G1 X57.17565542921798 Y-4.246951443698628 F3600.000
G1 X57.20158383468279 Y-4.246949648731376 F3600.000
G1 X57.227512240147604 Y-4.2469461061551055 F3600.000
G1 X57.253440645612415 Y-4.2469408159698165 F3600.000
G1 X57.279369051077225 Y-4.246933778175508 F3600.000
G1 X57.305297456542036 Y-4.246924992772182 F3600.000
G1 X57.331225862006846 Y-4.246914459759837 F3600.000
G1 X57.35715426747166 Y-4.246902179138473 F3600.000
G1 X57.38308267293647 Y-4.246888150908091 F3600.000
G1 X57.40901107840128 Y-4.24687237506869 E7.02318 F1500.000
G1 X57.39854367317453 Y-3.9630248385760765 E7.02318 F1500.000
G1 X57.38807626794778 Y-3.6792805465817535 E7.02318 F1500.000
G1 X57.37760886272103 Y-3.3956394990857213 E7.02318 F1500.000
G1 X57.367141457494284 Y-3.1121016960879793 E7.02318 F1500.000
G1 X57.356674052267536 Y-2.8286671375885284 E7.02318 F1500.000
G1 X57.34620664704079 Y-2.5453358235873678 E7.02318 F1500.000
G1 X57.33573924181404 Y-2.262107754084498 E7.02318 F1500.000
G1 X57.32527183658729 Y-1.9789829290799188 E7.02318 F1500.000
G1 X57.31480443136054 Y-1.6959613485736302 E7.02318 F1500.000
G1 X57.304337026133794 Y-1.4130430125656321 E7.02318 F1500.000
G1 X57.293869620907046 Y-1.1302279210559247 E7.02318 F1500.000
G1 X57.2834022156803 Y-0.847516074044508 E7.02318 F1500.000
G1 X57.27293481045355 Y-0.5649074715313818 E7.02318 F1500.000
G1 X57.2624674052268 Y-0.28240211351654615 E7.02318 F1500.000
G1 X57.25200000000005 Y-1.191796661359491e-15 E7.02318 F1500.000
G1 X57.28249804639284 Y0.48116174640375586 E7.02318 F1500.000
G1 X57.312996092785625 Y0.9628358480212249 E7.02318 F1500.000
G1 X57.34349413917841 Y1.4450223048524058 E7.02318 F1500.000
G1 X57.3739921855712 Y1.9277211168972985 E7.02318 F1500.000
G1 X57.40449023196398 Y2.410932284155903 E7.02318 F1500.000
G1 X57.43498827835677 Y2.89465580662822 E7.02318 F1500.000
G1 X57.465486324749556 Y3.3788916843142487 E7.02318 F1500.000
G1 X57.49598437114234 Y3.8636399172139892 E7.02318 F1500.000
G1 X57.52648241753513 Y4.348900505327442 E7.02318 F1500.000
G1 X57.556980463927914 Y4.834673448654606 E7.02318 F1500.000
G1 X57.5874785103207 Y5.3209587471954825 E7.02318 F1500.000
G1 X57.61797655671349 Y5.807756400950071 E7.02318 F1500.000
G1 X57.64847460310627 Y6.295066409918371 E7.02318 F1500.000
G1 X57.67897264949906 Y6.782888774100383 E7.02318 F1500.000
G1 X57.709470695891845 Y7.271223493496107 E8.12175 F1500.000
G1 X56.752757371584806 Y7.309771288507853 E8.12175 F1500.000
G1 X55.79604404727777 Y7.3429553143805535 E8.12175 F1500.000
G1 X54.83933072297073 Y7.370775571114209 E8.12175 F1500.000
G1 X53.88261739866369 Y7.393232058708819 E8.12175 F1500.000
G1 X52.92590407435665 Y7.4103247771643845 E8.12175 F1500.000
G1 X51.96919075004961 Y7.422053726480905 E8.12175 F1500.000
G1 X51.012477425742574 Y7.428418906658379 E8.12175 F1500.000
G1 X50.055764101435535 Y7.429420317696809 E8.12175 F1500.000
G1 X49.0990507771285 Y7.4250579595961925 E8.12175 F1500.000
G1 X48.14233745282146 Y7.415331832356531 E8.12175 F1500.000
G1 X47.18562412851442 Y7.400241935977825 E8.12175 F1500.000
G1 X46.22891080420738 Y7.379788270460074 E8.12175 F1500.000
G1 X45.27219747990034 Y7.353970835803278 E8.12175 F1500.000
G1 X44.3154841555933 Y7.322789632007436 E8.12175 F1500.000
G1 X43.358770831286265 Y7.2862446590725485 E9.22031
G1 X43.31805277586718 Y6.794108696343634 E9.22031
G1 X43.277334720448096 Y6.302885064870541 E9.22031
G1 X43.23661666502901 Y5.812573764653267 E9.22031
G1 X43.19589860960993 Y5.3231747956918145 E9.22031
G1 X43.15518055419084 Y4.834688157986182 E9.22031
G1 X43.11446249877176 Y4.3471138515363705 E9.22031
G1 X43.07374444335267 Y3.8604518763423803 E9.22031
G1 X43.03302638793359 Y3.37470223240421 E9.22031
G1 X42.992308332514504 Y2.8898649197218607 E9.22031
G1 X42.95159027709542 Y2.405939938295332 E9.22031
G1 X42.910872221676335 Y1.9229272881246244 E9.22031
G1 X42.87015416625725 Y1.4408269692097373 E9.22031
G1 X42.82943611083817 Y0.959638981550671 E9.22031
G1 X42.78871805541908 Y0.4793633251474253 E9.22031
G1 X42.748 Y4.449357549063393e-16 E9.22031
G1 X42.78871805541908 Y-0.47936332514742497 E9.22031
G1 X42.82943611083817 Y-0.9596389815506711 E9.22031
G1 X42.87015416625725 Y-1.4408269692097377 E9.22031
G1 X42.910872221676335 Y-1.9229272881246253 E9.22031
G1 X42.95159027709542 Y-2.4059399382953335 E9.22031
G1 X42.992308332514504 Y-2.8898649197218624 E9.22031
G1 X43.03302638793359 Y-3.3747022324042124 E9.22031
G1 X43.07374444335267 Y-3.860451876342383 E9.22031
G1 X43.11446249877176 Y-4.347113851536374 E9.22031
G1 X43.15518055419084 Y-4.834688157986187 E9.22031
G1 X43.19589860960993 Y-5.323174795691819 E9.22031
G1 X43.23661666502901 Y-5.812573764653272 E9.22031
G1 X43.277334720448096 Y-6.302885064870546 E9.22031
G1 X43.31805277586718 Y-6.794108696343641 E9.22031
G1 X43.358770831286265 Y-7.2862446590725565 E10.31888
G1 X44.3154841555933 Y-7.322789632007443 E10.31888
G1 X45.27219747990034 Y-7.353970835803284 E10.31888
G1 X46.22891080420738 Y-7.379788270460079 E10.31888
G1 X47.18562412851442 Y-7.40024193597783 E10.31888
G1 X48.14233745282146 Y-7.415331832356534 E10.31888
G1 X49.0990507771285 Y-7.425057959596194 E10.31888
G1 X50.055764101435535 Y-7.429420317696809 E10.31888
G1 X51.012477425742574 Y-7.4284189066583775 E10.31888
G1 X51.96919075004961 Y-7.422053726480901 E10.31888
G1 X52.92590407435665 Y-7.41032477716438 E10.31888
G1 X53.88261739866369 Y-7.393232058708813 E10.31888
G1 X54.83933072297073 Y-7.370775571114201 E10.31888
G1 X55.79604404727777 Y-7.342955314380545 E10.31888
G1 X56.752757371584806 Y-7.309771288507842 E10.31888
G1 X57.709470695891845 Y-7.271223493496095 E10.54112
G1 X57.68981284389792 Y-7.073683438184657 E10.54112
G1 X57.67015499190399 Y-6.876276318786651 E10.54112
G1 X57.650497139910065 Y-6.679002135302075 E10.54112
G1 X57.63083928791614 Y-6.481860887730929 E10.54112
G1 X57.61118143592221 Y-6.284852576073213 E10.54112
G1 X57.591523583928286 Y-6.087977200328928 E10.54112
G1 X57.57186573193436 Y-5.891234760498072 E10.54112
G1 X57.55220787994043 Y-5.694625256580648 E10.54112
G1 X57.532550027946506 Y-5.498148688576654 E10.54112
G1 X57.51289217595258 Y-5.3018050564860895 E10.54112
G1 X57.49323432395865 Y-5.105594360308955 E10.54112
G1 X57.473576471964726 Y-4.909516600045252 E10.54112
G1 X57.4539186199708 Y-4.713571775694978 E10.54112
G1 X57.43426076797687 Y-4.517759887258136 E10.54112
G1 X57.41460291598295 Y-4.322080934734723 F3600.000
G1 X57.38423824197733 Y-4.300215680003956 F3600.000
G1 X57.35387356797171 Y-4.278371146071465 F3600.000
G1 X57.32350889396609 Y-4.25654733293725 F3600.000
G1 X57.293144219960475 Y-4.2347442406013105 F3600.000
G1 X57.26277954595486 Y-4.212961869063647 F3600.000
G1 X57.23241487194924 Y-4.191200218324259 F3600.000
G1 X57.20205019794362 Y-4.169459288383147 F3600.000
G1 X57.171685523938 Y-4.147739079240312 F3600.000
G1 X57.141320849932384 Y-4.1260395908957515 F3600.000
G1 X57.110956175926766 Y-4.1043608233494675 F3600.000
G1 X57.08059150192115 Y-4.08270277660146 F3600.000
G1 X57.05022682791553 Y-4.061065450651728 F3600.000
G1 X57.01986215390991 Y-4.039448845500271 F3600.000
G1 X56.989497479904294 Y-4.017852961147091 F3600.000
G1 X56.959132805898676 Y-3.996277797592186 F3600.000
G1 X56.95907244902599 Y-4.017683457676334 F3600.000
G1 X56.9590120921533 Y-4.039089072386347 F3600.000
G1 X56.958951735280614 Y-4.060494641722227 F3600.000
G1 X56.95889137840793 Y-4.081900165683972 F3600.000
G1 X56.95883102153524 Y-4.103305644271584 F3600.000
G1 X56.95877066466255 Y-4.124711077485062 F3600.000
G1 X56.958710307789865 Y-4.146116465324406 F3600.000
G1 X56.95864995091718 Y-4.1675218077896155 F3600.000
G1 X56.95858959404449 Y-4.188927104880691 F3600.000
G1 X56.9585292371718 Y-4.210332356597633 F3600.000
G1 X56.958468880299115 Y-4.231737562940441 F3600.000
G1 X56.95840852342643 Y-4.253142723909115 F3600.000
G1 X56.95834816655374 Y-4.274547839503655 F3600.000
G1 X56.95828780968105 Y-4.295952909724061 F3600.000
G1 X56.958227452808366 Y-4.3173579345703335 F3600.000
G1 X56.960861407345 Y-4.458956584904831 F3600.000
G1 X56.963495361881634 Y-4.600568312237412 F3600.000
G1 X56.96612931641827 Y-4.742193116568076 F3600.000
G1 X56.9687632709549 Y-4.883830997896825 F3600.000
G1 X56.971397225491536 Y-5.025481956223659 F3600.000
G1 X56.97403118002817 Y-5.1671459915485745 F3600.000
G1 X56.976665134564804 Y-5.308823103871576 F3600.000
