; generated by Slic3r 1.2.9 on 2017-06-18 at 17:23:42

; external perimeters extrusion width = 0.40mm
; perimeters extrusion width = 0.40mm
; infill extrusion width = 0.40mm
; solid infill extrusion width = 0.40mm
; top infill extrusion width = 0.40mm
; support material extrusion width = 0.40mm

M107
M190 S77 ; set bed temperature
M104 S280 ; set temperature
G28 ; home all axes
G1 Z5 F5000 ; lift nozzle

M109 S280 ; wait for temperature to be reached
G21 ; set units to millimeters
G90 ; use absolute coordinates
M82 ; use absolute distances for extrusion
G92 E0
G1 Z0.496 F3600.000
G1 E-2.00000 F2400.00000
G92 E0
G1 X56.862 Y-4.168 F3600.000
G1 E2.00000 F2400.00000
G1 X56.862 Y6.862 E2.83546 F1500.000
G1 X43.138 Y6.862 E3.87501 F1500.000
G1 X43.138 Y-6.862 E4.91457
G1 X56.862 Y-6.862 E5.95412
G1 X56.862 Y-4.243 E6.15254
G1 X57.252 Y-4.243 F3600.000
G1 X57.252 Y7.252 E7.02318 F1500.000
G1 X42.748 Y7.252 E8.12175 F1500.000
G1 X42.748 Y-7.252 E9.22031
G1 X57.252 Y-7.252 E10.31888
G1 X57.252 Y-4.318 E10.54112
G1 X56.819 Y-3.993 F3600.000
G1 X56.634 Y-6.429 F3600.000
G1 X56.429 Y-6.634 E10.56331 F1500.000
G1 X55.873 Y-6.634 E10.60578
G1 X56.634 Y-5.873 E10.68805
G1 X56.634 Y-5.317 E10.73053
G1 X55.317 Y-6.634 E10.87286
G1 X54.761 Y-6.634 E10.91534
G1 X56.634 Y-4.761 E11.11775
G1 X56.634 Y-4.205 E11.16023
G1 X54.205 Y-6.634 E11.42272
G1 X53.649 Y-6.634 E11.46520
G1 X56.634 Y-3.649 E11.78776
G1 X56.634 Y-3.094 E11.83024
G1 X53.094 Y-6.634 E12.21288
G1 X52.538 Y-6.634 E12.25536
G1 X56.634 Y-2.538 E12.69807
G1 X56.634 Y-1.982 E12.74055
G1 X51.982 Y-6.634 E13.24334
G1 X51.426 Y-6.634 E13.28582
G1 X56.634 Y-1.426 E13.84869
G1 X56.634 Y-0.870 E13.89117
G1 X50.870 Y-6.634 E14.51411
G1 X50.314 Y-6.634 E14.55659
G1 X56.634 Y-0.314 E15.23960
G1 X56.634 Y0.242 E15.28208
G1 X49.758 Y-6.634 E16.02517
G1 X49.203 Y-6.634 E16.06765
G1 X56.634 Y0.797 E16.87082
G1 X56.634 Y1.353 E16.91330
G1 X48.647 Y-6.634 E17.77654
G1 X48.091 Y-6.634 E17.81902
G1 X56.634 Y1.909 E18.74233
G1 X56.634 Y2.465 E18.78481
G1 X47.535 Y-6.634 E19.76821
G1 X46.979 Y-6.634 E19.81069
G1 X56.634 Y3.021 E20.85415
G1 X56.634 Y3.577 E20.89663
G1 X46.423 Y-6.634 E22.00018
G1 X45.867 Y-6.634 E22.04266
G1 X56.634 Y4.133 E23.20627
G1 X56.634 Y4.688 E23.24875
G1 X45.312 Y-6.634 E24.47245
G1 X44.756 Y-6.634 E24.51493
G1 X56.634 Y5.244 E25.79870
G1 X56.634 Y5.800 E25.84118
G1 X44.200 Y-6.634 E27.18502
G1 X43.644 Y-6.634 E27.22750
G1 X56.634 Y6.356 E28.63142
G1 X56.356 Y6.634 E28.66146
G1 X43.366 Y-6.356 E30.06538
G1 X43.366 Y-5.800 E30.10786
G1 X55.800 Y6.634 E31.45170
G1 X55.244 Y6.634 E31.49418
G1 X43.366 Y-5.244 E32.77794
G1 X43.366 Y-4.688 E32.82042
G1 X54.688 Y6.634 E34.04411
G1 X54.133 Y6.634 E34.08659
G1 X43.366 Y-4.133 E35.25021
G1 X43.366 Y-3.577 E35.29269
G1 X53.577 Y6.634 E36.39623
G1 X53.021 Y6.634 E36.43871
G1 X43.366 Y-3.021 E37.48217
G1 X43.366 Y-2.465 E37.52465
G1 X52.465 Y6.634 E38.50804
G1 X51.909 Y6.634 E38.55052
G1 X43.366 Y-1.909 E39.47383
G1 X43.366 Y-1.353 E39.51631
G1 X51.353 Y6.634 E40.37955
G1 X50.797 Y6.634 E40.42203
G1 X43.366 Y-0.797 E41.22519
G1 X43.366 Y-0.242 E41.26767
G1 X50.242 Y6.634 E42.01076
G1 X49.686 Y6.634 E42.05324
G1 X43.366 Y0.314 E42.73625
G1 X43.366 Y0.870 E42.77873
G1 X49.130 Y6.634 E43.40166
G1 X48.574 Y6.634 E43.44414
G1 X43.366 Y1.426 E44.00701
G1 X43.366 Y1.982 E44.04948
G1 X48.018 Y6.634 E44.55227
G1 X47.462 Y6.634 E44.59475
G1 X43.366 Y2.538 E45.03746
G1 X43.366 Y3.094 E45.07994
G1 X46.906 Y6.634 E45.46257
G1 X46.351 Y6.634 E45.50505
G1 X43.366 Y3.649 E45.82761
G1 X43.366 Y4.205 E45.87009
G1 X45.795 Y6.634 E46.13258
G1 X45.239 Y6.634 E46.17506
G1 X43.366 Y4.761 E46.37746
G1 X43.366 Y5.317 E46.41994
G1 X44.683 Y6.634 E46.56228
G1 X44.127 Y6.634 E46.60476
G1 X43.366 Y5.873 E46.68701
G1 X43.366 Y6.429 E46.72949
G1 X43.571 Y6.634 E46.75168
G1 Z0.496 F3600.000
M104 S270 ; set temperature
M140 S30 ; wait for bed temperature to be reached
G1 Z0.896 F3600.000
G1 X54.415 Y6.986 F3600.000
G1 X43.014 Y6.986 E47.31329 F3000.000
G1 X43.014 Y-6.986 E48.00154
G1 X56.986 Y-6.986 E48.68978
G1 X56.986 Y6.986 E49.37803
G1 X54.490 Y6.986 E49.50097 F3000.000
G1 X54.490 Y7.300 F3600.000
G1 X42.700 Y7.300 E50.08175 F750.000
G1 X42.700 Y-7.300 E50.80095
G1 X57.300 Y-7.300 E51.52014
G1 X57.300 Y7.300 E52.23934
G1 X54.565 Y7.300 E52.37406 F750.000
G1 X54.240 Y6.867 F3600.000
G1 X56.632 Y6.805 F3600.000
G1 X56.805 Y6.632 E52.38623 F1200.000
G1 X56.805 Y6.184 E52.40847
G1 X56.184 Y6.805 E52.45210
G1 X55.736 Y6.805 E52.47435
G1 X56.805 Y5.736 E52.54944
G1 X56.805 Y5.288 E52.57168
G1 X55.288 Y6.805 E52.67823
G1 X54.840 Y6.805 E52.70048
G1 X56.805 Y4.840 E52.83849
G1 X56.805 Y4.393 E52.86073
G1 X54.393 Y6.805 E53.03020
G1 X53.945 Y6.805 E53.05244
G1 X56.805 Y3.945 E53.25337
G1 X56.805 Y3.497 E53.27562
G1 X53.497 Y6.805 E53.50800
G1 X53.049 Y6.805 E53.53025
G1 X56.805 Y3.049 E53.79409
G1 X56.805 Y2.601 E53.81634
G1 X52.601 Y6.805 E54.11164
G1 X52.153 Y6.805 E54.13389
G1 X56.805 Y2.153 E54.46065
G1 X56.805 Y1.705 E54.48290
G1 X51.705 Y6.805 E54.84112
G1 X51.257 Y6.805 E54.86337
G1 X56.805 Y1.257 E55.25305
G1 X56.805 Y0.809 E55.27530
G1 X50.809 Y6.805 E55.69644
G1 X50.361 Y6.805 E55.71868
G1 X56.805 Y0.361 E56.17128
G1 X56.805 Y-0.087 E56.19353
G1 X49.913 Y6.805 E56.67759
G1 X49.465 Y6.805 E56.69984
G1 X56.805 Y-0.535 E57.21536
G1 X56.805 Y-0.982 E57.23760
G1 X49.018 Y6.805 E57.78458
G1 X48.570 Y6.805 E57.80683
G1 X56.805 Y-1.430 E58.38527
G1 X56.805 Y-1.878 E58.40751
G1 X48.122 Y6.805 E59.01741
G1 X47.674 Y6.805 E59.03965
G1 X56.805 Y-2.326 E59.68101
G1 X56.805 Y-2.774 E59.70326
G1 X47.226 Y6.805 E60.37608
G1 X46.778 Y6.805 E60.39832
G1 X56.805 Y-3.222 E61.10260
G1 X56.805 Y-3.670 E61.12484
G1 X46.330 Y6.805 E61.86058
G1 X45.882 Y6.805 E61.88282
G1 X56.805 Y-4.118 E62.65002
G1 X56.805 Y-4.566 E62.67226
G1 X45.434 Y6.805 E63.47092
G1 X44.986 Y6.805 E63.49316
G1 X56.805 Y-5.014 E64.32328
G1 X56.805 Y-5.462 E64.34552
G1 X44.538 Y6.805 E65.20710
G1 X44.090 Y6.805 E65.22934
G1 X56.805 Y-5.910 E66.12238
G1 X56.805 Y-6.358 E66.14462
G1 X43.642 Y6.805 E67.06911
G1 X43.215 Y6.785 E67.09039
G1 X56.785 Y-6.785 E68.04353
G1 X56.358 Y-6.805 E68.06481
G1 X43.195 Y6.358 E68.98930
G1 X43.195 Y5.910 E69.01154
G1 X55.910 Y-6.805 E69.90457
G1 X55.462 Y-6.805 E69.92682
G1 X43.195 Y5.462 E70.78839
G1 X43.195 Y5.014 E70.81063
G1 X55.014 Y-6.805 E71.64075
G1 X54.566 Y-6.805 E71.66299
G1 X43.195 Y4.566 E72.46165
G1 X43.195 Y4.118 E72.48389
G1 X54.118 Y-6.805 E73.25109
G1 X53.670 Y-6.805 E73.27333
G1 X43.195 Y3.670 E74.00906
G1 X43.195 Y3.222 E74.03131
G1 X53.222 Y-6.805 E74.73559
G1 X52.774 Y-6.805 E74.75783
G1 X43.195 Y2.774 E75.43065
G1 X43.195 Y2.326 E75.45289
G1 X52.326 Y-6.805 E76.09425
G1 X51.878 Y-6.805 E76.11649
G1 X43.195 Y1.878 E76.72639
G1 X43.195 Y1.430 E76.74863
G1 X51.430 Y-6.805 E77.32707
G1 X50.982 Y-6.805 E77.34932
G1 X43.195 Y0.982 E77.89630
G1 X43.195 Y0.535 E77.91854
G1 X50.535 Y-6.805 E78.43406
G1 X50.087 Y-6.805 E78.45631
G1 X43.195 Y0.087 E78.94036
G1 X43.195 Y-0.361 E78.96261
G1 X49.639 Y-6.805 E79.41521
G1 X49.191 Y-6.805 E79.43746
G1 X43.195 Y-0.809 E79.85860
G1 X43.195 Y-1.257 E79.88084
G1 X48.743 Y-6.805 E80.27052
G1 X48.295 Y-6.805 E80.29277
G1 X43.195 Y-1.705 E80.65099
G1 X43.195 Y-2.153 E80.67323
G1 X47.847 Y-6.805 E81.00000
G1 X47.399 Y-6.805 E81.02224
G1 X43.195 Y-2.601 E81.31755
G1 X43.195 Y-3.049 E81.33979
G1 X46.951 Y-6.805 E81.60363
G1 X46.503 Y-6.805 E81.62588
G1 X43.195 Y-3.497 E81.85826
G1 X43.195 Y-3.945 E81.88051
G1 X46.055 Y-6.805 E82.08143
G1 X45.607 Y-6.805 E82.10368
G1 X43.195 Y-4.393 E82.27315
G1 X43.195 Y-4.841 E82.29539
G1 X45.159 Y-6.805 E82.43340
G1 X44.712 Y-6.805 E82.45564
G1 X43.195 Y-5.288 E82.56219
G1 X43.195 Y-5.736 E82.58443
G1 X44.264 Y-6.805 E82.65952
G1 X43.816 Y-6.805 E82.68177
G1 X43.195 Y-6.184 E82.72540
G1 X43.195 Y-6.632 E82.74764
G1 X43.368 Y-6.805 E82.75981
G1 Z1.296 F3600.000
G1 X56.986 Y-2.265 F3600.000
G1 X56.986 Y6.986 E83.21550 F3000.000
G1 X43.014 Y6.986 E83.90375 F3000.000
G1 X43.014 Y-6.986 E84.59200
G1 X56.986 Y-6.986 E85.28024
G1 X56.986 Y-2.340 E85.50910
G1 X57.300 Y-2.340 F3600.000
G1 X57.300 Y7.300 E85.98396 F750.000
G1 X42.700 Y7.300 E86.70316 F750.000
G1 X42.700 Y-7.300 E87.42236
G1 X57.300 Y-7.300 E88.14156
G1 X57.300 Y-2.415 E88.38219
G1 X56.867 Y-2.090 F3600.000
G1 X56.805 Y-6.632 F3600.000
G1 X56.632 Y-6.805 E88.39436 F1200.000
G1 X56.184 Y-6.805 E88.41661
G1 X56.805 Y-6.184 E88.46024
G1 X56.805 Y-5.736 E88.48248
G1 X55.736 Y-6.805 E88.55757
G1 X55.288 Y-6.805 E88.57982
G1 X56.805 Y-5.288 E88.68637
G1 X56.805 Y-4.840 E88.70861
G1 X54.840 Y-6.805 E88.84662
G1 X54.393 Y-6.805 E88.86887
G1 X56.805 Y-4.393 E89.03833
G1 X56.805 Y-3.945 E89.06058
G1 X53.945 Y-6.805 E89.26150
G1 X53.497 Y-6.805 E89.28375
G1 X56.805 Y-3.497 E89.51614
G1 X56.805 Y-3.049 E89.53838
G1 X53.049 Y-6.805 E89.80223
G1 X52.601 Y-6.805 E89.82447
G1 X56.805 Y-2.601 E90.11978
G1 X56.805 Y-2.153 E90.14202
G1 X52.153 Y-6.805 E90.46879
G1 X51.705 Y-6.805 E90.49103
G1 X56.805 Y-1.705 E90.84926
G1 X56.805 Y-1.257 E90.87150
G1 X51.257 Y-6.805 E91.26118
G1 X50.809 Y-6.805 E91.28343
G1 X56.805 Y-0.809 E91.70457
G1 X56.805 Y-0.361 E91.72682
G1 X50.361 Y-6.805 E92.17942
G1 X49.913 Y-6.805 E92.20166
G1 X56.805 Y0.087 E92.68572
G1 X56.805 Y0.535 E92.70797
G1 X49.465 Y-6.805 E93.22349
G1 X49.018 Y-6.805 E93.24574
G1 X56.805 Y0.982 E93.79272
G1 X56.805 Y1.430 E93.81496
G1 X48.570 Y-6.805 E94.39340
G1 X48.122 Y-6.805 E94.41565
G1 X56.805 Y1.878 E95.02554
G1 X56.805 Y2.326 E95.04779
G1 X47.674 Y-6.805 E95.68915
G1 X47.226 Y-6.805 E95.71139
G1 X56.805 Y2.774 E96.38421
G1 X56.805 Y3.222 E96.40645
G1 X46.778 Y-6.805 E97.11073
G1 X46.330 Y-6.805 E97.13298
G1 X56.805 Y3.670 E97.86871
G1 X56.805 Y4.118 E97.89096
G1 X45.882 Y-6.805 E98.65815
G1 X45.434 Y-6.805 E98.68040
G1 X56.805 Y4.566 E99.47905
G1 X56.805 Y5.014 E99.50130
G1 X44.986 Y-6.805 E100.33141
G1 X44.538 Y-6.805 E100.35366
G1 X56.805 Y5.462 E101.21523
G1 X56.805 Y5.910 E101.23748
G1 X44.090 Y-6.805 E102.13051
G1 X43.642 Y-6.805 E102.15276
G1 X56.805 Y6.358 E103.07725
G1 X56.785 Y6.785 E103.09852
G1 X43.215 Y-6.785 E104.05166
G1 X43.195 Y-6.358 E104.07294
G1 X56.358 Y6.805 E104.99743
G1 X55.910 Y6.805 E105.01968
G1 X43.195 Y-5.910 E105.91271
G1 X43.195 Y-5.462 E105.93495
G1 X55.462 Y6.805 E106.79652
G1 X55.014 Y6.805 E106.81877
G1 X43.195 Y-5.014 E107.64888
G1 X43.195 Y-4.566 E107.67113
G1 X54.566 Y6.805 E108.46978
G1 X54.118 Y6.805 E108.49203
G1 X43.195 Y-4.118 E109.25922
G1 X43.195 Y-3.670 E109.28146
G1 X53.670 Y6.805 E110.01720
G1 X53.222 Y6.805 E110.03944
G1 X43.195 Y-3.222 E110.74372
G1 X43.195 Y-2.774 E110.76596
G1 X52.774 Y6.805 E111.43878
G1 X52.326 Y6.805 E111.46103
G1 X43.195 Y-2.326 E112.10238
G1 X43.195 Y-1.878 E112.12463
G1 X51.878 Y6.805 E112.73452
G1 X51.430 Y6.805 E112.75677
G1 X43.195 Y-1.430 E113.33521
G1 X43.195 Y-0.982 E113.35745
G1 X50.982 Y6.805 E113.90443
G1 X50.535 Y6.805 E113.92668
G1 X43.195 Y-0.535 E114.44219
G1 X43.195 Y-0.087 E114.46444
G1 X50.087 Y6.805 E114.94850
G1 X49.639 Y6.805 E114.97074
G1 X43.195 Y0.361 E115.42334
G1 X43.195 Y0.809 E115.44559
G1 X49.191 Y6.805 E115.86673
G1 X48.743 Y6.805 E115.88898
G1 X43.195 Y1.257 E116.27866
G1 X43.195 Y1.705 E116.30090
G1 X48.295 Y6.805 E116.65912
G1 X47.847 Y6.805 E116.68137
G1 X43.195 Y2.153 E117.00813
G1 X43.195 Y2.601 E117.03038
G1 X47.399 Y6.805 E117.32568
G1 X46.951 Y6.805 E117.34792
G1 X43.195 Y3.049 E117.61177
G1 X43.195 Y3.497 E117.63401
G1 X46.503 Y6.805 E117.86640
G1 X46.055 Y6.805 E117.88864
G1 X43.195 Y3.945 E118.08957
G1 X43.195 Y4.393 E118.11181
G1 X45.607 Y6.805 E118.28128
G1 X45.159 Y6.805 E118.30352
G1 X43.195 Y4.841 E118.44153
G1 X43.195 Y5.288 E118.46378
G1 X44.712 Y6.805 E118.57032
G1 X44.264 Y6.805 E118.59257
G1 X43.195 Y5.736 E118.66766
G1 X43.195 Y6.184 E118.68990
G1 X43.816 Y6.805 E118.73353
G1 X43.368 Y6.805 E118.75577
G1 X43.195 Y6.632 E118.76794
G1 Z1.696 F3600.000
G1 X50.761 Y-6.986 F3600.000
G1 X56.986 Y-6.986 E119.07460 F3000.000
G1 X56.986 Y6.986 E119.76284
G1 X43.014 Y6.986 E120.45109 F3000.000
G1 X43.014 Y-6.986 E121.13933
G1 X50.686 Y-6.986 E121.51723
G1 X50.686 Y-7.300 F3600.000
G1 X57.300 Y-7.300 E121.84306 F750.000
G1 X57.300 Y7.300 E122.56225
G1 X42.700 Y7.300 E123.28145 F750.000
G1 X42.700 Y-7.300 E124.00065
G1 X50.611 Y-7.300 E124.39033
G1 X50.936 Y-6.867 F3600.000
G1 X53.137 Y-4.961 F3600.000
G1 X51.152 Y-5.493 E124.49159 F4800.000
G1 X49.313 Y-3.655 E124.61965
G1 X49.845 Y-1.669 E124.72091
G1 X48.007 Y0.169 E124.84898
G1 X46.021 Y-0.363 E124.95024
G1 X44.183 Y1.476 E125.07831
G1 X44.715 Y3.461 E125.17957
G1 X43.281 Y4.895 E125.27946
G1 X43.281 Y1.071 E125.46783
G1 X43.961 Y1.254 E125.50250
G1 X45.799 Y-0.585 E125.63056
G1 X45.267 Y-2.570 E125.73182
G1 X47.106 Y-4.409 E125.85989
G1 X49.091 Y-3.877 E125.96115
G1 X50.930 Y-5.715 E126.08921
G1 X50.661 Y-6.719 E126.14041
G1 X54.895 Y-6.719 E126.34901
G1 X53.137 Y-4.961 E126.47148
G1 X56.719 Y-6.169 F3600.000
G1 X56.719 Y-2.619 E126.64639 F4800.000
G1 X56.099 Y-1.999 E126.68956
G1 X54.114 Y-2.531 E126.79082
G1 X52.275 Y-0.693 E126.91889
G1 X52.807 Y1.293 E127.02015
G1 X50.969 Y3.131 E127.14821
G1 X48.983 Y2.599 E127.24947
G1 X47.145 Y4.438 E127.37754
G1 X47.677 Y6.423 E127.47880
G1 X47.381 Y6.719 E127.49940
G1 X43.420 Y6.719 E127.69455
G1 X43.281 Y6.202 E127.72092
G1 X43.281 Y5.340 E127.76339
G1 X44.937 Y3.683 E127.87876
G1 X46.923 Y4.215 E127.98003
G1 X48.761 Y2.377 E128.10809
G1 X48.229 Y0.392 E128.20935
G1 X50.068 Y-1.447 E128.33742
G1 X52.053 Y-0.915 E128.43868
G1 X53.891 Y-2.753 E128.56674
G1 X53.359 Y-4.739 E128.66800
G1 X55.198 Y-6.577 E128.79607
G1 X56.719 Y-6.169 E128.87364
G1 X56.719 Y-0.293 F3600.000
G1 X56.321 Y-1.777 E128.94930 F4800.000
G1 X56.719 Y-2.174 E128.97699
G1 X56.719 Y-0.293 E129.06965
G1 X56.719 Y0.788 F3600.000
G1 X55.237 Y2.269 E129.17287 F4800.000
G1 X55.769 Y4.255 E129.27413
G1 X53.931 Y6.093 E129.40219
G1 X51.945 Y5.561 E129.50345
G1 X50.788 Y6.719 E129.58410
G1 X50.343 Y6.719 E129.60598
G1 X51.723 Y5.339 E129.70211
G1 X51.191 Y3.353 E129.80337
G1 X53.029 Y1.515 E129.93143
G1 X55.015 Y2.047 E130.03269
G1 X56.719 Y0.343 E130.15139
G1 X56.719 Y0.788 E130.17327
G1 X56.719 Y4.672 F3600.000
G1 X56.719 Y6.719 E130.27410 F4800.000
G1 X54.261 Y6.719 E130.39517
G1 X54.153 Y6.315 E130.41574
G1 X55.991 Y4.477 E130.54381
G1 X56.719 Y4.672 E130.58090
G1 X48.174 Y6.719 F3600.000
G1 X47.826 Y6.719 E130.59804 F4800.000
G1 X47.899 Y6.645 E130.60316
G1 X48.174 Y6.719 E130.61715
G1 X46.351 Y-6.616 F3600.000
G1 X46.883 Y-4.631 E130.71841 F4800.000
G1 X45.045 Y-2.793 E130.84647
G1 X43.281 Y-3.265 E130.93643
G1 X43.281 Y-6.508 E131.09618
G1 X43.492 Y-6.719 E131.11085
G1 X46.454 Y-6.719 E131.25676
G1 X46.351 Y-6.616 E131.26389
G1 Z2.096 F3600.000
G1 X43.014 Y-0.104 F3600.000
G1 X43.014 Y-6.986 E131.60286 F3000.000
G1 X56.986 Y-6.986 E132.29111
G1 X56.986 Y6.986 E132.97936
G1 X43.014 Y6.986 E133.66760 F3000.000
G1 X43.014 Y-0.029 E134.01318
G1 X42.700 Y-0.029 F3600.000
G1 X42.700 Y-7.300 E134.37132 F750.000
G1 X57.300 Y-7.300 E135.09052
G1 X57.300 Y7.300 E135.80972
G1 X42.700 Y7.300 E136.52892 F750.000
G1 X42.700 Y0.046 E136.88627
G1 X43.133 Y-0.279 F3600.000
G1 X43.961 Y1.254 F3600.000
G1 X43.281 Y1.071 E136.92094 F4800.000
G1 X43.281 Y5.117 E137.12025
G1 X44.634 Y3.765 E137.21448
G1 X43.961 Y1.254 E137.34255
G1 X43.582 Y6.719 F3600.000
G1 X43.281 Y5.595 E137.39987 F4800.000
G1 X43.281 Y6.719 E137.45524
G1 X43.582 Y6.719 E137.47008
G1 X46.802 Y-4.327 F3600.000
G1 X46.161 Y-6.719 E137.59203 F4800.000
G1 X43.281 Y-6.719 E137.73391
G1 X43.281 Y-3.265 E137.90404
G1 X45.045 Y-2.793 E137.99399
G1 X45.718 Y-0.281 E138.12206
G1 X44.264 Y1.172 E138.22332
G1 X44.937 Y3.683 E138.35138
G1 X46.923 Y4.215 E138.45265
G1 X47.594 Y6.719 E138.58031
G1 X48.174 Y6.719 E138.60888
G1 X47.899 Y6.645 E138.62286
G1 X47.226 Y4.134 E138.75093
G1 X48.680 Y2.681 E138.85219
G1 X48.007 Y0.169 E138.98026
G1 X46.021 Y-0.363 E139.08152
G1 X45.349 Y-2.874 E139.20958
G1 X46.802 Y-4.327 E139.31084
G1 X50.848 Y-5.412 F3600.000
G1 X50.498 Y-6.719 E139.37751 F4800.000
G1 X46.487 Y-6.719 E139.57511
G1 X47.106 Y-4.409 E139.69292
