; generated by Slic3r 1.2.9 on 2017-06-18 at 17:47:18

; external perimeters extrusion width = 0.40mm
; perimeters extrusion width = 0.40mm
; infill extrusion width = 0.40mm
; solid infill extrusion width = 0.40mm
; top infill extrusion width = 0.40mm
; support material extrusion width = 0.40mm

M107
M190 S77 ; set bed temperature
M104 S280 ; set temperature
G1 X3 Y0
G1 Z5 F5000 ; lift nozzle

M109 S280 ; wait for temperature to be reached
G21 ; set units to millimeters
G90 ; use absolute coordinates
M82 ; use absolute distances for extrusion
G92 E0
G1 Z0.496 F3600.000
G1 E-2.00000 F2400.00000
G92 E0
G1 X18.2694933700965 Y-2.193264483853816 F3600.000
G1 E2.00000 F2400.00000
G1 X19.392629733999463 Y-7.013920680491704 E2.35409 F1500.000
G1 X32.59254650990008 Y-6.913733627234104 E3.39364
G1 X31.862 Y0.0 E4.43319
G1 X32.59254650990008 Y6.913733627234104 E4.43319
G1 X19.392629733999463 Y7.013920680491704 E5.47275 F1500.000
G1 X18.138 Y0.0 E6.15254
G1 X18.26066299453555 Y-2.117743992346831 E6.15254
G1 X17.873339727090737 Y-2.1179531497502464 F3600.000
G1 X19.172454407300076 Y-7.437113699994538 E6.54181 F1500.000
G1 X33.05726861070043 Y-7.311465602249949 E7.64037
G1 X32.252 Y0.0 E8.73894
G1 X33.05726861070043 Y7.311465602249949 E8.73894
G1 X19.172454407300076 Y7.437113699994538 E9.83751 F1500.000
G1 X17.748 Y0.0 E10.54112
G1 X17.864628403636054 Y-2.042446610340593 E10.54112
G1 X18.333917475542428 Y-2.369591678391804 F3600.000
G1 X18.266277420455737 Y-0.7913072404486432 F3600.000
G1 X19.720344748507824 Y6.765962974956479 F3600.000
G1 X19.45872547213717 Y6.552112356348689 E10.56330 F1500.000
G1 X19.282170132015743 Y5.967820879540332 E10.60578
G1 X20.24480390124834 Y6.758859383797898 E10.68804
G1 X20.77090380797138 Y6.752303824605343 E10.73052
G1 X19.120158079890448 Y5.3880282048716275 E10.87285
G1 X18.97306187730383 Y4.812436546652981 E10.91533
G1 X21.29852288305459 Y6.746242343628009 E11.11774
G1 X21.827550962029616 Y6.740627349922441 E11.16022
G1 X18.841230878050403 Y4.2407147208760065 E11.42270
G1 X18.724987503333615 Y3.672499332698963 E11.46518
G1 X22.35788802637673 Y6.73541675170474 E11.78774
G1 X22.888486013714402 Y6.730581626223465 E11.83022
G1 X18.62478971693372 Y3.1084104049350207 E12.21286
G1 X18.540533972893012 Y2.545994051584526 E12.25534
G1 X23.42117418064261 Y6.726071414608109 E12.69805
G1 X23.954921832475264 Y6.7218655730811125 E12.74052
G1 X18.472635978657728 Y1.9858226225656954 E13.24331
G1 X18.421276611570654 Y1.4274280440096947 E13.28579
G1 X24.489659695471477 Y6.717937684218329 E13.84865
G1 X25.02532429360307 Y6.714264097927111 E13.89113
G1 X18.386594464446098 Y0.8703249689229287 E14.51407
G1 X18.368684002943706 Y0.3140152946210947 E14.55655
G1 X25.561857366005313 Y6.71082359531026 E15.23956
G1 X26.09920535188763 Y6.707597098582359 E15.28204
G1 X18.367594289944453 Y-0.24200700203406114 E16.02512
G1 X18.383284934961978 Y-0.7972498878103341 E16.06760
G1 X26.636350444458415 Y6.704572701959904 E16.87077
G1 X27.175182888069035 Y6.7017240132614315 E16.91325
G1 X18.41576946532509 Y-1.354220167401236 E17.77648
G1 X18.464946168348284 Y-1.91241717825574 E17.81896
G1 X27.71469352166825 Y6.699042619119369 E18.74228
G1 X28.254843496292807 Y6.696515802840435 E18.78476
G1 X18.53068215150214 Y-2.4723282076849973 E19.76815
G1 X18.61280196531409 Y-3.034423841048719 E19.81063
G1 X28.795596833543843 Y6.6941320215823 E20.85409
G1 X29.33692016896116 Y6.691880779957488 E20.89657
G1 X18.711089893429513 Y-3.5991538043086453 E22.00011
G1 X18.825292693607715 Y-4.166943300861325 E22.04259
G1 X29.878782522050656 Y6.68975251907964 E23.20620
G1 X30.420179157920813 Y6.6877420435583 E23.24868
G1 X18.95487536229136 Y-4.737159157882014 E24.47237
G1 X19.09998670156605 Y-5.312223132496856 E24.51485
G1 X30.963034282834748 Y6.685834152593843 E25.79862
G1 X31.506347868326472 Y6.684025277448442 E25.84110
G1 X19.260061162935077 Y-5.891446525952301 E27.18494
G1 X19.43472901792047 Y-6.47513155537854 E27.22742
G1 X32.050096598918394 Y6.682308736296496 E28.63134
G1 X32.26621595415242 Y6.3978407219952 E28.66137
G1 X19.78910538655045 Y-6.764996957708316 E30.06529
G1 X20.313787337667982 Y-6.757968648306288 E30.10777
G1 X32.16131147823422 Y5.831907971197696 E31.45162
G1 X32.06570585532151 Y5.267661080992455 E31.49410
G1 X20.840093377909806 Y-6.751480889625423 E32.77787
G1 X21.367903500343687 Y-6.745480617882939 E32.82035
G1 X31.979482484868328 Y4.704955176658064 E34.04404
G1 X31.902846973271835 Y4.14464894561383 E34.08652
G1 X21.89615594116922 Y-6.739930639567342 E35.25014
G1 X22.426655680239083 Y-6.734769585728072 E35.29262
G1 X31.835591481861933 Y3.5845693495706388 E36.39616
G1 X31.77792310708804 Y3.0255690096502676 E36.43864
G1 X22.95836224559583 Y-6.729971084043698 E37.48211
G1 X23.491193690402365 Y-6.725502449133906 E37.52459
G1 X31.729894122105105 Y2.4674862477706285 E38.50798
G1 X31.69154835283376 Y1.9101563510434831 E38.55046
G1 X24.025075171578546 Y-6.721334544748602 E39.47378
G1 X24.559938212462995 Y-6.717441337809698 E39.51626
G1 X31.662920980225437 Y1.3534120949387485 E40.37950
G1 X31.64403838008038 Y0.7970842876433875 E40.42198
G1 X25.09572005342744 Y-6.713799515529603 E41.22514
G1 X25.631397152710967 Y-6.710394095970065 E41.26762
G1 X31.63492563607507 Y0.24200236032957698 E42.01071
G1 X31.634 Y0.0 E42.05319
G1 X31.635558348162593 Y-0.31400515591726813 E42.05319
G1 X26.168846974981534 Y-6.707194017730328 E42.73621
G1 X26.707056296042815 Y-6.704188658544278 E42.77869
G1 X31.645961132504727 Y-0.8701096270365406 E43.40163
G1 X31.666124360268654 Y-1.4264824075743374 E43.44411
G1 X27.245980107164435 Y-6.701362705251603 E44.00697
G1 X27.78557683403388 Y-6.6987023050043115 E44.04945
G1 X31.696029404327604 Y-1.983293943354214 E44.55224
G1 X31.735648725053665 Y-2.5407131995805994 E44.59472
G1 X28.325808020248953 Y-6.696194903047085 E45.03743
G1 X28.866638044635547 Y-6.693829100916123 E45.07991
G1 X31.78494599649337 Y-3.098907101648859 E45.46255
G1 X31.843761665356062 Y-3.657033418812825 E45.50503
G1 X29.407059645602107 Y-6.691598439183292 E45.82759
G1 X29.948989649068295 Y-6.689485449367126 E45.87007
G1 X31.91225440171847 Y-4.21726442066077 E46.13256
G1 X31.99026534744593 Y-4.7787530202389 E46.17504
G1 X30.491426286744936 Y-6.687485647859848 E46.37745
G1 X31.03434299288451 Y-6.685591159242351 E46.41993
G1 X32.077725059611076 Y-5.341652810515636 E46.56227
G1 X32.174556484899675 Y-5.906112892175977 E46.60475
G1 X31.577715005997508 Y-6.6837947757418545 E46.68701
G1 X32.121519219987086 Y-6.682089890992791 E46.72949
G1 X32.28067528723648 Y-6.472277476690445 E46.75168
G1 Z0.496 F3600.000
M104 S270 ; set temperature
M140 S30 ; wait for bed temperature to be reached
G1 Z0.896 F3600.000
G1 X32.173527059870494 Y-3.8286591592834007 F3600.000
G1 X32.17529208880628 Y-3.4918503833903847 F3600.000
G1 X31.986 Y0.0 E47.26748 F3000.000
G1 X32.74001209529404 Y7.040128848788705 E47.26748 F3000.000
G1 X19.321190232488263 Y7.147938831007261 E47.95572 F3000.000
G1 X18.014 Y0.0 E48.64397
G1 X19.321190232488263 Y-7.147938831007261 E48.64397
G1 X32.74001209529404 Y-7.040128848788705 E49.33222
G1 X32.18350192256896 Y-3.567300192838373 E49.50097
G1 X32.49559354743347 Y-3.567159881839968 F3600.000
G1 X32.3 Y0.0 E50.03594 F750.000
G1 X33.1146493262423 Y7.360457471098075 E50.03594 F750.000
G1 X19.14627901186024 Y7.489550009083527 E50.75514 F750.000
G1 X17.7 Y0.0 E51.47433
G1 X19.14627901186024 Y-7.489550009083527 E51.47433
G1 X33.1146493262423 Y-7.360457471098075 E52.19353
G1 X32.50389553576617 Y-3.6426198558200844 E52.37406
G1 X32.038442362262245 Y-3.3159167635735782 F3600.000
G1 X31.78152325275696 Y0.7382416834814604 F3600.000
G1 X32.35570195498778 Y6.856194270339359 F3600.000
G1 X32.48909738666188 Y6.678943893856613 E52.38623 F1200.000
G1 X32.40061544168567 Y6.222174014919379 E52.40847
G1 X31.91786147284934 Y6.857638375091706 E52.45210
G1 X31.48030687588671 Y6.859143910865669 E52.47435
G1 X32.318102063704174 Y5.766550189684957 E52.54944
G1 X32.24160307739056 Y5.311999383610675 E52.57168
G1 X31.04305025283437 Y6.860714379719587 E52.67823
G1 X30.606104374781182 Y6.862353534452891 E52.70048
G1 X32.17116138718029 Y4.858446427632704 E52.83849
G1 X32.1069536705057 Y4.4068235132297024 E52.86073
G1 X30.170456973668795 Y6.864061494996346 E53.03020
G1 X29.7341731009961 Y6.86585021622116 E53.05244
G1 X32.04872930398333 Y3.9550310432995177 E53.25337
G1 X31.996672233218256 Y3.503999561460102 E53.27562
G1 X29.29824284833478 Y6.867720602963017 E53.50800
G1 X28.8626822384892 Y6.869677649681294 E53.53025
G1 X31.95081260312482 Y3.053646681889254 E53.79409
G1 X31.91117713278531 Y2.60388858872996 E53.81634
G1 X28.427508262244864 Y6.871726734241111 E54.11164
G1 X27.992738951378083 Y6.873873653357994 E54.13389
G1 X31.877789038764906 Y2.154640202379656 E54.46065
G1 X31.85066796787785 Y1.7058153525459723 E54.48290
G1 X27.558393458255146 Y6.876124661875903 E54.84112
G1 X27.12449214271117 Y6.878486516353213 E54.86337
G1 X31.829829939853592 Y1.2573269572040378 E55.25305
G1 X31.81528730029009 Y0.8090872065307242 E55.27530
G1 X26.691056666981172 Y6.88096652349743 E55.69644
G1 X26.25811009954829 Y6.883572594065663 E55.71868
G1 X31.80704868421464 Y0.3610077508402167 E56.17128
G1 X31.805 Y0.0 E56.19353
G1 X31.80511899050214 Y-0.08700010849604829 E56.19353
G1 X25.82567702887961 Y6.88631330293629 E56.67759
G1 X25.39378368813911 Y6.88919795615947 E56.69984
G1 X31.809499367327362 Y-0.5350252261931274 E57.21536
G1 X31.820156332111257 Y-0.9821559426069231 E57.23760
G1 X24.96342021839155 Y6.892229703541051 E57.78458
G1 X24.5326909449412 Y6.895433090658095 E57.80683
G1 X31.837131230687223 Y-1.4304812642238296 E58.38527
G1 X31.86039718835909 Y-1.8790892135667632 E58.40751
G1 X24.102591333713477 Y6.898813495013706 E59.01741
G1 X23.67315570429933 Y6.902383990354872 E59.03965
G1 X31.889940435817685 Y-2.328067341488894 E59.68101
G1 X31.925743546548762 Y-2.777502399488272 E59.70326
G1 X23.244420857487498 Y6.906158859017956 E60.37608
G1 X22.816426297735585 Y6.910153725990539 E60.39832
G1 X31.967785487893902 Y-3.22748015758244 E61.10260
G1 X32.01604168225673 Y-3.678085227523578 E61.12484
G1 X22.389214479297838 Y6.914385710287729 E61.86058
G1 X21.96283107889327 Y6.918873596186778 E61.88282
G1 X32.07048407804285 Y-4.129400892256737 E62.65002
G1 X32.131081229862154 Y-4.581508942460856 E62.67226
G1 X21.537325298188726 Y6.923638027280795 E63.47092
G1 X21.112750199820013 Y6.928701726804341 E63.49316
G1 X32.19779838746743 Y-5.034489520942025 E64.32328
G1 X32.27059759285533 Y-5.488420975571885 E64.34552
G1 X20.68916308118818 Y6.934089748264858 E65.20710
G1 X20.2666258908581 Y6.939829761102158 E65.22934
G1 X32.34943778491366 Y-5.943379721382521 E66.12238
G1 X32.43427491096418 Y-6.399440112343609 E66.14462
G1 X19.8452056930635 Y6.945952376914116 E67.06911
G1 X19.437655465616217 Y6.93094062676909 E67.09039
G1 X32.501114596271925 Y-6.835275905171944 E68.04353
G1 X32.087882276647676 Y-6.85707038355826 E68.06481
G1 X19.27387322257776 Y6.479353237535033 E68.98930
G1 X19.130763837338016 Y6.008286511543682 E69.01154
G1 X31.650215244133804 Y-6.85855165713337 E69.90457
G1 X31.212841411829203 Y-6.860096474955639 E69.92682
G1 X18.997143706357544 Y5.54019900090603 E70.78839
G1 X18.87321437911412 Y5.074936661956488 E70.81063
G1 X30.775773280293052 Y-6.861708489981269 E71.64075
G1 X30.339024061429527 Y-6.863391618893281 E71.66299
G1 X18.759167918647137 Y4.612330838429748 E72.46165
G1 X18.655185579350317 Y4.152198584998577 E72.48389
G1 X29.902607729092793 Y-6.865150065045629 E73.25109
G1 X29.466539074007322 Y-6.866988343744526 E73.27333
G1 X18.561436501521104 Y3.6943431643703657 E74.00906
G1 X18.478076442097535 Y3.2385547222604103 E74.03131
G1 X29.0308337634316 Y-6.868911310139835 E74.73559
G1 X28.595508406041677 Y-6.87092419003527 E74.75783
G1 X18.405246561782324 Y2.7846111407578 E75.43065
G1 X18.34307228901418 Y2.33227906644306 E75.45289
G1 X28.160580622565295 Y-6.873032613967305 E76.09425
G1 X27.726069122758823 Y-6.8752426549499965 E76.11649
G1 X18.291662280941008 Y1.8813151052414923 E76.72639
G1 X18.251107500642256 Y1.4314671715637823 E76.74863
G1 X27.291993789388126 Y-6.877560870337134 E77.32707
G1 X26.858375769953028 Y-6.879994348315856 E77.34932
G1 X18.221480428329635 Y0.9824759749749887 E77.89630
G1 X18.20286378567944 Y0.5350770547705691 E77.91854
G1 X26.426203851480444 Y-6.882544910409473 E78.43406
G1 X25.99356831987482 Y-6.885232263190069 E78.45631
G1 X18.195207995513545 Y0.08700033151022375 E78.94036
G1 X18.195 Y0.0 E78.96261
G1 X18.19858087873887 Y-0.3610236794833243 E78.96261
G1 X25.561462125629667 Y-6.888059854481309 E79.41521
G1 X25.12991257445994 Y-6.891037473917112 E79.43746
G1 X18.212976308116144 Y-0.80926626761404 E79.85860
G1 X18.23836818358485 Y-1.2579972695925072 E79.88084
G1 X24.69894884402978 Y-6.894175767448801 E80.27052
G1 X24.26860214351045 Y-6.897486327349166 E80.29277
G1 X18.27471066802427 Y-1.7074832906121014 E80.65099
G1 X18.321938598303404 Y-2.157985979826779 E80.67323
G1 X23.838905889323026 Y-6.9009817932515345 E81.00000
G1 X23.40989589895692 Y-6.904675965766732 E81.02224
G1 X18.379968063084334 Y-2.6097603881475258 E81.31755
G1 X18.448697135570303 Y-3.063053433816837 E81.33979
G1 X22.981610605003297 Y-6.908583934462411 E81.60363
G1 X22.554091291825525 Y-6.912722222272367 E81.62588
G1 X18.52800674654454 Y-3.5181024979458257 E81.85826
G1 X18.61776168071769 Y-3.9751341683651042 E81.88051
G1 X22.12738235761293 Y-6.917108948736085 E82.08143
G1 X21.70153160493517 Y-6.921764014860154 E82.10368
G1 X18.717811677650783 Y-4.434363145927016 E82.27315
G1 X18.827992617376925 Y-4.8959913229895875 E82.29539
G1 X21.276590563339795 Y-6.926709312854559 E82.43340
G1 X20.85356010373289 Y-6.931956854945025 E82.45564
G1 X18.94784866416238 Y-5.359167830298294 E82.56219
G1 X19.077728402511656 Y-5.826138959949989 E82.58443
G1 X20.430607455482082 Y-6.937556690506902 E82.65952
G1 X20.00874511307493 Y-6.943526867578842 E82.68177
G1 X19.217176717717926 Y-6.2960312246851835 E82.72540
G1 X19.365986910044114 Y-6.768989643131798 E82.74764
G1 X19.588043521495454 Y-6.9498999778707775 E82.75981
G1 Z1.296 F3600.000
G1 X18.01438647303871 Y0.11800084384796165 F3600.000
G1 X18.014 Y0.0 E83.10974 F3000.000
G1 X19.321190232488263 Y-7.147938831007261 E83.10974 F3000.000
G1 X32.74001209529404 Y-7.040128848788705 E83.79799
G1 X31.986 Y0.0 E84.48623
G1 X32.74001209529404 Y7.040128848788705 E84.48623
G1 X19.321190232488263 Y7.147938831007261 E85.17448 F3000.000
G1 X18.015033860639843 Y0.19300369209564222 E85.50910
G1 X17.70105220036368 Y0.19300382424533385 F3600.000
G1 X17.7 Y0.0 E85.87820 F750.000
G1 X19.14627901186024 Y-7.489550009083527 E85.87820 F750.000
G1 X33.1146493262423 Y-7.360457471098075 E86.59740
G1 X32.3 Y0.0 E87.31659
G1 X33.1146493262423 Y7.360457471098075 E87.31659
G1 X19.14627901186024 Y7.489550009083527 E88.03579 F750.000
G1 X17.702028810280474 Y0.26801023886561887 E88.38219
G1 X18.13308958782259 Y-0.05700009387104083 F3600.000
G1 X19.365986910044114 Y6.768989643131798 F3600.000
G1 X19.588043521495454 Y6.9498999778707775 E88.39436 F1200.000
G1 X20.00874511307493 Y6.943526867578842 E88.41661
G1 X19.217176717717926 Y6.2960312246851835 E88.46024
G1 X19.077728402511656 Y5.826138959949989 E88.48248
G1 X20.430607455482082 Y6.937556690506902 E88.55757
G1 X20.85356010373289 Y6.931956854945025 E88.57981
G1 X18.94784866416238 Y5.359167830298294 E88.68636
G1 X18.827992617376925 Y4.8959913229895875 E88.70861
G1 X21.276590563339795 Y6.926709312854559 E88.84661
G1 X21.70153160493517 Y6.921764014860154 E88.86886
G1 X18.717811677650783 Y4.434363145927016 E89.03832
G1 X18.61776168071769 Y3.9751341683651042 E89.06057
G1 X22.12738235761293 Y6.917108948736085 E89.26149
G1 X22.554091291825525 Y6.912722222272367 E89.28374
G1 X18.52800674654454 Y3.5181024979458257 E89.51612
G1 X18.448697135570303 Y3.063053433816837 E89.53837
G1 X22.981610605003297 Y6.908583934462411 E89.80221
G1 X23.40989589895692 Y6.904675965766732 E89.82446
G1 X18.379968063084334 Y2.6097603881475258 E90.11976
G1 X18.321938598303404 Y2.157985979826779 E90.14200
