; generated by Slic3r 1.2.9 on 2017-06-18 at 18:00:07

; external perimeters extrusion width = 0.40mm
; perimeters extrusion width = 0.40mm
; infill extrusion width = 0.40mm
; solid infill extrusion width = 0.40mm
; top infill extrusion width = 0.40mm
; support material extrusion width = 0.40mm

M107
M190 S77 ; set bed temperature
M104 S280 ; set temperature
G28 ; home all axes
G1 Z5 F5000 ; lift nozzle

M109 S280 ; wait for temperature to be reached
G21 ; set units to millimeters
G90 ; use absolute coordinates
M82 ; use absolute distances for extrusion
G92 E0
G1 Z0.496 F3600.000
G1 E-2.00000 F2400.00000
G92 E0
G1 X25.638 Y3.311 F3600.000
G1 E2.00000 F2400.00000
G1 X25.638 Y-24.362 E4.09606 F1500.000
G1 X74.362 Y-24.362 E7.78659
G1 X74.362 Y24.362 E11.47713
G1 X25.638 Y24.362 E15.16766 F1500.000
G1 X25.638 Y3.386 E16.75645
G1 X25.248 Y3.386 F3600.000
G1 X25.248 Y-24.752 E18.88770 F1500.000
G1 X74.752 Y-24.752 E22.63725
G1 X74.752 Y24.752 E26.38679
G1 X25.248 Y24.752 E30.13634 F1500.000
G1 X25.248 Y3.461 E31.74896
G1 X25.681 Y3.136 F3600.000
G1 X25.866 Y23.929 F3600.000
G1 X26.071 Y24.134 E31.77099 F1500.000
G1 X26.624 Y24.134 E31.81295
G1 X25.866 Y23.376 E31.89433
G1 X25.866 Y22.824 E31.93629
G1 X27.176 Y24.134 E32.07701
G1 X27.729 Y24.134 E32.11896
G1 X25.866 Y22.271 E32.31902
G1 X25.866 Y21.719 E32.36098
G1 X28.281 Y24.134 E32.62038
G1 X28.833 Y24.134 E32.66233
G1 X25.866 Y21.167 E32.98107
G1 X25.866 Y20.614 E33.02303
G1 X29.386 Y24.134 E33.40110
G1 X29.938 Y24.134 E33.44306
G1 X25.866 Y20.062 E33.88048
G1 X25.866 Y19.509 E33.92244
G1 X30.491 Y24.134 E34.41919
G1 X31.043 Y24.134 E34.46115
G1 X25.866 Y18.957 E35.01724
G1 X25.866 Y18.404 E35.05920
G1 X31.596 Y24.134 E35.67464
G1 X32.148 Y24.134 E35.71660
G1 X25.866 Y17.852 E36.39137
G1 X25.866 Y17.299 E36.43333
G1 X32.701 Y24.134 E37.16744
G1 X33.253 Y24.134 E37.20940
G1 X25.866 Y16.747 E38.00285
G1 X25.866 Y16.195 E38.04481
G1 X33.805 Y24.134 E38.89761
G1 X34.358 Y24.134 E38.93957
G1 X25.866 Y15.642 E39.85170
G1 X25.866 Y15.090 E39.89366
G1 X34.910 Y24.134 E40.86513
G1 X35.463 Y24.134 E40.90709
G1 X25.866 Y14.537 E41.93790
G1 X25.866 Y13.985 E41.97986
G1 X36.015 Y24.134 E43.07001
G1 X36.568 Y24.134 E43.11197
G1 X25.866 Y13.432 E44.26146
G1 X25.866 Y12.880 E44.30342
G1 X37.120 Y24.134 E45.51225
G1 X37.673 Y24.134 E45.55421
G1 X25.866 Y12.327 E46.82238
G1 X25.866 Y11.775 E46.86434
G1 X38.225 Y24.134 E48.19185
G1 X38.777 Y24.134 E48.23381
G1 X25.866 Y11.223 E49.62066
G1 X25.866 Y10.670 E49.66262
G1 X39.330 Y24.134 E51.10881
G1 X39.882 Y24.134 E51.15077
G1 X25.866 Y10.118 E52.65630
G1 X25.866 Y9.565 E52.69826
G1 X40.435 Y24.134 E54.26312
G1 X40.987 Y24.134 E54.30508
G1 X25.866 Y9.013 E55.92929
G1 X25.866 Y8.460 E55.97125
G1 X41.540 Y24.134 E57.65480
G1 X42.092 Y24.134 E57.69676
G1 X25.866 Y7.908 E59.43965
G1 X25.866 Y7.355 E59.48161
G1 X42.645 Y24.134 E61.28383
G1 X43.197 Y24.134 E61.32579
G1 X25.866 Y6.803 E63.18736
G1 X25.866 Y6.251 E63.22932
G1 X43.749 Y24.134 E65.15023
G1 X44.302 Y24.134 E65.19219
G1 X25.866 Y5.698 E67.17243
G1 X25.866 Y5.146 E67.21439
G1 X44.854 Y24.134 E69.25398
G1 X45.407 Y24.134 E69.29594
G1 X25.866 Y4.593 E71.39487
G1 X25.866 Y4.041 E71.43682
G1 X45.959 Y24.134 E73.59509
G1 X46.512 Y24.134 E73.63705
G1 X25.866 Y3.488 E75.85466
G1 X25.866 Y2.936 E75.89662
G1 X47.064 Y24.134 E78.17356
G1 X47.617 Y24.134 E78.21552
G1 X25.866 Y2.383 E80.55180
G1 X25.866 Y1.831 E80.59376
G1 X48.169 Y24.134 E82.98939
G1 X48.721 Y24.134 E83.03135
G1 X25.866 Y1.279 E85.48631
G1 X25.866 Y0.726 E85.52827
G1 X49.274 Y24.134 E88.04258
G1 X49.826 Y24.134 E88.08454
G1 X25.866 Y0.174 E90.65818
G1 X25.866 Y-0.379 E90.70014
G1 X50.379 Y24.134 E93.33312
G1 X50.931 Y24.134 E93.37508
G1 X25.866 Y-0.931 E96.06740
G1 X25.866 Y-1.484 E96.10936
G1 X51.484 Y24.134 E98.86103
G1 X52.036 Y24.134 E98.90299
G1 X25.866 Y-2.036 E101.71399
G1 X25.866 Y-2.589 E101.75595
G1 X52.589 Y24.134 E104.62629
G1 X53.141 Y24.134 E104.66825
G1 X25.866 Y-3.141 E107.59793
G1 X25.866 Y-3.693 E107.63989
G1 X53.693 Y24.134 E110.62891
G1 X54.246 Y24.134 E110.67087
G1 X25.866 Y-4.246 E113.71923
G1 X25.866 Y-4.798 E113.76119
G1 X54.798 Y24.134 E116.86889
G1 X55.351 Y24.134 E116.91085
G1 X25.866 Y-5.351 E120.07790
G1 X25.866 Y-5.903 E120.11985
G1 X55.903 Y24.134 E123.34624
G1 X56.456 Y24.134 E123.38819
G1 X25.866 Y-6.456 E126.67391
G1 X25.866 Y-7.008 E126.71587
G1 X57.008 Y24.134 E130.06093
G1 X57.561 Y24.134 E130.10289
G1 X25.866 Y-7.561 E133.50729
G1 X25.866 Y-8.113 E133.54925
G1 X58.113 Y24.134 E137.01299
G1 X58.665 Y24.134 E137.05495
G1 X25.866 Y-8.665 E140.57803
G1 X25.866 Y-9.218 E140.61999
G1 X59.218 Y24.134 E144.20241
G1 X59.770 Y24.134 E144.24437
G1 X25.866 Y-9.770 E147.88613
G1 X25.866 Y-10.323 E147.92809
G1 X60.323 Y24.134 E151.62918
G1 X60.875 Y24.134 E151.67114
G1 X25.866 Y-10.875 E155.43158
G1 X25.866 Y-11.428 E155.47354
G1 X61.428 Y24.134 E159.29332
G1 X61.980 Y24.134 E159.33528
G1 X25.866 Y-11.980 E163.21440
G1 X25.866 Y-12.533 E163.25635
G1 X62.533 Y24.134 E167.19481
G1 X63.085 Y24.134 E167.23677
G1 X25.866 Y-13.085 E171.23457
G1 X25.866 Y-13.637 E171.27653
G1 X63.637 Y24.134 E175.33366
G1 X64.190 Y24.134 E175.37562
G1 X25.866 Y-14.190 E179.49210
G1 X25.866 Y-14.742 E179.53406
G1 X64.742 Y24.134 E183.70987
G1 X65.295 Y24.134 E183.75183
G1 X25.866 Y-15.295 E187.98699
G1 X25.866 Y-15.847 E188.02895
G1 X65.847 Y24.134 E192.32344
G1 X66.400 Y24.134 E192.36540
G1 X25.866 Y-16.400 E196.71924
G1 X25.866 Y-16.952 E196.76120
G1 X66.952 Y24.134 E201.17437
G1 X67.505 Y24.134 E201.21633
G1 X25.866 Y-17.505 E205.68885
G1 X25.866 Y-18.057 E205.73081
G1 X68.057 Y24.134 E210.26266
G1 X68.609 Y24.134 E210.30462
G1 X25.866 Y-18.609 E214.89581
G1 X25.866 Y-19.162 E214.93777
G1 X69.162 Y24.134 E219.58831
G1 X69.714 Y24.134 E219.63027
G1 X25.866 Y-19.714 E224.34014
G1 X25.866 Y-20.267 E224.38210
G1 X70.267 Y24.134 E229.15131
G1 X70.819 Y24.134 E229.19327
G1 X25.866 Y-20.819 E234.02182
G1 X25.866 Y-21.372 E234.06378
G1 X71.372 Y24.134 E238.95167
G1 X71.924 Y24.134 E238.99363
G1 X25.866 Y-21.924 E243.94087
G1 X25.866 Y-22.477 E243.98282
G1 X72.477 Y24.134 E248.98940
G1 X73.029 Y24.134 E249.03136
G1 X25.866 Y-23.029 E254.09727
G1 X25.866 Y-23.581 E254.13923
G1 X73.581 Y24.134 E259.26448
G1 X74.114 Y24.114 E259.30495
G1 X25.886 Y-24.114 E264.48525
G1 X26.418 Y-24.134 E264.52572
G1 X74.134 Y23.582 E269.65098
G1 X74.134 Y23.029 E269.69294
G1 X26.971 Y-24.134 E274.75886
G1 X27.523 Y-24.134 E274.80082
G1 X74.134 Y22.477 E279.80741
G1 X74.134 Y21.924 E279.84937
G1 X28.076 Y-24.134 E284.79661
G1 X28.628 Y-24.134 E284.83857
G1 X74.134 Y21.372 E289.72648
G1 X74.134 Y20.819 E289.76843
G1 X29.181 Y-24.134 E294.59700
G1 X29.733 Y-24.134 E294.63896
G1 X74.134 Y20.267 E299.40818
G1 X74.134 Y19.714 E299.45014
G1 X30.286 Y-24.134 E304.16003
G1 X30.838 Y-24.134 E304.20199
G1 X74.134 Y19.162 E308.85254
G1 X74.134 Y18.610 E308.89449
G1 X31.390 Y-24.134 E313.48570
G1 X31.943 Y-24.134 E313.52766
G1 X74.134 Y18.057 E318.05953
G1 X74.134 Y17.505 E318.10149
G1 X32.495 Y-24.134 E322.57401
G1 X33.048 Y-24.134 E322.61597
G1 X74.134 Y16.952 E327.02916
G1 X74.134 Y16.400 E327.07112
G1 X33.600 Y-24.134 E331.42497
G1 X34.153 Y-24.134 E331.46693
G1 X74.134 Y15.847 E335.76144
G1 X74.134 Y15.295 E335.80339
G1 X34.705 Y-24.134 E340.03856
G1 X35.258 Y-24.134 E340.08052
G1 X74.134 Y14.742 E344.25635
G1 X74.134 Y14.190 E344.29831
G1 X35.810 Y-24.134 E348.41480
G1 X36.362 Y-24.134 E348.45676
G1 X74.134 Y13.638 E352.51391
G1 X74.134 Y13.085 E352.55587
G1 X36.915 Y-24.134 E356.55368
G1 X37.467 Y-24.134 E356.59564
G1 X74.134 Y12.533 E360.53411
G1 X74.134 Y11.980 E360.57606
G1 X38.020 Y-24.134 E364.45519
G1 X38.572 Y-24.134 E364.49715
G1 X74.134 Y11.428 E368.31694
G1 X74.134 Y10.875 E368.35890
G1 X39.125 Y-24.134 E372.11935
G1 X39.677 Y-24.134 E372.16131
G1 X74.134 Y10.323 E375.86242
G1 X74.134 Y9.770 E375.90438
G1 X40.230 Y-24.134 E379.54616
G1 X40.782 Y-24.134 E379.58811
G1 X74.134 Y9.218 E383.17055
G1 X74.134 Y8.666 E383.21251
G1 X41.334 Y-24.134 E386.73560
G1 X41.887 Y-24.134 E386.77756
G1 X74.134 Y8.113 E390.24131
G1 X74.134 Y7.561 E390.28327
G1 X42.439 Y-24.134 E393.68768
G1 X42.992 Y-24.134 E393.72964
G1 X74.134 Y7.008 E397.07471
G1 X74.134 Y6.456 E397.11667
G1 X43.544 Y-24.134 E400.40241
G1 X44.097 Y-24.134 E400.44436
G1 X74.134 Y5.903 E403.67076
G1 X74.134 Y5.351 E403.71272
G1 X44.649 Y-24.134 E406.87977
G1 X45.202 Y-24.134 E406.92173
G1 X74.134 Y4.798 E410.02944
G1 X74.134 Y4.246 E410.07140
G1 X45.754 Y-24.134 E413.11978
G1 X46.306 Y-24.134 E413.16174
G1 X74.134 Y3.694 E416.15077
G1 X74.134 Y3.141 E416.19273
G1 X46.859 Y-24.134 E419.12243
G1 X47.411 Y-24.134 E419.16439
G1 X74.134 Y2.589 E422.03474
G1 X74.134 Y2.036 E422.07670
G1 X47.964 Y-24.134 E424.88772
G1 X48.516 Y-24.134 E424.92967
G1 X74.134 Y1.484 E427.68135
G1 X74.134 Y0.931 E427.72331
G1 X49.069 Y-24.134 E430.41565
G1 X49.621 Y-24.134 E430.45761
G1 X74.134 Y0.379 E433.09060
G1 X74.134 Y-0.174 E433.13256
G1 X50.174 Y-24.134 E435.70622
G1 X50.726 Y-24.134 E435.74818
G1 X74.134 Y-0.726 E438.26249
G1 X74.134 Y-1.278 E438.30445
G1 X51.278 Y-24.134 E440.75943
G1 X51.831 Y-24.134 E440.80139
G1 X74.134 Y-1.831 E443.19703
G1 X74.134 Y-2.383 E443.23899
G1 X52.383 Y-24.134 E445.57528
G1 X52.936 Y-24.134 E445.61724
G1 X74.134 Y-2.936 E447.89420
G1 X74.134 Y-3.488 E447.93616
G1 X53.488 Y-24.134 E450.15378
G1 X54.041 Y-24.134 E450.19574
G1 X74.134 Y-4.041 E452.35402
G1 X74.134 Y-4.593 E452.39598
G1 X54.593 Y-24.134 E454.49492
G1 X55.146 Y-24.134 E454.53688
G1 X74.134 Y-5.146 E456.57648
G1 X74.134 Y-5.698 E456.61844
G1 X55.698 Y-24.134 E458.59869
G1 X56.250 Y-24.134 E458.64065
G1 X74.134 Y-6.250 E460.56157
G1 X74.134 Y-6.803 E460.60353
G1 X56.803 Y-24.134 E462.46511
G1 X57.355 Y-24.134 E462.50707
G1 X74.134 Y-7.355 E464.30931
G1 X74.134 Y-7.908 E464.35127
G1 X57.908 Y-24.134 E466.09417
G1 X58.460 Y-24.134 E466.13613
G1 X74.134 Y-8.460 E467.81969
G1 X74.134 Y-9.013 E467.86165
G1 X59.013 Y-24.134 E469.48588
G1 X59.565 Y-24.134 E469.52783
G1 X74.134 Y-9.565 E471.09272
G1 X74.134 Y-10.118 E471.13468
G1 X60.118 Y-24.134 E472.64022
G1 X60.670 Y-24.134 E472.68218
G1 X74.134 Y-10.670 E474.12838
G1 X74.134 Y-11.222 E474.17034
G1 X61.222 Y-24.134 E475.55720
G1 X61.775 Y-24.134 E475.59916
G1 X74.134 Y-11.775 E476.92668
G1 X74.134 Y-12.327 E476.96864
G1 X62.327 Y-24.134 E478.23683
G1 X62.880 Y-24.134 E478.27879
G1 X74.134 Y-12.880 E479.48763
G1 X74.134 Y-13.432 E479.52959
G1 X63.432 Y-24.134 E480.67909
G1 X63.985 Y-24.134 E480.72105
G1 X74.134 Y-13.985 E481.81122
G1 X74.134 Y-14.537 E481.85318
G1 X64.537 Y-24.134 E482.88400
G1 X65.090 Y-24.134 E482.92596
G1 X74.134 Y-15.090 E483.89744
G1 X74.134 Y-15.642 E483.93940
G1 X65.642 Y-24.134 E484.85155
G1 X66.194 Y-24.134 E484.89351
G1 X74.134 Y-16.194 E485.74631
G1 X74.134 Y-16.747 E485.78827
G1 X66.747 Y-24.134 E486.58174
G1 X67.299 Y-24.134 E486.62370
G1 X74.134 Y-17.299 E487.35782
G1 X74.134 Y-17.852 E487.39978
G1 X67.852 Y-24.134 E488.07457
G1 X68.404 Y-24.134 E488.11653
G1 X74.134 Y-18.404 E488.73197
G1 X74.134 Y-18.957 E488.77393
G1 X68.957 Y-24.134 E489.33004
G1 X69.509 Y-24.134 E489.37200
G1 X74.134 Y-19.509 E489.86877
G1 X74.134 Y-20.062 E489.91073
G1 X70.062 Y-24.134 E490.34815
G1 X70.614 Y-24.134 E490.39011
G1 X74.134 Y-20.614 E490.76820
G1 X74.134 Y-21.166 E490.81016
G1 X71.166 Y-24.134 E491.12891
G1 X71.719 Y-24.134 E491.17087
G1 X74.134 Y-21.719 E491.43028
G1 X74.134 Y-22.271 E491.47224
G1 X72.271 Y-24.134 E491.67230
G1 X72.824 Y-24.134 E491.71426
G1 X74.134 Y-22.824 E491.85499
G1 X74.134 Y-23.376 E491.89695
G1 X73.376 Y-24.134 E491.97834
G1 X73.929 Y-24.134 E492.02030
G1 X74.134 Y-23.929 E492.04235
G1 Z0.496 F3600.000
M104 S270 ; set temperature
M140 S30 ; wait for bed temperature to be reached
G1 Z0.896 F3600.000
G1 X57.908 Y24.486 F3600.000
G1 X25.514 Y24.486 E493.63806 F3000.000
G1 X25.514 Y-24.486 E496.05041
G1 X74.486 Y-24.486 E498.46276
G1 X74.486 Y24.486 E500.87511
G1 X57.983 Y24.486 E501.68805 F3000.000
G1 X57.983 Y24.800 F3600.000
G1 X25.200 Y24.800 E503.30293 F750.000
G1 X25.200 Y-24.800 E505.74623
G1 X74.800 Y-24.800 E508.18953
G1 X74.800 Y24.800 E510.63283
G1 X58.058 Y24.800 E511.45755 F750.000
G1 X57.733 Y24.367 F3600.000
G1 X74.132 Y24.305 F3600.000
G1 X74.305 Y24.132 E511.46963 F1200.000
G1 X74.305 Y23.688 E511.49152
G1 X73.688 Y24.305 E511.53456
G1 X73.243 Y24.305 E511.55646
G1 X74.305 Y23.243 E511.63046
G1 X74.305 Y22.799 E511.65235
G1 X72.799 Y24.305 E511.75732
G1 X72.355 Y24.305 E511.77922
G1 X74.305 Y22.355 E511.91515
G1 X74.305 Y21.910 E511.93704
G1 X71.910 Y24.305 E512.10394
G1 X71.466 Y24.305 E512.12583
G1 X74.305 Y21.466 E512.32369
G1 X74.305 Y21.022 E512.34559
G1 X71.022 Y24.305 E512.57441
G1 X70.577 Y24.305 E512.59630
G1 X74.305 Y20.577 E512.85609
G1 X74.305 Y20.133 E512.87799
G1 X70.133 Y24.305 E513.16874
G1 X69.688 Y24.305 E513.19063
G1 X74.305 Y19.688 E513.51235
G1 X74.305 Y19.244 E513.53424
G1 X69.244 Y24.305 E513.88692
G1 X68.800 Y24.305 E513.90882
G1 X74.305 Y18.800 E514.29246
G1 X74.305 Y18.355 E514.31436
G1 X68.355 Y24.305 E514.72897
G1 X67.911 Y24.305 E514.75086
G1 X74.305 Y17.911 E515.19643
G1 X74.305 Y17.466 E515.21833
G1 X67.466 Y24.305 E515.69487
G1 X67.022 Y24.305 E515.71676
G1 X74.305 Y17.022 E516.22426
G1 X74.305 Y16.578 E516.24616
G1 X66.578 Y24.305 E516.78462
G1 X66.133 Y24.305 E516.80652
G1 X74.305 Y16.133 E517.37595
G1 X74.305 Y15.689 E517.39784
G1 X65.689 Y24.305 E517.99823
G1 X65.245 Y24.305 E518.02013
G1 X74.305 Y15.245 E518.65149
G1 X74.305 Y14.800 E518.67338
G1 X64.800 Y24.305 E519.33570
G1 X64.356 Y24.305 E519.35760
G1 X74.305 Y14.356 E520.05088
G1 X74.305 Y13.911 E520.07278
G1 X63.911 Y24.305 E520.79703
G1 X63.467 Y24.305 E520.81892
G1 X74.305 Y13.467 E521.57414
G1 X74.305 Y13.023 E521.59603
G1 X63.023 Y24.305 E522.38221
G1 X62.578 Y24.305 E522.40410
G1 X74.305 Y12.578 E523.22125
G1 X74.305 Y12.134 E523.24314
G1 X62.134 Y24.305 E524.09125
G1 X61.689 Y24.305 E524.11314
G1 X74.305 Y11.689 E524.99221
G1 X74.305 Y11.245 E525.01411
G1 X61.245 Y24.305 E525.92414
G1 X60.801 Y24.305 E525.94604
G1 X74.305 Y10.801 E526.88704
G1 X74.305 Y10.356 E526.90893
G1 X60.356 Y24.305 E527.88089
G1 X59.912 Y24.305 E527.90279
G1 X74.305 Y9.912 E528.90572
G1 X74.305 Y9.468 E528.92761
G1 X59.468 Y24.305 E529.96150
G1 X59.023 Y24.305 E529.98340
G1 X74.305 Y9.023 E531.04825
G1 X74.305 Y8.579 E531.07015
G1 X58.579 Y24.305 E532.16597
G1 X58.134 Y24.305 E532.18786
G1 X74.305 Y8.134 E533.31465
G1 X74.305 Y7.690 E533.33654
G1 X57.690 Y24.305 E534.49429
G1 X57.246 Y24.305 E534.51618
G1 X74.305 Y7.246 E535.70490
G1 X74.305 Y6.801 E535.72679
G1 X56.801 Y24.305 E536.94647
G1 X56.357 Y24.305 E536.96836
G1 X74.305 Y6.357 E538.21900
G1 X74.305 Y5.912 E538.24090
G1 X55.912 Y24.305 E539.52250
G1 X55.468 Y24.305 E539.54440
G1 X74.305 Y5.468 E540.85696
G1 X74.305 Y5.024 E540.87886
G1 X55.024 Y24.305 E542.22239
G1 X54.579 Y24.305 E542.24429
G1 X74.305 Y4.579 E543.61878
G1 X74.305 Y4.135 E543.64068
G1 X54.135 Y24.305 E545.04614
G1 X53.691 Y24.305 E545.06803
G1 X74.305 Y3.691 E546.50446
G1 X74.305 Y3.246 E546.52635
G1 X53.246 Y24.305 E547.99374
G1 X52.802 Y24.305 E548.01564
G1 X74.305 Y2.802 E549.51399
G1 X74.305 Y2.357 E549.53589
G1 X52.357 Y24.305 E551.06520
G1 X51.913 Y24.305 E551.08710
G1 X74.305 Y1.913 E552.64738
G1 X74.305 Y1.469 E552.66928
G1 X51.469 Y24.305 E554.26052
G1 X51.024 Y24.305 E554.28242
G1 X74.305 Y1.024 E555.90463
G1 X74.305 Y0.580 E555.92652
G1 X50.580 Y24.305 E557.57970
G1 X50.136 Y24.305 E557.60159
G1 X74.305 Y0.136 E559.28573
G1 X74.305 Y-0.309 E559.30762
G1 X49.691 Y24.305 E561.02273
G1 X49.247 Y24.305 E561.04462
G1 X74.305 Y-0.753 E562.79069
G1 X74.305 Y-1.198 E562.81258
G1 X48.802 Y24.305 E564.58961
G1 X48.358 Y24.305 E564.61151
G1 X74.305 Y-1.642 E566.41950
G1 X74.305 Y-2.086 E566.44140
G1 X47.914 Y24.305 E568.28036
G1 X47.469 Y24.305 E568.30225
G1 X74.305 Y-2.531 E570.17217
G1 X74.305 Y-2.975 E570.19407
G1 X47.025 Y24.305 E572.09496
G1 X46.580 Y24.305 E572.11685
G1 X74.305 Y-3.420 E574.04870
G1 X74.305 Y-3.864 E574.07060
G1 X46.136 Y24.305 E576.03341
G1 X45.692 Y24.305 E576.05531
