; generated by Slic3r 1.2.9 on 2017-06-20 at 10:22:18

; external perimeters extrusion width = 0.40mm
; perimeters extrusion width = 0.40mm
; infill extrusion width = 0.40mm
; solid infill extrusion width = 0.40mm
; top infill extrusion width = 0.40mm
; support material extrusion width = 0.40mm

M107
M190 S77 ; set bed temperature
M104 S280 ; set temperature

G1 Z5 F5000 ; lift nozzle

M109 S280 ; wait for temperature to be reached
G21 ; set units to millimeters
G90 ; use absolute coordinates
M82 ; use absolute distances for extrusion
G92 E0
G1 Z0.496 F3600.000
G1 E-2.00000 F2400.00000
G92 E0
G1 X54.192633337013625 Y-0.46625533716686823 F3600.000
G1 E2.00000 F2400.00000
G1 X78.25096860742363 Y-0.3165939611319018 E3.96584 F1500.000
G1 X74.362 Y0.0 E7.65637
G1 X78.25096860742363 Y0.3165939611319018 E7.65637
G1 X35.36685012833345 Y0.7598837013737799 E11.34690 F1500.000
G1 X25.638 Y0.0 E15.03744
G1 X35.36685012833345 Y-0.7598837013737799 E15.03744
G1 X54.12564949263888 Y-0.46687825512980397 E16.75645
G1 X54.30230559561905 Y-0.47329167903670133 F3600.000
G1 X78.74339977420328 Y-0.3197586531564747 E18.75748 F1500.000
G1 X74.752 Y0.0 E22.50702
G1 X78.74339977420328 Y0.3197586531564747 E22.50702
G1 X35.357078612351444 Y0.7754784887753996 E26.25657 F1500.000
G1 X25.248 Y0.0 E30.00611
G1 X35.357078612351444 Y-0.7754784887753996 E30.00611
G1 X54.23556091716947 Y-0.4739220107862801 E31.74896
G1 X54.329749217164625 Y-0.46410033975968423 F3600.000
G1 X35.38188691972208 Y-0.7466575561215881 F3600.000
G1 X77.8336554582913 Y-0.31387663739237237 E35.40052 F1500.000
G1 X74.031 Y0.0 E39.05207
G1 X77.8336554582913 Y0.31387663739237237 E39.05207
G1 X35.38188691972208 Y0.7466575561215881 E42.70363
G1 X25.969 Y0.0 E46.34949
G1 X35.33099060315179 Y-0.7450995116091775 E46.34949
G1 X35.40753820869223 Y-0.7310916134361299 F3600.000
G1 X77.34270335332222 Y-0.3106373566029725 E49.94168 F1500.000
G1 X73.641 Y0.0 E53.53386
G1 X77.34270335332222 Y0.3106373566029725 E53.53386
G1 X35.40753820869223 Y0.7310916134361299 E57.12604
G1 X26.359 Y0.0 E60.71253
G1 X35.35750609135209 Y-0.7295125011350784 E60.71253
G1 X35.441853788987956 Y-0.7155121617628059 F3600.000
G1 X76.85131749033324 Y-0.307348258102437 E64.24534 F1500.000
G1 X73.25 Y0.0 E67.77814
G1 X76.85131749033324 Y0.307348258102437 E67.77814
G1 X35.441853788987956 Y0.7155121617628059 E71.31095
G1 X26.75 Y0.0 E74.83806
G1 X35.392698752708874 Y-0.7139127690029898 E74.83806
G1 X35.484753937430646 Y-0.6999666141074458 F3600.000
G1 X76.36077371268576 Y-0.3040168646509257 E78.31150 F1500.000
G1 X72.859 Y0.0 E81.78493
G1 X76.36077371268576 Y0.3040168646509257 E81.78493
G1 X35.484753937430646 Y0.6999666141074458 E85.25836
G1 X27.141 Y0.0 E88.72610
G1 X35.43648595727291 Y-0.698347807936269 E88.72610
G1 X35.53620756355411 Y-0.6844623454431987 F3600.000
G1 X75.87108835386508 Y-0.3006424305456855 E92.14016 F1500.000
G1 X72.468 Y0.0 E95.55421
G1 X75.87108835386508 Y0.3006424305456855 E95.55421
G1 X35.53620756355411 Y0.6844623454431987 E98.96827
G1 X27.532 Y0.0 E102.37663
G1 X35.48883589243243 Y-0.6828250148122595 E102.37663
G1 X35.59601337228651 Y-0.6690460730668866 F3600.000
G1 X75.38352716608584 Y-0.297232993429331 E105.73132 F1500.000
G1 X72.078 Y0.0 E109.08600
G1 X75.38352716608584 Y0.297232993429331 E109.08600
G1 X35.59601337228651 Y0.6690460730668866 E112.44068
G1 X27.922 Y0.0 E115.78967
G1 X35.549544202422624 Y-0.6673911699027294 E115.78967
G1 X35.66443519810738 Y-0.6536458427243574 F3600.000
G1 X74.89560693391836 Y-0.29377029371574714 E119.08498 F1500.000
G1 X71.687 Y0.0 E122.38029
G1 X74.89560693391836 Y0.29377029371574714 E122.38029
G1 X35.66443519810738 Y0.6536458427243574 E125.67559
G1 X28.313 Y0.0 E128.96520
G1 X35.618878603908904 Y-0.6519742450373106 E128.96520
G1 X35.741281902024724 Y-0.6383082107135356 F3600.000
G1 X74.40859649260966 Y-0.290262224164779 E132.20114 F1500.000
G1 X71.296 Y0.0 E135.43707
G1 X74.40859649260966 Y0.290262224164779 E135.43707
G1 X35.741281902024724 Y0.6383082107135356 E138.67301
G1 X28.704 Y0.0 E141.90324
G1 X35.69664489836545 Y-0.6366208560858637 E141.90324
G1 X35.82649927079117 Y-0.6230399651281225 F3600.000
G1 X73.92251382359775 Y-0.2867079752779722 E145.07980 F1500.000
G1 X70.905 Y0.0 E148.25636
G1 X73.92251382359775 Y0.2867079752779722 E148.25636
G1 X35.82649927079117 Y0.6230399651281225 E151.43292
G1 X29.095 Y0.0 E154.60378
G1 X35.78278811104579 Y-0.6213378015871245 E154.60378
G1 X35.919777978155714 Y-0.607886455992833 F3600.000
G1 X73.43861688512386 Y-0.28311599181003044 E157.72096 F1500.000
G1 X70.515 Y0.0 E160.83815
G1 X73.43861688512386 Y0.28311599181003044 E160.83815
G1 X35.919777978155714 Y0.607886455992833 E163.95533
G1 X29.485 Y0.0 E167.06681
G1 X35.87699576330215 Y-0.6061704733299772 E167.06681
G1 X36.02153178308774 Y-0.592776351509735 F3600.000
G1 X72.95444299012912 Y-0.2794670117460808 E170.12462 F1500.000
G1 X70.124 Y0.0 E173.18243
G1 X72.95444299012912 Y0.2794670117460808 E173.18243
G1 X36.02153178308774 Y0.592776351509735 E176.24024
G1 X29.876 Y0.0 E179.29235
G1 X35.979685615635944 Y-0.5910474733445783 E179.29235
G1 X36.13146243926476 Y-0.5777547797187366 F3600.000
G1 X72.47125345956147 Y-0.2757693240129792 E182.29079 F1500.000
G1 X69.733 Y0.0 E185.28922
G1 X72.47125345956147 Y0.2757693240129792 E185.28922
G1 X36.13146243926476 Y0.5777547797187366 E188.28765
G1 X30.267 Y0.0 E191.28039
G1 X36.09055628554373 Y-0.5760139682343649 E191.28039
G1 X36.249495555110826 Y-0.5628276817757235 F3600.000
G1 X71.98906811454084 Y-0.27202204998119667 E194.21945 F1500.000
G1 X69.342 Y0.0 E197.15851
G1 X71.98906811454084 Y0.27202204998119667 E197.15851
G1 X36.249495555110826 Y0.5628276817757235 E200.09757
G1 X30.658 Y0.0 E203.03093
G1 X36.209532626091715 Y-0.5610758983264243 E203.03093
G1 X36.37521969693104 Y-0.5480385441486902 F3600.000
G1 X71.50913653513095 Y-0.26823407096778396 E205.91061 F1500.000
G1 X68.952 Y0.0 E208.79030
G1 X71.50913653513095 Y0.26823407096778396 E208.79030
G1 X36.37521969693104 Y0.5480385441486902 E211.66998
G1 X31.048 Y0.0 E214.54397
G1 X36.336200035226575 Y-0.546276771006308 E214.54397
G1 X36.50919667700181 Y-0.5333169599653822 F3600.000
G1 X71.02901830942056 Y-0.2643850481319634 E217.36427 F1500.000
G1 X68.561 Y0.0 E220.18458
G1 X71.02901830942056 Y0.2643850481319634 E220.18458
G1 X36.50919667700181 Y0.5333169599653822 E223.00489
G1 X31.439 Y0.0 E225.81950
G1 X36.47112442741518 Y-0.5315461221650869 E225.81950
G1 X36.65102727073281 Y-0.5187061670685722 F3600.000
G1 X70.54996669028272 Y-0.26048369521840237 E228.58044 F1500.000
G1 X68.17 Y0.0 E231.34137
G1 X70.54996669028272 Y0.26048369521840237 E231.34137
G1 X36.65102727073281 Y0.5187061670685722 E234.10231
G1 X31.83 Y0.0 E236.85754
G1 X36.61390343844808 Y-0.5169272080334882 E236.85754
G1 X36.80062067411363 Y-0.5042110851302329 F3600.000
G1 X70.07200355348775 Y-0.25652905894701294 E239.55910 F1500.000
G1 X67.779 Y0.0 E242.26066
G1 X70.07200355348775 Y0.25652905894701294 E242.26066
G1 X36.80062067411363 Y0.5042110851302329 E244.96222
G1 X32.221 Y0.0 E247.65808
G1 X36.76444555545479 Y-0.5024249375277501 E247.65808
G1 X36.957470719734054 Y-0.4898729685581987 F3600.000
G1 X69.59636945990789 Y-0.2525304894528673 E250.30027 F1500.000
G1 X67.389 Y0.0 E252.94245
G1 X69.59636945990789 Y0.2525304894528673 E252.94245
G1 X36.957470719734054 Y0.4898729685581987 E255.58463
G1 X32.611 Y0.0 E258.22112
G1 X36.922241494795514 Y-0.48808056700185326 E258.22112
G1 X37.122284520217775 Y-0.4756226515997872 F3600.000
G1 X69.12064820297913 Y-0.24846649066237875 E260.80393 F1500.000
G1 X66.998 Y0.0 E263.38674
G1 X69.12064820297913 Y0.24846649066237875 E263.38674
G1 X37.122284520217775 Y0.4756226515997872 E265.96955
G1 X33.002 Y0.0 E268.54666
G1 X37.088002547993874 Y-0.4738248837142101 E268.54666
G1 X37.29456928293984 Y-0.4615011491648692 F3600.000
G1 X68.64608436028962 Y-0.24434623259306013 E271.07010 F1500.000
G1 X66.607 Y0.0 E273.59353
G1 X68.64608436028962 Y0.24434623259306013 E273.59353
G1 X37.29456928293984 Y0.4615011491648692 E276.11696
G1 X33.393 Y0.0 E278.63470
G1 X37.26123284326486 Y-0.4596989029583553 E278.63470
G1 X37.47422196657323 Y-0.44751227686849965 F3600.000
G1 X68.17270210282118 Y-0.24016868172158645 E281.09876 F1500.000
G1 X66.216 Y0.0 E283.56282
G1 X68.17270210282118 Y0.24016868172158645 E283.56282
G1 X37.47422196657323 Y0.44751227686849965 E286.02688
G1 X33.784 Y0.0 E288.48524
G1 X37.44182870801051 Y-0.44570642180645625 E288.48524
G1 X37.660649914731955 Y-0.43369482388271924 F3600.000
G1 X67.70173226735044 Y-0.23594369241278257 E290.88993 F1500.000
G1 X65.826 Y0.0 E293.29461
G1 X67.70173226735044 Y0.23594369241278257 E293.29461
G1 X37.660649914731955 Y0.43369482388271924 E295.69929
G1 X34.174 Y0.0 E298.09828
G1 X37.629194477160944 Y-0.4318862153172928 E298.09828
G1 X37.85470182157033 Y-0.4199811842056777 F3600.000
G1 X67.23078498723632 Y-0.23164852462460297 E300.44359 F1500.000
G1 X65.435 Y0.0 E302.78890
G1 X67.23078498723632 Y0.23164852462460297 E302.78890
G1 X37.85470182157033 Y0.4199811842056777 E305.13421
G1 X34.565 Y0.0 E307.47382
G1 X37.82418307115171 Y-0.41817064190731235 E307.47382
G1 X38.05579945290862 Y-0.4064099478657685 F3600.000
G1 X66.76109549730292 Y-0.22729283928353045 E309.75976 F1500.000
G1 X65.044 Y0.0 E312.04569
G1 X66.76109549730292 Y0.22729283928353045 E312.04569
G1 X38.05579945290862 Y0.4064099478657685 E314.33163
G1 X34.956 Y0.0 E316.61186
G1 X38.026213287678274 Y-0.40459827699272 E316.61186
G1 X38.26383172135274 Y-0.39298382856635716 F3600.000
G1 X66.29269053221479 Y-0.22287551712209513 E318.83842 F1500.000
G1 X64.653 Y0.0 E321.06498
G1 X66.29269053221479 Y0.22287551712209513 E321.06498
G1 X38.26383172135274 Y0.39298382856635716 E323.29154
G1 X35.347 Y0.0 E325.51240
G1 X38.235173505556375 Y-0.39117181044016414 E325.51240
G1 X38.47812804698274 Y-0.3797390434824246 F3600.000
G1 X65.82581418410258 Y-0.2184102473475389 E327.67959 F1500.000
G1 X64.262 Y0.0 E329.84677
G1 X65.82559751342937 Y0.2183954165950046 E329.84677
G1 X38.47775738007609 Y0.3797149058647099 E332.01396
G1 X35.737 Y0.0 E334.17545
G1 X38.450390284105055 Y-0.3779274326654165 E334.17545
G1 X38.69967400379491 Y-0.36660985156925013 F3600.000
G1 X65.3610340187485 Y-0.2138630777172604 E336.28326 F1500.000
G1 X63.872 Y0.0 E338.39107
G1 X65.3610340187485 Y0.2138630777172604 E338.39107
G1 X38.69967400379491 Y0.36660985156925013 E340.49888
G1 X36.128 Y0.0 E342.60099
G1 X38.67285343752126 Y-0.36479937921732514 E342.60099
G1 X38.927814246371454 Y-0.35363233397763505 F3600.000
G1 X64.89664646189354 Y-0.20925407324010906 E344.64942 F1500.000
G1 X63.481 Y0.0 E346.69786
G1 X64.89664646189354 Y0.20925407324010906 E346.69786
G1 X38.927814246371454 Y0.35363233397763505 E348.74629
G1 X36.519 Y0.0 E350.78903
G1 X38.901904799122626 Y-0.35182370497431925 E350.78903
G1 X39.16243353010637 Y-0.3408081725633723 F3600.000
G1 X64.43365735390162 Y-0.20457873209515504 E352.77809 F1500.000
G1 X63.09 Y0.0 E354.76715
G1 X64.43365735390162 Y0.20457873209515504 E354.76715
G1 X39.16243353010637 Y0.3408081725633723 E356.75621
G1 X36.91 Y0.0 E358.73957
G1 X39.13742869683699 Y-0.33900206511135045 E358.73957
G1 X39.40279177926356 Y-0.3281710119196211 F3600.000
G1 X63.97229557394356 Y-0.19985114129662682 E360.66926 F1500.000
G1 X62.699 Y0.0 E362.59894
G1 X63.972097058014285 Y0.1998358206148647 E362.59894
G1 X39.402469478447664 Y0.3281469871961887 E364.52863
G1 X37.3 Y0.0 E366.45261
G1 X39.378682367494214 Y-0.32636806825639697 E366.45261
G1 X39.650005825976876 Y-0.31565725117429005 F3600.000
G1 X63.51317156307028 Y-0.19503647648913913 E368.32292 F1500.000
G1 X62.309 Y0.0 E370.19323
G1 X63.51317156307028 Y0.19503647648913913 E370.19323
G1 X39.650005825976876 Y0.31565725117429005 E372.06354
G1 X37.691 Y0.0 E373.92816
G1 X39.626786861919555 Y-0.3138581025406761 E373.92816
G1 X39.903351337951555 Y-0.3033004748225434 F3600.000
G1 X63.054559295898656 Y-0.19015480902762077 E375.73909 F1500.000
G1 X61.918 Y0.0 E377.55003
G1 X63.054559295898656 Y0.19015480902762077 E377.55003
G1 X39.903351337951555 Y0.3033004748225434 E379.36096
G1 X38.082 Y0.0 E381.16620
G1 X39.88101519520284 Y-0.30150571777157825 E381.16620
G1 X40.16271228390832 Y-0.291101449653313 F3600.000
G1 X62.59747165820678 Y-0.18520173007608812 E382.91776 F1500.000
G1 X61.527 Y0.0 E384.66932
G1 X62.59747165820678 Y0.18520173007608812 E384.66932
G1 X40.16271228390832 Y0.291101449653313 E386.42088
G1 X38.473 Y0.0 E388.16674
G1 X40.14125101438668 Y-0.28931165333489334 E388.16674
G1 X40.427972890067096 Y-0.27906073523761443 F3600.000
G1 X62.141942293430134 Y-0.18017590956414095 E389.85893 F1500.000
G1 X61.136 Y0.0 E391.55111
G1 X62.141942293430134 Y0.18017590956414095 E391.55111
G1 X40.427972890067096 Y0.27906073523761443 E393.24330
G1 X38.864 Y0.0 E394.92979
G1 X40.407378249522694 Y-0.2772764414949859 E394.92979
G1 X40.69831731165307 Y-0.2672088794223343 F3600.000
G1 X61.68916462394349 Y-0.17508913171142185 E396.56260 F1500.000
G1 X60.746 Y0.0 E398.19541
G1 X61.68916462394349 Y0.17508913171142185 E398.19541
G1 X40.69831731165307 Y0.2672088794223343 E399.82822
G1 X39.254 Y0.0 E401.45533
G1 X40.67857860102784 Y-0.26543058696018573 E401.45533
G1 X40.975017388647935 Y-0.2554852762388631 F3600.000
G1 X61.23685205821736 Y-0.16991393390712609 E403.02877 F1500.000
G1 X60.355 Y0.0 E404.60220
G1 X61.23685205821736 Y0.16991393390712609 E404.60220
G1 X40.975017388647935 Y0.2554852762388631 E406.17564
G1 X39.645 Y0.0 E407.74338
G1 X40.956128051855686 Y-0.2537134877569613 E407.74338
G1 X41.25727320121872 Y-0.24392051222967534 F3600.000
G1 X60.786203961096305 Y-0.16466185940403452 E409.25744 F1500.000
G1 X59.964 Y0.0 E410.77150
G1 X60.786203961096305 Y0.16466185940403452 E410.77150
G1 X41.25727320121872 Y0.24392051222967534 E412.28556
G1 X40.036 Y0.0 E413.79392
G1 X41.23922425313066 Y-0.2421556892045653 E413.79392
G1 X41.544971512807656 Y-0.23251441177349327 F3600.000
G1 X60.337257627439456 Y-0.15933147870045375 E415.24861 F1500.000
G1 X59.573 Y0.0 E416.70329
G1 X60.337257627439456 Y0.15933147870045375 E416.70329
G1 X41.544971512807656 Y0.23251441177349327 E418.15798
G1 X40.427 Y0.0 E419.60697
G1 X41.52775376781172 Y-0.23075698962631286 E419.60697
G1 X41.83724391018127 Y-0.22129520403346642 F3600.000
G1 X59.891192824988885 Y-0.15393527681970828 E421.00228 F1500.000
G1 X59.183 Y0.0 E422.39759
G1 X59.891192824988885 Y0.15393527681970828 E422.39759
G1 X41.83724391018127 Y0.22129520403346642 E423.79290
G1 X40.817 Y0.0 E425.18251
G1 X41.82084591444798 Y-0.21954557214166223 E425.18251
G1 X42.13547825763937 Y-0.21020486890890955 F3600.000
G1 X59.445761228198606 Y-0.14844410429641097 E426.51845 F1500.000
G1 X58.792 Y0.0 E427.85438
G1 X59.445761228198606 Y0.14844410429641097 E427.85438
G1 X42.13547825763937 Y0.21020486890890955 E429.19032
G1 X41.208 Y0.0 E430.52056
G1 X42.11989260432652 Y-0.20846343163114256 E430.52056
G1 X42.43882187337438 Y-0.1992717475964919 F3600.000
G1 X59.00214913034949 Y-0.14287018999907566 E431.79712 F1500.000
G1 X58.401 Y0.0 E433.07368
G1 X59.00214913034949 Y0.14287018999907566 E433.07368
G1 X42.43882187337438 Y0.1992717475964919 E434.35024
G1 X41.599 Y0.0 E435.62110
G1 X42.42403890484733 Y-0.19753886539944734 E435.62110
G1 X42.74716598793422 Y-0.18849507915741634 F3600.000
G1 X58.560397881161975 Y-0.13721200387522342 E436.83829 F1500.000
G1 X58.01 Y0.0 E438.05547
G1 X58.560397881161975 Y0.13721200387522342 E438.05547
G1 X42.74716598793422 Y0.18849507915741634 E439.27266
G1 X41.99 Y0.0 E440.48415
G1 X42.733175929247295 Y-0.18677108871104964 E440.48415
G1 X43.059595910783926 Y-0.17790094525501407 F3600.000
G1 X58.121672377866076 Y-0.13148279222560397 E441.64196 F1500.000
G1 X57.62 Y0.0 E442.79977
G1 X58.121672377866076 Y0.13148279222560397 E442.79977
G1 X43.059595910783926 Y0.17790094525501407 E443.95758
G1 X42.38 Y0.0 E445.10969
G1 X43.04638689832168 Y-0.17618613617710466 E445.10969
G1 X43.37760807144626 Y-0.1674340195541319 F3600.000
G1 X57.68376619119108 Y-0.12565159792155037 E446.20813 F1500.000
G1 X57.229 Y0.0 E447.30657
G1 X57.68376619119108 Y0.12565159792155037 E447.30657
