; generated by Slic3r 1.2.9 on 2017-06-19 at 17:02:59

; external perimeters extrusion width = 0.40mm
; perimeters extrusion width = 0.40mm
; infill extrusion width = 0.40mm
; solid infill extrusion width = 0.40mm
; top infill extrusion width = 0.40mm
; support material extrusion width = 0.40mm

M107
M190 S77 ; set bed temperature
M104 S280 ; set temperature

G1 Z5 F5000 ; lift nozzle

M109 S280 ; wait for temperature to be reached
G21 ; set units to millimeters
G90 ; use absolute coordinates
M82 ; use absolute distances for extrusion
G92 E0
G1 Z0.496 F3600.000
G1 E-2.00000 F2400.00000
G92 E0
G1 X45.881 Y16.411 F3600.000
G1 E2.00000 F2400.00000
G1 X41.215 Y16.789 E2.35454 F1500.000
G1 X32.117 Y17.588 E3.04629
G1 X31.558 Y17.585 E3.08867
G1 X31.341 Y17.521 E3.10583
G1 X31.290 Y17.457 E3.11198
G1 X31.215 Y17.258 E3.12815
G1 X31.148 Y16.904 E3.15539
G1 X30.822 Y13.438 E3.41906
G1 X30.641 Y11.003 E3.60407
G1 X30.529 Y9.174 E3.74283
G1 X30.388 Y6.119 E3.97449
G1 X30.293 Y2.447 E4.25265
G1 X30.276 Y-0.615 E4.48463
G1 X30.330 Y-4.284 E4.76256
G1 X30.438 Y-7.341 E4.99420
G1 X30.602 Y-10.393 E5.22571
G1 X30.873 Y-14.049 E5.50337
G1 X31.148 Y-16.904 E5.72062
G1 X31.251 Y-17.373 E5.75701
G1 X31.321 Y-17.502 E5.76815
G1 X31.371 Y-17.539 E5.77287
G1 X31.546 Y-17.583 E5.78651
G1 X31.901 Y-17.597 E5.81344
G1 X41.879 Y-16.733 E6.57204
G1 X49.847 Y-16.089 E7.17752 F1500.000
G1 X59.025 Y-15.404 E7.87459
G1 X68.911 Y-14.723 E8.62519
G1 X69.484 Y-14.635 E8.66904
G1 X69.701 Y-14.553 E8.68668
G1 X69.723 Y-14.300 E8.70587
G1 X69.378 Y-10.236 E9.01483
G1 X69.185 Y-7.168 E9.24761
G1 X69.045 Y-3.586 E9.51917
G1 X68.999 Y0.000 E9.79079
G1 X69.045 Y3.586 E10.06242
G1 X69.185 Y7.168 E10.33397
G1 X69.378 Y10.236 E10.56675
G1 X69.723 Y14.300 E10.87571
G1 X69.701 Y14.553 E10.89490
G1 X69.484 Y14.635 E10.91254
G1 X68.911 Y14.723 E10.95639
G1 X59.202 Y15.392 E11.69358
G1 X49.843 Y16.090 E12.40438
G1 X45.956 Y16.405 E12.69980
G1 X45.987 Y16.793 F3600.000
G1 X41.248 Y17.177 E13.05992 F1500.000
G1 X32.138 Y17.978 E13.75256
G1 X31.694 Y17.987 E13.78620
G1 X31.342 Y17.941 E13.81311
G1 X31.208 Y17.895 E13.82385
G1 X31.104 Y17.835 E13.83292
G1 X31.022 Y17.755 E13.84160
G1 X30.887 Y17.513 E13.86258
G1 X30.837 Y17.353 E13.87528
G1 X30.762 Y16.959 E13.90567
G1 X30.434 Y13.471 E14.17103
G1 X30.253 Y11.029 E14.35652
G1 X30.140 Y9.195 E14.49569
G1 X29.998 Y6.133 E14.72786
G1 X29.903 Y2.454 E15.00663
G1 X29.886 Y-0.617 E15.23921
G1 X29.941 Y-4.294 E15.51774
G1 X30.048 Y-7.358 E15.74995
G1 X30.213 Y-10.418 E15.98203
G1 X30.485 Y-14.082 E16.26032
G1 X30.762 Y-16.959 E16.47926
G1 X30.837 Y-17.353 E16.50967
G1 X30.887 Y-17.513 E16.52237
G1 X31.022 Y-17.755 E16.54335
G1 X31.104 Y-17.835 E16.55203
G1 X31.208 Y-17.895 E16.56110
G1 X31.502 Y-17.971 E16.58411
G1 X31.910 Y-17.988 E16.61503
G1 X41.912 Y-17.121 E17.37543
G1 X49.877 Y-16.478 E17.98073 F1500.000
G1 X59.053 Y-15.793 E18.67763
G1 X68.954 Y-15.110 E19.42937
G1 X69.584 Y-15.014 E19.47758
G1 X69.875 Y-14.903 E19.50117
G1 X70.015 Y-14.777 E19.51545
G1 X70.089 Y-14.590 E19.53070
G1 X70.114 Y-14.300 E19.55273
G1 X69.766 Y-10.207 E19.86390
G1 X69.574 Y-7.149 E20.09601
G1 X69.435 Y-3.576 E20.36682
G1 X69.388 Y0.000 E20.63768
G1 X69.435 Y3.576 E20.90854
G1 X69.574 Y7.149 E21.17936
G1 X69.766 Y10.207 E21.41146
G1 X70.114 Y14.300 E21.72263
G1 X70.089 Y14.590 E21.74467
G1 X70.015 Y14.777 E21.75992
G1 X69.875 Y14.903 E21.77420
G1 X69.584 Y15.014 E21.79779
G1 X68.954 Y15.110 E21.84599
G1 X59.230 Y15.780 E22.58432
G1 X49.873 Y16.478 E23.29495
G1 X46.062 Y16.787 E23.58459
G1 X45.703 Y16.382 F3600.000
G1 X31.681 Y17.357 F3600.000
G1 X31.450 Y17.127 E23.60944 F1500.000
G1 X31.344 Y16.465 E23.66056
G1 X32.235 Y17.356 E23.75668
G1 X32.745 Y17.311 E23.79577
G1 X31.286 Y15.853 E23.95315
G1 X31.229 Y15.240 E24.00011
G1 X33.255 Y17.266 E24.21876
G1 X33.765 Y17.221 E24.25785
G1 X31.171 Y14.627 E24.53778
G1 X31.114 Y14.015 E24.58473
G1 X34.276 Y17.176 E24.92592
G1 X34.786 Y17.132 E24.96501
G1 X31.056 Y13.402 E25.36748
G1 X31.010 Y12.801 E25.41348
G1 X35.296 Y17.087 E25.87598
G1 X35.806 Y17.042 E25.91507
G1 X30.966 Y12.202 E26.43743
G1 X30.921 Y11.602 E26.48331
G1 X36.316 Y16.997 E27.06554
G1 X36.827 Y16.952 E27.10463
G1 X30.877 Y11.002 E27.74673
G1 X30.839 Y10.410 E27.79204
G1 X37.337 Y16.908 E28.49326
G1 X37.847 Y16.863 E28.53235
G1 X30.803 Y9.819 E29.29253
G1 X30.767 Y9.227 E29.33774
G1 X38.357 Y16.818 E30.15689
G1 X38.867 Y16.773 E30.19597
G1 X30.737 Y8.643 E31.07335
G1 X30.710 Y8.061 E31.11782
G1 X39.378 Y16.728 E32.05317
G1 X39.888 Y16.683 E32.09225
G1 X30.683 Y7.479 E33.08558
G1 X30.657 Y6.897 E33.13004
G1 X40.398 Y16.639 E34.18134
G1 X40.908 Y16.594 E34.22042
G1 X30.630 Y6.315 E35.32969
G1 X30.609 Y5.739 E35.37367
G1 X41.420 Y16.550 E36.54035
G1 X41.933 Y16.508 E36.57966
G1 X30.594 Y5.169 E37.80334
G1 X30.579 Y4.599 E37.84684
G1 X42.446 Y16.467 E39.12753
G1 X42.960 Y16.425 E39.16683
G1 X30.564 Y4.030 E40.50452
G1 X30.550 Y3.460 E40.54802
G1 X43.473 Y16.383 E41.94271
G1 X43.987 Y16.342 E41.98201
G1 X30.535 Y2.890 E43.43370
G1 X30.521 Y2.321 E43.47714
G1 X44.500 Y16.300 E44.98574
G1 X45.013 Y16.258 E45.02505
G1 X30.518 Y1.763 E46.58939
G1 X30.515 Y1.205 E46.63198
G1 X45.527 Y16.217 E48.25207
G1 X46.040 Y16.175 E48.29138
G1 X30.512 Y0.646 E49.96720
G1 X30.508 Y0.088 E50.00979
G1 X46.554 Y16.134 E51.74136
G1 X47.067 Y16.092 E51.78067
G1 X30.505 Y-0.470 E53.56798
G1 X30.509 Y-1.021 E53.61006
G1 X47.581 Y16.050 E55.45239
G1 X48.094 Y16.009 E55.49170
G1 X30.517 Y-1.568 E57.38856
G1 X30.525 Y-2.115 E57.43030
G1 X48.607 Y15.967 E59.38170
G1 X49.121 Y15.925 E59.42100
G1 X30.533 Y-2.662 E61.42693
G1 X30.541 Y-3.209 E61.46867
G1 X49.634 Y15.884 E63.52913
G1 X50.149 Y15.844 E63.56854
G1 X30.549 Y-3.756 E65.68369
G1 X30.558 Y-4.303 E65.72543
G1 X50.666 Y15.805 E67.89545
G1 X51.182 Y15.767 E67.93498
G1 X30.575 Y-4.840 E70.15882
G1 X30.594 Y-5.376 E70.19976
G1 X51.699 Y15.728 E72.47731
G1 X52.215 Y15.690 E72.51684
G1 X30.613 Y-5.912 E74.84809
G1 X30.632 Y-6.449 E74.88903
G1 X52.732 Y15.651 E77.27399
G1 X53.248 Y15.613 E77.31352
G1 X30.651 Y-6.985 E79.75218
G1 X30.672 Y-7.519 E79.79298
G1 X53.765 Y15.574 E82.28514
G1 X54.281 Y15.536 E82.32466
G1 X30.700 Y-8.046 E84.86951
G1 X30.728 Y-8.572 E84.90976
G1 X54.798 Y15.497 E87.50729
G1 X55.314 Y15.458 E87.54682
G1 X30.757 Y-9.099 E90.19703
G1 X30.785 Y-9.626 E90.23729
G1 X55.831 Y15.420 E92.94019
G1 X56.347 Y15.381 E92.97972
G1 X30.813 Y-10.153 E95.73531
G1 X30.846 Y-10.675 E95.77525
G1 X56.864 Y15.343 E98.58307
G1 X57.380 Y15.304 E98.62259
G1 X30.884 Y-11.192 E101.48201
G1 X30.923 Y-11.708 E101.52155
G1 X57.897 Y15.266 E104.43257
G1 X58.414 Y15.227 E104.47210
G1 X30.961 Y-12.225 E107.43472
G1 X30.999 Y-12.742 E107.47426
G1 X58.930 Y15.189 E110.48848
G1 X59.448 Y15.151 E110.52808
G1 X31.038 Y-13.259 E113.59401
G1 X31.076 Y-13.775 E113.63355
G1 X59.967 Y15.116 E116.75138
G1 X60.486 Y15.080 E116.79110
G1 X31.118 Y-14.288 E119.96044
G1 X31.167 Y-14.795 E119.99925
G1 X61.005 Y15.044 E123.21937
G1 X61.525 Y15.008 E123.25909
G1 X31.215 Y-15.301 E126.53000
G1 X31.264 Y-15.807 E126.56882
G1 X62.044 Y14.972 E129.89051
G1 X62.563 Y14.937 E129.93023
G1 X31.313 Y-16.314 E133.30271
G1 X31.361 Y-16.820 E133.34153
G1 X63.082 Y14.901 E136.76479
G1 X63.602 Y14.865 E136.80451
G1 X31.446 Y-17.290 E140.27468
G1 X31.934 Y-17.358 E140.31226
G1 X64.121 Y14.829 E143.78583
G1 X64.640 Y14.794 E143.82555
G1 X32.542 Y-17.305 E147.28957
G1 X33.149 Y-17.252 E147.33612
G1 X65.160 Y14.758 E150.79060
G1 X65.679 Y14.722 E150.83032
G1 X33.757 Y-17.200 E154.27527
G1 X34.365 Y-17.147 E154.32181
G1 X66.198 Y14.686 E157.75722
G1 X66.717 Y14.651 E157.79694
G1 X34.972 Y-17.095 E161.22281
G1 X35.580 Y-17.042 E161.26936
G1 X67.237 Y14.615 E164.68569
G1 X67.756 Y14.579 E164.72541
G1 X36.188 Y-16.989 E168.13220
G1 X36.795 Y-16.937 E168.17874
G1 X68.275 Y14.543 E171.57600
G1 X68.794 Y14.507 E171.61572
G1 X37.403 Y-16.884 E175.00343
G1 X38.011 Y-16.831 E175.04997
G1 X69.288 Y14.446 E178.42536
G1 X69.467 Y14.070 E178.45713
G1 X38.618 Y-16.779 E181.78627
G1 X39.226 Y-16.726 E181.83282
G1 X69.416 Y13.463 E185.09082
G1 X69.364 Y12.857 E185.13728
G1 X39.834 Y-16.674 E188.32414
G1 X40.441 Y-16.621 E188.37069
G1 X69.312 Y12.250 E191.48641
G1 X69.261 Y11.644 E191.53287
G1 X41.049 Y-16.568 E194.57746
G1 X41.657 Y-16.516 E194.62400
G1 X69.209 Y11.037 E197.59745
G1 X69.158 Y10.431 E197.64390
G1 X42.261 Y-16.466 E200.54655
G1 X42.865 Y-16.417 E200.59278
G1 X69.118 Y9.836 E203.42600
G1 X69.081 Y9.244 E203.47130
G1 X43.469 Y-16.369 E206.23533
G1 X44.073 Y-16.320 E206.28156
G1 X69.044 Y8.651 E208.97639
G1 X69.006 Y8.059 E209.02169
G1 X44.676 Y-16.271 E211.64733
G1 X45.280 Y-16.222 E211.69355
G1 X68.969 Y7.467 E214.25000
G1 X68.942 Y6.884 E214.29450
G1 X45.884 Y-16.173 E216.78281
G1 X46.488 Y-16.125 E216.82904
G1 X68.919 Y6.306 E219.24976
G1 X68.897 Y5.729 E219.29387
G1 X47.092 Y-16.076 E221.64700
G1 X47.696 Y-16.027 E221.69323
G1 X68.874 Y5.151 E223.97877
G1 X68.852 Y4.574 E224.02287
G1 X48.300 Y-15.978 E226.24083
G1 X48.903 Y-15.929 E226.28705
G1 X68.829 Y3.996 E228.43742
G1 X68.814 Y3.426 E228.48099
G1 X49.507 Y-15.881 E230.56449
G1 X50.109 Y-15.834 E230.61051
G1 X68.806 Y2.863 E232.62833
G1 X68.799 Y2.301 E232.67125
G1 X50.708 Y-15.790 E234.62355
G1 X51.308 Y-15.745 E234.66945
G1 X68.792 Y1.739 E236.55623
G1 X68.784 Y1.176 E236.59915
G1 X51.908 Y-15.700 E238.42041
G1 X52.508 Y-15.655 E238.46631
G1 X68.777 Y0.614 E240.22206
G1 X68.771 Y0.052 E240.26492
G1 X53.108 Y-15.611 E241.95524
G1 X53.707 Y-15.566 E242.00114
G1 X68.778 Y-0.495 E243.62749
G1 X68.785 Y-1.043 E243.66931
G1 X54.307 Y-15.521 E245.23170
G1 X54.907 Y-15.476 E245.27760
G1 X68.792 Y-1.591 E246.77603
G1 X68.799 Y-2.139 E246.81785
G1 X55.507 Y-15.431 E248.25232
G1 X56.107 Y-15.387 E248.29821
G1 X68.806 Y-2.687 E249.66872
G1 X68.813 Y-3.235 E249.71054
G1 X56.706 Y-15.342 E251.01708
G1 X57.306 Y-15.297 E251.06298
G1 X68.827 Y-3.776 E252.30629
G1 X68.848 Y-4.311 E252.34709
G1 X57.906 Y-15.252 E253.52791
G1 X58.506 Y-15.208 E253.57381
G1 X68.869 Y-4.845 E254.69215
G1 X68.889 Y-5.379 E254.73295
G1 X59.105 Y-15.164 E255.78892
G1 X59.701 Y-15.123 E255.83452
G1 X68.910 Y-5.913 E256.82840
G1 X68.931 Y-6.448 E256.86920
G1 X60.297 Y-15.082 E257.80099
G1 X60.893 Y-15.041 E257.84659
G1 X68.952 Y-6.982 E258.71629
G1 X68.982 Y-7.507 E258.75641
G1 X61.489 Y-15.000 E259.56503
G1 X62.085 Y-14.959 E259.61063
G1 X69.015 Y-8.029 E260.35847
G1 X69.048 Y-8.551 E260.39839
G1 X62.681 Y-14.917 E261.08545
G1 X63.277 Y-14.876 E261.13105
G1 X69.081 Y-9.073 E261.75733
G1 X69.114 Y-9.595 E261.79725
G1 X63.874 Y-14.835 E262.36275
G1 X64.470 Y-14.794 E262.40835
G1 X69.147 Y-10.117 E262.91306
G1 X69.189 Y-10.630 E262.95232
G1 X65.066 Y-14.753 E263.39726
G1 X65.662 Y-14.712 E263.44286
G1 X69.232 Y-11.142 E263.82816
G1 X69.276 Y-11.653 E263.86734
G1 X66.258 Y-14.671 E264.19299
G1 X66.854 Y-14.630 E264.23859
G1 X69.319 Y-12.165 E264.50460
G1 X69.363 Y-12.676 E264.54378
G1 X67.450 Y-14.589 E264.75015
G1 X68.047 Y-14.548 E264.79575
G1 X69.406 Y-13.188 E264.94247
G1 X69.450 Y-13.700 E264.98165
G1 X68.643 Y-14.507 E265.06872
G1 X69.283 Y-14.421 E265.11802
G1 X69.493 Y-14.211 E265.14068
G1 Z0.496 F3600.000
M104 S270 ; set temperature
M140 S30 ; wait for bed temperature to be reached
G1 Z0.896 F3600.000
G1 X50.683 Y16.151 F3600.000
G1 X41.226 Y16.912 E265.60804 F3000.000
G1 X32.124 Y17.712 E266.05811
G1 X31.702 Y17.720 E266.07889
G1 X31.542 Y17.708 E266.08682
G1 X31.319 Y17.652 E266.09811
G1 X31.226 Y17.583 E266.10384
G1 X31.182 Y17.518 E266.10767
G1 X31.095 Y17.288 E266.11980
G1 X31.025 Y16.922 E266.13816
G1 X30.699 Y13.449 E266.30999
G1 X30.518 Y11.011 E266.43041
G1 X30.406 Y9.181 E266.52072
G1 X30.243 Y5.510 E266.70172
G1 X30.169 Y2.450 E266.85252
G1 X30.152 Y-0.612 E267.00335
G1 X30.207 Y-4.287 E267.18442
G1 X30.314 Y-7.346 E267.33519
G1 X30.479 Y-10.401 E267.48587
G1 X30.750 Y-14.059 E267.66658
G1 X31.025 Y-16.921 E267.80822
G1 X31.095 Y-17.288 E267.82661
G1 X31.182 Y-17.518 E267.83874
G1 X31.226 Y-17.583 E267.84257
G1 X31.319 Y-17.652 E267.84830
G1 X31.532 Y-17.706 E267.85909
G1 X31.906 Y-17.721 E267.87756
G1 X41.890 Y-16.856 E268.37117
G1 X49.857 Y-16.212 E268.76492 F3000.000
G1 X59.034 Y-15.528 E269.21824
G1 X68.925 Y-14.846 E269.70663
G1 X69.515 Y-14.755 E269.73605
G1 X69.748 Y-14.667 E269.74833
G1 X69.793 Y-14.627 E269.75128
G1 X69.826 Y-14.541 E269.75583
G1 X69.847 Y-14.300 E269.76772
G1 X69.501 Y-10.227 E269.96911
G1 X69.308 Y-7.162 E270.12037
G1 X69.169 Y-3.583 E270.29682
G1 X69.122 Y-0.000 E270.47332
G1 X69.169 Y3.583 E270.64982
G1 X69.308 Y7.162 E270.82627
G1 X69.501 Y10.227 E270.97753
G1 X69.847 Y14.300 E271.17892
G1 X69.826 Y14.541 E271.19081
G1 X69.793 Y14.627 E271.19535
G1 X69.748 Y14.667 E271.19831
G1 X69.515 Y14.755 E271.21059
G1 X68.925 Y14.846 E271.24000
G1 X59.215 Y15.515 E271.71946
G1 X50.757 Y16.145 E272.13724
G1 X50.781 Y16.458 F3600.000
G1 X41.252 Y17.225 E272.60813 F750.000
G1 X32.141 Y18.026 E273.05867
G1 X31.693 Y18.035 E273.08075
G1 X31.500 Y18.019 E273.09027
G1 X31.188 Y17.939 E273.10617
G1 X31.075 Y17.873 E273.11258
G1 X30.985 Y17.787 E273.11876
G1 X30.908 Y17.673 E273.12553
G1 X30.790 Y17.365 E273.14175
G1 X30.714 Y16.966 E273.16177
G1 X30.386 Y13.475 E273.33448
G1 X30.205 Y11.032 E273.45516
G1 X30.092 Y9.198 E273.54569
G1 X29.929 Y5.521 E273.72697
G1 X29.855 Y2.455 E273.87808
G1 X29.838 Y-0.613 E274.02921
G1 X29.893 Y-4.295 E274.21059
G1 X30.000 Y-7.360 E274.36166
G1 X30.165 Y-10.421 E274.51265
G1 X30.437 Y-14.086 E274.69368
G1 X30.714 Y-16.966 E274.83621
G1 X30.790 Y-17.365 E274.85623
G1 X30.842 Y-17.530 E274.86478
G1 X30.985 Y-17.787 E274.87921
G1 X31.075 Y-17.873 E274.88539
G1 X31.188 Y-17.939 E274.89180
G1 X31.497 Y-18.019 E274.90751
G1 X31.914 Y-18.036 E274.92808
G1 X41.916 Y-17.169 E275.42262
G1 X49.881 Y-16.526 E275.81628 F750.000
G1 X59.056 Y-15.841 E276.26950
G1 X68.960 Y-15.158 E276.75850
G1 X69.596 Y-15.061 E276.79020
G1 X69.897 Y-14.946 E276.80609
G1 X69.988 Y-14.882 E276.81154
G1 X70.055 Y-14.805 E276.81660
G1 X70.137 Y-14.599 E276.82749
G1 X70.162 Y-14.300 E276.84226
G1 X69.814 Y-10.203 E277.04481
G1 X69.622 Y-7.146 E277.19571
G1 X69.483 Y-3.575 E277.37177
G1 X69.436 Y-0.000 E277.54787
G1 X69.483 Y3.575 E277.72397
G1 X69.622 Y7.146 E277.90004
G1 X69.814 Y10.203 E278.05094
G1 X70.162 Y14.300 E278.25349
G1 X70.137 Y14.599 E278.26825
G1 X70.055 Y14.805 E278.27915
G1 X69.988 Y14.882 E278.28420
G1 X69.897 Y14.946 E278.28965
G1 X69.596 Y15.061 E278.30554
G1 X68.960 Y15.158 E278.33724
G1 X59.237 Y15.828 E278.81730
G1 X50.855 Y16.453 E279.23134
G1 X50.498 Y16.046 F3600.000
G1 X69.463 Y14.549 F3600.000
G1 X69.655 Y14.356 E279.24477 F1200.000
G1 X69.640 Y13.926 E279.26605
G1 X68.912 Y14.654 E279.31694
G1 X68.426 Y14.695 E279.34104
G1 X69.605 Y13.515 E279.42346
G1 X69.570 Y13.104 E279.44384
G1 X67.947 Y14.727 E279.55729
G1 X67.468 Y14.760 E279.58101
G1 X69.535 Y12.694 E279.72547
G1 X69.500 Y12.283 E279.74585
G1 X66.989 Y14.793 E279.92134
G1 X66.511 Y14.826 E279.94506
G1 X69.465 Y11.872 E280.15157
G1 X69.430 Y11.461 E280.17195
G1 X66.032 Y14.859 E280.40948
G1 X65.553 Y14.892 E280.43320
G1 X69.395 Y11.050 E280.70176
G1 X69.360 Y10.639 E280.72214
G1 X65.074 Y14.925 E281.02172
G1 X64.596 Y14.958 E281.04543
G1 X69.326 Y10.228 E281.37604
G1 X69.298 Y9.810 E281.39675
G1 X64.117 Y14.991 E281.75890
G1 X63.638 Y15.024 E281.78262
G1 X69.272 Y9.391 E282.17638
G1 X69.245 Y8.971 E282.19714
G1 X63.159 Y15.057 E282.62252
G1 X62.681 Y15.090 E282.64623
G1 X69.219 Y8.552 E283.10322
G1 X69.192 Y8.133 E283.12399
G1 X62.202 Y15.123 E283.61259
G1 X61.723 Y15.156 E283.63631
G1 X69.166 Y7.713 E284.15653
G1 X69.139 Y7.294 E284.17730
G1 X61.244 Y15.189 E284.72913
G1 X60.766 Y15.222 E284.75285
G1 X69.118 Y6.869 E285.33667
G1 X69.102 Y6.440 E285.35790
G1 X60.287 Y15.255 E285.97402
G1 X59.808 Y15.288 E285.99774
G1 X69.085 Y6.011 E286.64616
G1 X69.068 Y5.582 E286.66738
G1 X59.329 Y15.321 E287.34809
G1 X58.849 Y15.356 E287.37190
G1 X69.052 Y5.153 E288.08503
G1 X69.035 Y4.724 E288.10625
G1 X58.367 Y15.392 E288.85188
G1 X57.886 Y15.428 E288.87576
G1 X69.018 Y4.295 E289.65389
G1 X69.002 Y3.866 E289.67511
