; generated by Slic3r 1.2.9 on 2017-06-20 at 09:48:57

; external perimeters extrusion width = 0.40mm
; perimeters extrusion width = 0.40mm
; infill extrusion width = 0.40mm
; solid infill extrusion width = 0.40mm
; top infill extrusion width = 0.40mm
; support material extrusion width = 0.40mm

M107
M190 S77 ; set bed temperature
M104 S280 ; set temperature

G1 Z5 F5000 ; lift nozzle

M109 S280 ; wait for temperature to be reached
G21 ; set units to millimeters
G90 ; use absolute coordinates
M82 ; use absolute distances for extrusion
G92 E0
G1 Z0.496 F3600.000
G1 E-2.00000 F2400.00000
G92 E0
G1 X74.362 Y0.892 F3600.000
G1 E2.00000 F2400.00000
G1 X74.362 Y24.362 E3.77770 F1500.000
G1 X25.638 Y24.362 E7.46824 F1500.000
G1 X25.638 Y-24.362 E11.15877
G1 X74.362 Y-24.362 E14.84930
G1 X74.362 Y0.817 E16.75645
G1 X74.752 Y0.817 F3600.000
G1 X74.752 Y24.752 E18.56934 F1500.000
G1 X25.248 Y24.752 E22.31889 F1500.000
G1 X25.248 Y-24.752 E26.06843
G1 X74.752 Y-24.752 E29.81798
G1 X74.752 Y0.742 E31.74896
G1 X74.319 Y1.067 F3600.000
G1 X74.031 Y0.626 F3600.000
G1 X73.831 Y0.826 E31.77037 F1500.000
G1 X74.031 Y1.026 E31.79179
G1 X74.031 Y1.577 F3600.000
G1 X73.831 Y1.377 E31.81320 F1500.000
G1 X73.556 Y1.653 E31.84271
G1 X74.031 Y2.128 E31.89363
G1 X74.031 Y2.679 F3600.000
G1 X73.831 Y2.479 E31.91504 F1500.000
G1 X73.556 Y2.755 E31.94455
G1 X73.831 Y3.030 E31.97405
G1 X73.556 Y3.306 E32.00356
G1 X73.281 Y3.030 E32.03307
G1 X73.005 Y3.306 E32.06257
G1 X73.556 Y3.856 E32.12158
G1 X73.831 Y3.581 E32.15109
G1 X74.031 Y3.781 E32.17250
G1 X74.031 Y3.932 F3600.000
G1 X73.831 Y4.132 E32.19392 F1500.000
G1 X74.031 Y4.332 E32.21533
G1 X74.031 Y4.883 F3600.000
G1 X73.831 Y4.683 E32.23675 F1500.000
G1 X73.556 Y4.958 E32.26625
G1 X73.831 Y5.234 E32.29576
G1 X73.556 Y5.509 E32.32526
G1 X73.281 Y5.234 E32.35477
G1 X73.005 Y5.509 E32.38428
G1 X73.556 Y6.060 E32.44329
G1 X73.831 Y5.785 E32.47279
G1 X74.031 Y5.985 E32.49421
G1 X74.031 Y6.136 F3600.000
G1 X73.281 Y6.886 E32.57464 F1500.000
G1 X73.005 Y6.611 E32.60414
G1 X73.281 Y6.336 E32.63365
G1 X72.730 Y5.785 E32.69266
G1 X72.454 Y6.060 E32.72217
G1 X72.730 Y6.336 E32.75167
G1 X72.454 Y6.611 E32.78118
G1 X72.179 Y6.336 E32.81068
G1 X71.903 Y6.611 E32.84019
G1 X72.454 Y7.162 E32.89920
G1 X72.730 Y6.886 E32.92871
G1 X73.005 Y7.162 E32.95821
G1 X72.730 Y7.437 E32.98772
G1 X73.281 Y7.988 E33.04673
G1 X73.556 Y7.713 E33.07624
G1 X73.281 Y7.437 E33.10574
G1 X73.831 Y6.886 E33.16475
G1 X74.031 Y7.086 E33.18617
G1 X74.031 Y7.237 F3600.000
G1 X73.831 Y7.437 E33.20758 F1500.000
G1 X74.031 Y7.637 E33.22900
G1 X74.031 Y8.188 F3600.000
G1 X73.831 Y7.988 E33.25041 F1500.000
G1 X73.556 Y8.264 E33.27992
G1 X74.031 Y8.739 E33.33084
G1 X74.031 Y9.290 F3600.000
G1 X73.831 Y9.090 E33.35225 F1500.000
G1 X73.556 Y9.366 E33.38176
G1 X73.831 Y9.641 E33.41127
G1 X73.556 Y9.917 E33.44077
G1 X73.281 Y9.641 E33.47028
G1 X73.005 Y9.917 E33.49978
G1 X73.556 Y10.467 E33.55880
G1 X73.831 Y10.192 E33.58830
G1 X74.031 Y10.392 E33.60972
G1 X74.031 Y10.543 F3600.000
G1 X73.281 Y11.294 E33.69014 F1500.000
G1 X73.005 Y11.018 E33.71965
G1 X73.281 Y10.743 E33.74915
G1 X72.730 Y10.192 E33.80817
G1 X72.454 Y10.467 E33.83767
G1 X72.730 Y10.743 E33.86718
G1 X72.454 Y11.018 E33.89668
G1 X72.179 Y10.743 E33.92619
G1 X71.903 Y11.018 E33.95570
G1 X72.454 Y11.569 E34.01471
G1 X72.730 Y11.294 E34.04421
G1 X73.005 Y11.569 E34.07372
G1 X72.730 Y11.845 E34.10323
G1 X73.281 Y12.396 E34.16224
G1 X73.556 Y12.120 E34.19174
G1 X73.281 Y11.845 E34.22125
G1 X73.831 Y11.294 E34.28026
G1 X74.031 Y11.494 E34.30168
G1 X74.031 Y11.645 F3600.000
G1 X73.831 Y11.845 E34.32309 F1500.000
G1 X74.031 Y12.045 E34.34450
G1 X74.031 Y12.596 F3600.000
G1 X73.831 Y12.396 E34.36592 F1500.000
G1 X73.556 Y12.671 E34.39542
G1 X73.831 Y12.947 E34.42493
G1 X73.556 Y13.222 E34.45444
G1 X73.281 Y12.947 E34.48394
G1 X73.005 Y13.222 E34.51345
G1 X73.281 Y13.497 E34.54295
G1 X72.730 Y14.048 E34.60197
G1 X72.454 Y13.773 E34.63147
G1 X72.730 Y13.497 E34.66098
G1 X72.454 Y13.222 E34.69048
G1 X72.179 Y13.497 E34.71999
G1 X71.903 Y13.222 E34.74950
G1 X72.454 Y12.671 E34.80851
G1 X72.730 Y12.947 E34.83801
G1 X73.005 Y12.671 E34.86752
G1 X72.454 Y12.120 E34.92653
G1 X72.179 Y12.396 E34.95604
G1 X71.903 Y12.120 E34.98554
G1 X72.179 Y11.845 E35.01505
G1 X71.628 Y11.294 E35.07406
G1 X71.352 Y11.569 E35.10357
G1 X71.628 Y11.845 E35.13307
G1 X71.352 Y12.120 E35.16258
G1 X71.077 Y11.845 E35.19209
G1 X70.801 Y12.120 E35.22159
G1 X71.352 Y12.671 E35.28060
G1 X71.628 Y12.396 E35.31011
G1 X71.903 Y12.671 E35.33962
G1 X71.077 Y13.497 E35.42813
G1 X70.801 Y13.222 E35.45764
G1 X71.077 Y12.947 E35.48715
G1 X70.526 Y12.396 E35.54616
G1 X70.250 Y12.671 E35.57566
G1 X70.526 Y12.947 E35.60517
G1 X70.250 Y13.222 E35.63468
G1 X69.975 Y12.947 E35.66418
G1 X69.700 Y13.222 E35.69369
G1 X70.250 Y13.773 E35.75270
G1 X70.526 Y13.497 E35.78221
G1 X70.801 Y13.773 E35.81171
G1 X70.526 Y14.048 E35.84122
G1 X71.077 Y14.599 E35.90023
G1 X71.352 Y14.324 E35.92973
G1 X71.077 Y14.048 E35.95924
G1 X71.628 Y13.497 E36.01825
G1 X71.903 Y13.773 E36.04776
G1 X71.628 Y14.048 E36.07726
G1 X71.903 Y14.324 E36.10677
G1 X72.179 Y14.048 E36.13628
G1 X72.454 Y14.324 E36.16578
G1 X71.903 Y14.875 E36.22479
G1 X71.628 Y14.599 E36.25430
G1 X71.352 Y14.875 E36.28381
G1 X71.903 Y15.426 E36.34282
G1 X72.179 Y15.150 E36.37232
G1 X72.454 Y15.426 E36.40183
G1 X72.179 Y15.701 E36.43134
G1 X72.730 Y16.252 E36.49035
G1 X73.005 Y15.977 E36.51985
G1 X72.730 Y15.701 E36.54936
G1 X73.005 Y15.426 E36.57887
G1 X73.281 Y15.701 E36.60837
G1 X73.556 Y15.426 E36.63788
G1 X73.005 Y14.875 E36.69689
G1 X72.730 Y15.150 E36.72640
G1 X72.454 Y14.875 E36.75590
G1 X73.005 Y14.324 E36.81491
G1 X73.281 Y14.599 E36.84442
G1 X73.556 Y14.324 E36.87393
G1 X73.281 Y14.048 E36.90343
G1 X73.831 Y13.497 E36.96244
G1 X74.031 Y13.697 E36.98386
G1 X74.031 Y13.848 F3600.000
G1 X73.831 Y14.048 E37.00527 F1500.000
G1 X74.031 Y14.248 E37.02669
G1 X74.031 Y14.799 F3600.000
G1 X73.831 Y14.599 E37.04810 F1500.000
G1 X73.556 Y14.875 E37.07761
G1 X74.031 Y15.350 E37.12853
G1 X74.031 Y15.901 F3600.000
G1 X73.831 Y15.701 E37.14994 F1500.000
G1 X73.556 Y15.977 E37.17945
G1 X73.831 Y16.252 E37.20895
G1 X73.556 Y16.528 E37.23846
G1 X73.281 Y16.252 E37.26797
G1 X73.005 Y16.528 E37.29747
G1 X73.556 Y17.078 E37.35648
G1 X73.831 Y16.803 E37.38599
G1 X74.031 Y17.003 E37.40740
G1 X74.031 Y17.154 F3600.000
G1 X73.281 Y17.905 E37.48783 F1500.000
G1 X73.005 Y17.629 E37.51734
G1 X73.281 Y17.354 E37.54684
G1 X72.730 Y16.803 E37.60585
G1 X72.454 Y17.078 E37.63536
G1 X72.730 Y17.354 E37.66487
G1 X72.454 Y17.629 E37.69437
G1 X72.179 Y17.354 E37.72388
G1 X71.903 Y17.629 E37.75338
G1 X72.454 Y18.180 E37.81240
G1 X72.730 Y17.905 E37.84190
G1 X73.005 Y18.180 E37.87141
G1 X72.454 Y18.731 E37.93042
G1 X72.179 Y18.456 E37.95993
G1 X71.903 Y18.731 E37.98943
G1 X72.179 Y19.007 E38.01894
G1 X71.628 Y19.558 E38.07795
G1 X71.352 Y19.282 E38.10746
G1 X71.628 Y19.007 E38.13696
G1 X71.352 Y18.731 E38.16647
G1 X71.077 Y19.007 E38.19597
G1 X70.801 Y18.731 E38.22548
G1 X71.352 Y18.180 E38.28449
G1 X71.628 Y18.456 E38.31400
G1 X71.903 Y18.180 E38.34350
G1 X71.077 Y17.354 E38.43202
G1 X70.801 Y17.629 E38.46153
G1 X71.077 Y17.905 E38.49103
G1 X70.526 Y18.456 E38.55005
G1 X70.250 Y18.180 E38.57955
G1 X70.526 Y17.905 E38.60906
G1 X70.250 Y17.629 E38.63856
G1 X69.975 Y17.905 E38.66807
G1 X69.700 Y17.629 E38.69758
G1 X70.250 Y17.078 E38.75659
G1 X70.526 Y17.354 E38.78609
G1 X70.801 Y17.078 E38.81560
G1 X70.526 Y16.803 E38.84511
G1 X71.077 Y16.252 E38.90412
G1 X71.352 Y16.528 E38.93362
G1 X71.077 Y16.803 E38.96313
G1 X71.628 Y17.354 E39.02214
G1 X71.903 Y17.078 E39.05165
G1 X71.628 Y16.803 E39.08115
G1 X71.903 Y16.528 E39.11066
G1 X72.179 Y16.803 E39.14016
G1 X72.454 Y16.528 E39.16967
G1 X71.903 Y15.977 E39.22868
G1 X71.628 Y16.252 E39.25819
G1 X71.352 Y15.977 E39.28769
G1 X71.628 Y15.701 E39.31720
G1 X71.077 Y15.150 E39.37621
G1 X70.801 Y15.426 E39.40572
G1 X71.077 Y15.701 E39.43522
G1 X70.526 Y16.252 E39.49424
G1 X70.250 Y15.977 E39.52374
G1 X70.526 Y15.701 E39.55325
G1 X70.250 Y15.426 E39.58275
G1 X69.975 Y15.701 E39.61226
G1 X69.700 Y15.426 E39.64177
G1 X70.250 Y14.875 E39.70078
G1 X70.526 Y15.150 E39.73028
G1 X70.801 Y14.875 E39.75979
G1 X70.250 Y14.324 E39.81880
G1 X69.975 Y14.599 E39.84831
G1 X69.700 Y14.324 E39.87781
G1 X69.975 Y14.048 E39.90732
G1 X69.424 Y13.497 E39.96633
G1 X69.149 Y13.773 E39.99584
G1 X69.424 Y14.048 E40.02534
G1 X69.149 Y14.324 E40.05485
G1 X68.873 Y14.048 E40.08436
G1 X68.598 Y14.324 E40.11386
G1 X69.149 Y14.875 E40.17287
G1 X69.424 Y14.599 E40.20238
G1 X69.700 Y14.875 E40.23189
G1 X68.873 Y15.701 E40.32040
G1 X68.598 Y15.426 E40.34991
G1 X68.873 Y15.150 E40.37942
G1 X68.322 Y14.599 E40.43843
G1 X68.047 Y14.875 E40.46793
G1 X68.322 Y15.150 E40.49744
G1 X68.047 Y15.426 E40.52695
G1 X67.771 Y15.150 E40.55645
G1 X67.496 Y15.426 E40.58596
G1 X68.047 Y15.977 E40.64497
G1 X68.322 Y15.701 E40.67448
G1 X68.598 Y15.977 E40.70398
G1 X68.322 Y16.252 E40.73349
G1 X68.873 Y16.803 E40.79250
G1 X69.149 Y16.528 E40.82201
G1 X68.873 Y16.252 E40.85151
G1 X69.424 Y15.701 E40.91052
G1 X69.700 Y15.977 E40.94003
G1 X69.424 Y16.252 E40.96954
G1 X69.700 Y16.528 E40.99904
G1 X69.975 Y16.252 E41.02855
G1 X70.250 Y16.528 E41.05805
G1 X69.700 Y17.078 E41.11707
G1 X69.424 Y16.803 E41.14657
G1 X69.149 Y17.078 E41.17608
G1 X69.424 Y17.354 E41.20558
G1 X69.149 Y17.629 E41.23509
G1 X68.873 Y17.354 E41.26460
G1 X68.598 Y17.629 E41.29410
G1 X68.873 Y17.905 E41.32361
G1 X68.322 Y18.456 E41.38262
G1 X68.047 Y18.180 E41.41212
G1 X68.322 Y17.905 E41.44163
G1 X68.047 Y17.629 E41.47114
G1 X67.771 Y17.905 E41.50064
G1 X67.496 Y17.629 E41.53015
G1 X68.047 Y17.078 E41.58916
G1 X68.322 Y17.354 E41.61867
G1 X68.598 Y17.078 E41.64817
G1 X68.047 Y16.528 E41.70718
G1 X67.771 Y16.803 E41.73669
G1 X67.496 Y16.528 E41.76620
G1 X67.771 Y16.252 E41.79570
G1 X67.220 Y15.701 E41.85471
G1 X66.945 Y15.977 E41.88422
G1 X67.220 Y16.252 E41.91373
G1 X66.945 Y16.528 E41.94323
G1 X66.669 Y16.252 E41.97274
G1 X66.394 Y16.528 E42.00224
G1 X66.945 Y17.078 E42.06126
G1 X67.220 Y16.803 E42.09076
G1 X67.496 Y17.078 E42.12027
G1 X66.669 Y17.905 E42.20879
G1 X66.394 Y17.629 E42.23829
G1 X66.669 Y17.354 E42.26780
G1 X66.119 Y16.803 E42.32681
G1 X65.843 Y17.078 E42.35632
G1 X66.119 Y17.354 E42.38582
G1 X65.843 Y17.629 E42.41533
G1 X65.568 Y17.354 E42.44483
G1 X65.292 Y17.629 E42.47434
G1 X65.843 Y18.180 E42.53335
G1 X66.119 Y17.905 E42.56286
G1 X66.394 Y18.180 E42.59236
G1 X66.119 Y18.456 E42.62187
G1 X66.669 Y19.007 E42.68088
G1 X66.945 Y18.731 E42.71039
G1 X66.669 Y18.456 E42.73989
G1 X67.220 Y17.905 E42.79891
G1 X67.496 Y18.180 E42.82841
G1 X67.220 Y18.456 E42.85792
G1 X67.496 Y18.731 E42.88742
G1 X67.771 Y18.456 E42.91693
G1 X68.047 Y18.731 E42.94644
G1 X67.496 Y19.282 E43.00545
G1 X67.220 Y19.007 E43.03495
G1 X66.945 Y19.282 E43.06446
G1 X67.496 Y19.833 E43.12347
G1 X67.771 Y19.558 E43.15298
G1 X68.047 Y19.833 E43.18248
G1 X67.771 Y20.108 E43.21199
G1 X68.322 Y20.659 E43.27100
G1 X68.598 Y20.384 E43.30051
G1 X68.322 Y20.108 E43.33001
G1 X68.598 Y19.833 E43.35952
G1 X68.873 Y20.108 E43.38903
G1 X69.149 Y19.833 E43.41853
G1 X68.598 Y19.282 E43.47754
G1 X68.322 Y19.558 E43.50705
G1 X68.047 Y19.282 E43.53656
G1 X68.598 Y18.731 E43.59557
G1 X68.873 Y19.007 E43.62507
G1 X69.149 Y18.731 E43.65458
G1 X68.873 Y18.456 E43.68409
G1 X69.424 Y17.905 E43.74310
G1 X69.700 Y18.180 E43.77260
G1 X69.424 Y18.456 E43.80211
G1 X69.700 Y18.731 E43.83162
G1 X69.975 Y18.456 E43.86112
G1 X70.250 Y18.731 E43.89063
G1 X69.700 Y19.282 E43.94964
G1 X69.424 Y19.007 E43.97914
G1 X69.149 Y19.282 E44.00865
G1 X69.975 Y20.108 E44.09717
G1 X70.250 Y19.833 E44.12667
G1 X69.975 Y19.558 E44.15618
G1 X70.526 Y19.007 E44.21519
G1 X70.801 Y19.282 E44.24470
G1 X70.526 Y19.558 E44.27420
G1 X70.801 Y19.833 E44.30371
G1 X71.077 Y19.558 E44.33322
G1 X71.352 Y19.833 E44.36272
G1 X70.801 Y20.384 E44.42173
G1 X70.526 Y20.108 E44.45124
G1 X70.250 Y20.384 E44.48075
G1 X70.526 Y20.659 E44.51025
G1 X69.975 Y21.210 E44.56926
G1 X69.700 Y20.935 E44.59877
G1 X69.975 Y20.659 E44.62828
G1 X69.424 Y20.108 E44.68729
G1 X69.149 Y20.384 E44.71679
G1 X69.424 Y20.659 E44.74630
G1 X69.149 Y20.935 E44.77581
G1 X68.873 Y20.659 E44.80531
G1 X68.598 Y20.935 E44.83482
G1 X69.149 Y21.486 E44.89383
G1 X69.424 Y21.210 E44.92334
G1 X69.700 Y21.486 E44.95284
G1 X69.424 Y21.761 E44.98235
G1 X69.975 Y22.312 E45.04136
G1 X70.250 Y22.037 E45.07087
G1 X69.975 Y21.761 E45.10037
G1 X70.526 Y21.210 E45.15938
G1 X70.801 Y21.486 E45.18889
G1 X70.526 Y21.761 E45.21840
G1 X70.801 Y22.037 E45.24790
G1 X71.077 Y21.761 E45.27741
G1 X71.352 Y22.037 E45.30691
G1 X70.801 Y22.588 E45.36593
G1 X70.526 Y22.312 E45.39543
G1 X70.250 Y22.588 E45.42494
G1 X70.801 Y23.139 E45.48395
G1 X71.077 Y22.863 E45.51346
G1 X71.352 Y23.139 E45.54296
G1 X71.077 Y23.414 E45.57247
G1 X71.628 Y23.965 E45.63148
G1 X71.903 Y23.689 E45.66099
G1 X71.628 Y23.414 E45.69049
G1 X71.903 Y23.139 E45.72000
G1 X72.179 Y23.414 E45.74950
G1 X72.454 Y23.139 E45.77901
G1 X71.903 Y22.588 E45.83802
G1 X71.628 Y22.863 E45.86753
G1 X71.352 Y22.588 E45.89703
G1 X72.179 Y21.761 E45.98555
G1 X72.454 Y22.037 E46.01506
G1 X72.179 Y22.312 E46.04456
G1 X72.730 Y22.863 E46.10357
G1 X73.005 Y22.588 E46.13308
G1 X72.730 Y22.312 E46.16259
G1 X73.005 Y22.037 E46.19209
G1 X73.281 Y22.312 E46.22160
G1 X73.556 Y22.037 E46.25110
G1 X73.005 Y21.486 E46.31012
G1 X72.730 Y21.761 E46.33962
G1 X72.454 Y21.486 E46.36913
G1 X72.730 Y21.210 E46.39863
G1 X72.179 Y20.659 E46.45765
G1 X71.903 Y20.935 E46.48715
G1 X72.179 Y21.210 E46.51666
G1 X71.628 Y21.761 E46.57567
G1 X71.352 Y21.486 E46.60518
G1 X71.628 Y21.210 E46.63468
G1 X71.352 Y20.935 E46.66419
G1 X71.077 Y21.210 E46.69369
G1 X70.801 Y20.935 E46.72320
G1 X71.352 Y20.384 E46.78221
G1 X71.628 Y20.659 E46.81172
G1 X71.903 Y20.384 E46.84122
G1 X71.628 Y20.108 E46.87073
G1 X72.179 Y19.558 E46.92974
G1 X72.454 Y19.833 E46.95925
G1 X72.179 Y20.108 E46.98875
G1 X72.730 Y20.659 E47.04777
G1 X73.005 Y20.384 E47.07727
G1 X72.730 Y20.108 E47.10678
G1 X73.005 Y19.833 E47.13628
G1 X73.281 Y20.108 E47.16579
G1 X73.556 Y19.833 E47.19530
G1 X73.005 Y19.282 E47.25431
G1 X72.730 Y19.558 E47.28381
G1 X72.454 Y19.282 E47.31332
G1 X73.005 Y18.731 E47.37233
G1 X73.281 Y19.007 E47.40184
G1 X73.556 Y18.731 E47.43134
G1 X73.281 Y18.456 E47.46085
G1 X73.831 Y17.905 E47.51986
G1 X74.031 Y18.105 E47.54128
G1 X74.031 Y18.256 F3600.000
G1 X73.831 Y18.456 E47.56269 F1500.000
G1 X74.031 Y18.656 E47.58410
G1 X74.031 Y19.207 F3600.000
G1 X73.831 Y19.007 E47.60552 F1500.000
G1 X73.556 Y19.282 E47.63502
G1 X74.031 Y19.757 E47.68595
G1 X74.031 Y20.308 F3600.000
G1 X73.831 Y20.108 E47.70736 F1500.000
G1 X73.556 Y20.384 E47.73687
G1 X73.831 Y20.659 E47.76637
G1 X73.556 Y20.935 E47.79588
G1 X73.281 Y20.659 E47.82538
G1 X73.005 Y20.935 E47.85489
G1 X73.556 Y21.486 E47.91390
G1 X73.831 Y21.210 E47.94341
G1 X74.031 Y21.410 E47.96482
G1 X74.031 Y21.561 F3600.000
G1 X73.831 Y21.761 E47.98624 F1500.000
G1 X74.031 Y21.961 E48.00765
G1 X74.031 Y22.512 F3600.000
G1 X73.831 Y22.312 E48.02906 F1500.000
G1 X73.556 Y22.588 E48.05857
G1 X73.831 Y22.863 E48.08808
G1 X73.556 Y23.139 E48.11758
G1 X73.281 Y22.863 E48.14709
G1 X73.005 Y23.139 E48.17659
G1 X73.556 Y23.689 E48.23561
G1 X73.831 Y23.414 E48.26511
G1 X74.031 Y23.614 E48.28653
G1 X74.031 Y23.765 F3600.000
G1 X73.765 Y24.031 E48.31506 F1500.000
G1 X73.214 Y24.031 F3600.000
G1 X73.281 Y23.965 E48.32217 F1500.000
G1 X72.730 Y23.414 E48.38118
G1 X72.454 Y23.689 E48.41069
G1 X72.730 Y23.965 E48.44020
G1 X72.663 Y24.031 E48.44731
G1 X72.245 Y24.031 F3600.000
G1 X72.179 Y23.965 E48.45443 F1500.000
G1 X72.112 Y24.031 E48.46154
G1 X71.143 Y24.031 F3600.000
G1 X71.077 Y23.965 E48.46866 F1500.000
G1 X71.010 Y24.031 E48.47577
G1 X69.909 Y24.031 F3600.000
G1 X70.250 Y23.689 E48.51239 F1500.000
G1 X70.526 Y23.965 E48.54190
G1 X70.801 Y23.689 E48.57141
G1 X70.250 Y23.139 E48.63042
G1 X69.975 Y23.414 E48.65992
G1 X69.700 Y23.139 E48.68943
G1 X69.975 Y22.863 E48.71894
G1 X69.424 Y22.312 E48.77795
G1 X69.149 Y22.588 E48.80745
G1 X69.424 Y22.863 E48.83696
