; generated by Slic3r 1.2.9 on 2017-06-19 at 19:22:20

; external perimeters extrusion width = 0.40mm
; perimeters extrusion width = 0.40mm
; infill extrusion width = 0.40mm
; solid infill extrusion width = 0.40mm
; top infill extrusion width = 0.40mm
; support material extrusion width = 0.40mm

M107
M190 S77 ; set bed temperature
M104 S280 ; set temperature

G1 Z5 F5000 ; lift nozzle

M109 S280 ; wait for temperature to be reached
G21 ; set units to millimeters
G90 ; use absolute coordinates
M82 ; use absolute distances for extrusion
G92 E0
G1 Z0.496 F3600.000
G1 E-2.00000 F2400.00000
G92 E0
G1 X40.927 Y0.638 F3600.000
G1 E2.00000 F2400.00000
G1 X49.362 Y0.638 E2.63892 F1500.000
G1 X49.362 Y49.362 E6.32945
G1 X0.638 Y49.362 E10.01999 F1500.000
G1 X0.638 Y0.638 E13.71052
G1 X40.852 Y0.638 E16.75645
G1 X40.852 Y0.248 F3600.000
G1 X49.752 Y0.248 E17.43056 F1500.000
G1 X49.752 Y49.752 E21.18010
G1 X0.248 Y49.752 E24.92965 F1500.000
G1 X0.248 Y0.248 E28.67920
G1 X40.777 Y0.248 E31.74896
G1 X41.102 Y0.681 F3600.000
G1 X40.634 Y0.969 F3600.000
G1 X40.568 Y1.035 E31.75607 F1500.000
G1 X41.119 Y1.586 E31.81509
G1 X41.394 Y1.311 E31.84459
G1 X41.119 Y1.035 E31.87410
G1 X41.185 Y0.969 E31.88121
G1 X41.603 Y0.969 F3600.000
G1 X41.669 Y1.035 E31.88833 F1500.000
G1 X41.736 Y0.969 E31.89545
G1 X42.838 Y0.969 F3600.000
G1 X42.771 Y1.035 E31.90256 F1500.000
G1 X43.322 Y1.586 E31.96157
G1 X43.598 Y1.311 E31.99108
G1 X43.322 Y1.035 E32.02058
G1 X43.389 Y0.969 E32.02770
G1 X43.807 Y0.969 F3600.000
G1 X43.873 Y1.035 E32.03482 F1500.000
G1 X43.940 Y0.969 E32.04193
G1 X44.909 Y0.969 F3600.000
G1 X44.975 Y1.035 E32.04905 F1500.000
G1 X45.041 Y0.969 E32.05616
G1 X46.143 Y0.969 F3600.000
G1 X45.801 Y1.311 E32.09279 F1500.000
G1 X45.526 Y1.035 E32.12229
G1 X45.250 Y1.311 E32.15180
G1 X45.526 Y1.586 E32.18130
G1 X44.975 Y2.137 E32.24032
G1 X44.700 Y1.861 E32.26982
G1 X44.975 Y1.586 E32.29933
G1 X44.424 Y1.035 E32.35834
G1 X44.149 Y1.311 E32.38785
G1 X44.424 Y1.586 E32.41735
G1 X44.149 Y1.861 E32.44686
G1 X43.873 Y1.586 E32.47636
G1 X43.598 Y1.861 E32.50587
G1 X44.149 Y2.412 E32.56488
G1 X44.424 Y2.137 E32.59439
G1 X44.700 Y2.412 E32.62389
G1 X44.149 Y2.963 E32.68291
G1 X43.873 Y2.688 E32.71241
G1 X43.598 Y2.963 E32.74192
G1 X43.873 Y3.239 E32.77142
G1 X43.322 Y3.790 E32.83044
G1 X43.047 Y3.514 E32.85994
G1 X43.322 Y3.239 E32.88945
G1 X43.047 Y2.963 E32.91895
G1 X42.771 Y3.239 E32.94846
G1 X42.496 Y2.963 E32.97797
G1 X43.047 Y2.412 E33.03698
G1 X43.322 Y2.688 E33.06648
G1 X43.598 Y2.412 E33.09599
G1 X43.047 Y1.861 E33.15500
G1 X42.771 Y2.137 E33.18451
G1 X42.496 Y1.861 E33.21401
G1 X42.771 Y1.586 E33.24352
G1 X42.220 Y1.035 E33.30253
G1 X41.945 Y1.311 E33.33204
G1 X42.220 Y1.586 E33.36154
G1 X41.945 Y1.861 E33.39105
G1 X41.669 Y1.586 E33.42056
G1 X41.394 Y1.861 E33.45006
G1 X41.945 Y2.412 E33.50907
G1 X42.220 Y2.137 E33.53858
G1 X42.496 Y2.412 E33.56808
G1 X41.669 Y3.239 E33.65660
G1 X41.394 Y2.963 E33.68611
G1 X41.669 Y2.688 E33.71561
G1 X41.119 Y2.137 E33.77463
G1 X40.843 Y2.412 E33.80413
G1 X41.119 Y2.688 E33.83364
G1 X40.843 Y2.963 E33.86314
G1 X40.568 Y2.688 E33.89265
G1 X40.292 Y2.963 E33.92216
G1 X40.843 Y3.514 E33.98117
G1 X41.119 Y3.239 E34.01067
G1 X41.394 Y3.514 E34.04018
G1 X41.119 Y3.790 E34.06969
G1 X41.669 Y4.341 E34.12870
G1 X41.945 Y4.065 E34.15820
G1 X41.669 Y3.790 E34.18771
G1 X42.220 Y3.239 E34.24672
G1 X42.496 Y3.514 E34.27623
G1 X42.220 Y3.790 E34.30573
G1 X42.496 Y4.065 E34.33524
G1 X42.771 Y3.790 E34.36475
G1 X43.047 Y4.065 E34.39425
G1 X42.496 Y4.616 E34.45326
G1 X42.220 Y4.341 E34.48277
G1 X41.945 Y4.616 E34.51228
G1 X42.220 Y4.892 E34.54178
G1 X41.669 Y5.442 E34.60079
G1 X41.394 Y5.167 E34.63030
G1 X41.669 Y4.892 E34.65981
G1 X41.119 Y4.341 E34.71882
G1 X40.843 Y4.616 E34.74832
G1 X41.119 Y4.892 E34.77783
G1 X40.843 Y5.167 E34.80734
G1 X40.568 Y4.892 E34.83684
G1 X40.292 Y5.167 E34.86635
G1 X40.843 Y5.718 E34.92536
G1 X41.119 Y5.442 E34.95487
G1 X41.394 Y5.718 E34.98437
G1 X40.843 Y6.269 E35.04338
G1 X40.568 Y5.993 E35.07289
G1 X40.292 Y6.269 E35.10240
G1 X40.568 Y6.544 E35.13190
G1 X40.017 Y7.095 E35.19091
G1 X39.741 Y6.820 E35.22042
G1 X40.017 Y6.544 E35.24993
G1 X39.741 Y6.269 E35.27943
G1 X39.466 Y6.544 E35.30894
G1 X39.190 Y6.269 E35.33844
G1 X39.741 Y5.718 E35.39746
G1 X40.017 Y5.993 E35.42696
G1 X40.292 Y5.718 E35.45647
G1 X39.466 Y4.892 E35.54499
G1 X39.190 Y5.167 E35.57449
G1 X39.466 Y5.442 E35.60400
G1 X38.915 Y5.993 E35.66301
G1 X38.639 Y5.718 E35.69252
G1 X38.915 Y5.442 E35.72202
G1 X38.639 Y5.167 E35.75153
G1 X38.364 Y5.442 E35.78103
G1 X38.089 Y5.167 E35.81054
G1 X38.639 Y4.616 E35.86955
G1 X38.915 Y4.892 E35.89906
G1 X39.190 Y4.616 E35.92856
G1 X38.915 Y4.341 E35.95807
G1 X39.466 Y3.790 E36.01708
G1 X39.741 Y4.065 E36.04659
G1 X39.466 Y4.341 E36.07609
G1 X40.017 Y4.892 E36.13510
G1 X40.292 Y4.616 E36.16461
G1 X40.017 Y4.341 E36.19412
G1 X40.292 Y4.065 E36.22362
G1 X40.568 Y4.341 E36.25313
G1 X40.843 Y4.065 E36.28263
G1 X40.292 Y3.514 E36.34165
G1 X40.017 Y3.790 E36.37115
G1 X39.741 Y3.514 E36.40066
G1 X40.017 Y3.239 E36.43016
G1 X39.741 Y2.963 E36.45967
G1 X39.466 Y3.239 E36.48918
G1 X39.190 Y2.963 E36.51868
G1 X39.466 Y2.688 E36.54819
G1 X38.915 Y2.137 E36.60720
G1 X38.639 Y2.412 E36.63671
G1 X38.915 Y2.688 E36.66621
G1 X38.639 Y2.963 E36.69572
G1 X38.364 Y2.688 E36.72522
G1 X38.089 Y2.963 E36.75473
G1 X38.639 Y3.514 E36.81374
G1 X38.915 Y3.239 E36.84325
G1 X39.190 Y3.514 E36.87275
G1 X38.639 Y4.065 E36.93177
G1 X38.364 Y3.790 E36.96127
G1 X38.089 Y4.065 E36.99078
G1 X38.364 Y4.341 E37.02028
G1 X37.813 Y4.892 E37.07930
G1 X37.538 Y4.616 E37.10880
G1 X37.813 Y4.341 E37.13831
G1 X37.538 Y4.065 E37.16781
G1 X37.262 Y4.341 E37.19732
G1 X36.987 Y4.065 E37.22683
G1 X37.538 Y3.514 E37.28584
G1 X37.813 Y3.790 E37.31534
G1 X38.089 Y3.514 E37.34485
G1 X37.262 Y2.688 E37.43337
G1 X36.987 Y2.963 E37.46287
G1 X37.262 Y3.239 E37.49238
G1 X36.711 Y3.790 E37.55139
G1 X36.436 Y3.514 E37.58090
G1 X36.711 Y3.239 E37.61040
G1 X36.436 Y2.963 E37.63991
G1 X36.160 Y3.239 E37.66941
G1 X35.885 Y2.963 E37.69892
G1 X36.436 Y2.412 E37.75793
G1 X36.711 Y2.688 E37.78744
G1 X36.987 Y2.412 E37.81694
G1 X36.711 Y2.137 E37.84645
G1 X37.262 Y1.586 E37.90546
G1 X37.538 Y1.861 E37.93497
G1 X37.262 Y2.137 E37.96447
G1 X37.813 Y2.688 E38.02349
G1 X38.089 Y2.412 E38.05299
G1 X37.813 Y2.137 E38.08250
G1 X38.089 Y1.861 E38.11200
G1 X38.364 Y2.137 E38.14151
G1 X38.639 Y1.861 E38.17102
G1 X38.089 Y1.311 E38.23003
G1 X37.813 Y1.586 E38.25953
G1 X37.538 Y1.311 E38.28904
G1 X37.880 Y0.969 E38.32566
G1 X38.298 Y0.969 F3600.000
G1 X38.364 Y1.035 E38.33278 F1500.000
G1 X38.430 Y0.969 E38.33989
G1 X39.532 Y0.969 F3600.000
G1 X39.190 Y1.311 E38.37652 F1500.000
G1 X38.915 Y1.035 E38.40602
G1 X38.639 Y1.311 E38.43553
G1 X39.190 Y1.861 E38.49454
G1 X39.466 Y1.586 E38.52404
G1 X39.741 Y1.861 E38.55355
G1 X39.466 Y2.137 E38.58306
G1 X40.017 Y2.688 E38.64207
G1 X40.292 Y2.412 E38.67157
G1 X40.017 Y2.137 E38.70108
G1 X40.292 Y1.861 E38.73059
G1 X40.568 Y2.137 E38.76009
G1 X40.843 Y1.861 E38.78960
G1 X40.292 Y1.311 E38.84861
G1 X40.017 Y1.586 E38.87812
G1 X39.741 Y1.311 E38.90762
G1 X40.083 Y0.969 E38.94424
G1 X37.329 Y0.969 F3600.000
G1 X37.262 Y1.035 E38.95136 F1500.000
G1 X37.196 Y0.969 E38.95848
G1 X36.094 Y0.969 F3600.000
G1 X36.436 Y1.311 E38.99510 F1500.000
G1 X36.711 Y1.035 E39.02460
G1 X36.987 Y1.311 E39.05411
G1 X36.436 Y1.861 E39.11312
G1 X36.160 Y1.586 E39.14263
G1 X35.885 Y1.861 E39.17213
G1 X36.160 Y2.137 E39.20164
G1 X35.609 Y2.688 E39.26065
G1 X35.334 Y2.412 E39.29016
G1 X35.609 Y2.137 E39.31966
G1 X35.334 Y1.861 E39.34917
G1 X35.058 Y2.137 E39.37868
G1 X34.783 Y1.861 E39.40818
G1 X35.334 Y1.311 E39.46719
G1 X35.609 Y1.586 E39.49670
G1 X35.885 Y1.311 E39.52621
G1 X35.543 Y0.969 E39.56283
G1 X34.992 Y0.969 F3600.000
G1 X35.058 Y1.035 E39.56994 F1500.000
G1 X34.508 Y1.586 E39.62895
G1 X34.232 Y1.311 E39.65846
G1 X34.508 Y1.035 E39.68797
G1 X34.441 Y0.969 E39.69508
G1 X34.023 Y0.969 F3600.000
G1 X33.957 Y1.035 E39.70220 F1500.000
G1 X33.890 Y0.969 E39.70931
G1 X32.921 Y0.969 F3600.000
G1 X32.579 Y1.311 E39.74594 F1500.000
G1 X32.304 Y1.035 E39.77544
G1 X32.028 Y1.311 E39.80495
G1 X32.304 Y1.586 E39.83445
G1 X31.753 Y2.137 E39.89347
G1 X31.478 Y1.861 E39.92297
G1 X31.753 Y1.586 E39.95248
G1 X31.202 Y1.035 E40.01149
G1 X30.927 Y1.311 E40.04100
G1 X31.202 Y1.586 E40.07050
G1 X30.927 Y1.861 E40.10001
G1 X30.651 Y1.586 E40.12951
G1 X30.376 Y1.861 E40.15902
G1 X30.927 Y2.412 E40.21803
G1 X31.202 Y2.137 E40.24754
G1 X31.478 Y2.412 E40.27704
G1 X31.202 Y2.688 E40.30655
G1 X31.478 Y2.963 E40.33606
G1 X31.753 Y2.688 E40.36556
G1 X32.028 Y2.963 E40.39507
G1 X31.753 Y3.239 E40.42457
G1 X32.304 Y3.790 E40.48359
G1 X32.579 Y3.514 E40.51309
G1 X32.304 Y3.239 E40.54260
G1 X32.579 Y2.963 E40.57210
G1 X32.855 Y3.239 E40.60161
G1 X33.130 Y2.963 E40.63112
G1 X32.579 Y2.412 E40.69013
G1 X32.304 Y2.688 E40.71963
G1 X32.028 Y2.412 E40.74914
G1 X32.579 Y1.861 E40.80815
G1 X32.855 Y2.137 E40.83766
G1 X33.130 Y1.861 E40.86716
G1 X32.855 Y1.586 E40.89667
G1 X33.406 Y1.035 E40.95568
G1 X33.681 Y1.311 E40.98519
G1 X33.406 Y1.586 E41.01469
G1 X33.681 Y1.861 E41.04420
G1 X33.957 Y1.586 E41.07371
G1 X34.232 Y1.861 E41.10321
G1 X33.681 Y2.412 E41.16222
G1 X33.406 Y2.137 E41.19173
G1 X33.130 Y2.412 E41.22123
G1 X33.957 Y3.239 E41.30975
G1 X34.232 Y2.963 E41.33926
G1 X33.957 Y2.688 E41.36876
G1 X34.508 Y2.137 E41.42778
G1 X34.783 Y2.412 E41.45728
G1 X34.508 Y2.688 E41.48679
G1 X34.783 Y2.963 E41.51629
G1 X35.058 Y2.688 E41.54580
G1 X35.334 Y2.963 E41.57531
G1 X34.783 Y3.514 E41.63432
G1 X34.508 Y3.239 E41.66382
G1 X34.232 Y3.514 E41.69333
G1 X34.508 Y3.790 E41.72284
G1 X33.957 Y4.341 E41.78185
G1 X33.681 Y4.065 E41.81135
G1 X33.957 Y3.790 E41.84086
G1 X33.406 Y3.239 E41.89987
G1 X33.130 Y3.514 E41.92938
G1 X33.406 Y3.790 E41.95888
G1 X33.130 Y4.065 E41.98839
G1 X32.855 Y3.790 E42.01790
G1 X32.579 Y4.065 E42.04740
G1 X33.130 Y4.616 E42.10641
G1 X33.406 Y4.341 E42.13592
G1 X33.681 Y4.616 E42.16543
G1 X33.130 Y5.167 E42.22444
G1 X32.855 Y4.892 E42.25394
G1 X32.579 Y5.167 E42.28345
G1 X32.855 Y5.442 E42.31296
G1 X32.304 Y5.993 E42.37197
G1 X32.028 Y5.718 E42.40147
G1 X32.304 Y5.442 E42.43098
G1 X32.028 Y5.167 E42.46049
G1 X31.753 Y5.442 E42.48999
G1 X31.478 Y5.167 E42.51950
G1 X32.028 Y4.616 E42.57851
G1 X32.304 Y4.892 E42.60802
G1 X32.579 Y4.616 E42.63752
G1 X32.028 Y4.065 E42.69653
G1 X31.753 Y4.341 E42.72604
G1 X31.478 Y4.065 E42.75555
G1 X31.753 Y3.790 E42.78505
G1 X31.202 Y3.239 E42.84406
G1 X30.927 Y3.514 E42.87357
G1 X31.202 Y3.790 E42.90308
G1 X30.927 Y4.065 E42.93258
G1 X30.651 Y3.790 E42.96209
G1 X30.376 Y4.065 E42.99159
G1 X30.927 Y4.616 E43.05061
G1 X31.202 Y4.341 E43.08011
G1 X31.478 Y4.616 E43.10962
G1 X30.651 Y5.442 E43.19813
G1 X30.376 Y5.167 E43.22764
G1 X30.651 Y4.892 E43.25715
G1 X30.100 Y4.341 E43.31616
G1 X29.825 Y4.616 E43.34566
G1 X30.100 Y4.892 E43.37517
G1 X29.825 Y5.167 E43.40468
G1 X29.549 Y4.892 E43.43418
G1 X29.274 Y5.167 E43.46369
G1 X29.825 Y5.718 E43.52270
G1 X30.100 Y5.442 E43.55221
G1 X30.376 Y5.718 E43.58171
G1 X30.100 Y5.993 E43.61122
G1 X30.651 Y6.544 E43.67023
G1 X30.927 Y6.269 E43.69974
G1 X30.651 Y5.993 E43.72924
G1 X31.202 Y5.442 E43.78825
G1 X31.478 Y5.718 E43.81776
G1 X31.202 Y5.993 E43.84727
G1 X31.478 Y6.269 E43.87677
G1 X31.753 Y5.993 E43.90628
G1 X32.028 Y6.269 E43.93578
G1 X31.478 Y6.820 E43.99480
G1 X31.202 Y6.544 E44.02430
G1 X30.927 Y6.820 E44.05381
G1 X31.753 Y7.646 E44.14233
G1 X32.028 Y7.371 E44.17183
G1 X31.753 Y7.095 E44.20134
G1 X32.304 Y6.544 E44.26035
G1 X32.579 Y6.820 E44.28986
G1 X32.304 Y7.095 E44.31936
G1 X32.579 Y7.371 E44.34887
G1 X32.855 Y7.095 E44.37837
G1 X33.130 Y7.371 E44.40788
G1 X32.579 Y7.922 E44.46689
G1 X32.304 Y7.646 E44.49640
G1 X32.028 Y7.922 E44.52590
G1 X32.579 Y8.472 E44.58492
G1 X32.855 Y8.197 E44.61442
G1 X33.130 Y8.472 E44.64393
G1 X32.855 Y8.748 E44.67343
G1 X33.406 Y9.299 E44.73245
G1 X33.681 Y9.023 E44.76195
G1 X33.406 Y8.748 E44.79146
G1 X33.681 Y8.472 E44.82096
G1 X33.957 Y8.748 E44.85047
G1 X34.232 Y8.472 E44.87998
G1 X33.681 Y7.922 E44.93899
G1 X33.406 Y8.197 E44.96849
G1 X33.130 Y7.922 E44.99800
G1 X33.406 Y7.646 E45.02751
G1 X33.957 Y7.095 E45.08652
G1 X34.232 Y7.371 E45.11602
G1 X33.957 Y7.646 E45.14553
G1 X34.508 Y8.197 E45.20454
G1 X34.783 Y7.922 E45.23405
G1 X34.508 Y7.646 E45.26355
G1 X34.783 Y7.371 E45.29306
G1 X35.058 Y7.646 E45.32257
G1 X35.334 Y7.371 E45.35207
G1 X34.783 Y6.820 E45.41108
G1 X34.508 Y7.095 E45.44059
G1 X34.232 Y6.820 E45.47010
G1 X34.508 Y6.544 E45.49960
G1 X33.957 Y5.993 E45.55861
G1 X33.681 Y6.269 E45.58812
G1 X33.957 Y6.544 E45.61762
G1 X33.406 Y7.095 E45.67664
G1 X33.130 Y6.820 E45.70614
G1 X33.406 Y6.544 E45.73565
G1 X33.130 Y6.269 E45.76515
G1 X32.855 Y6.544 E45.79466
G1 X32.579 Y6.269 E45.82417
G1 X33.130 Y5.718 E45.88318
G1 X33.406 Y5.993 E45.91268
G1 X33.681 Y5.718 E45.94219
G1 X33.406 Y5.442 E45.97170
G1 X33.957 Y4.892 E46.03071
G1 X34.232 Y5.167 E46.06021
G1 X33.957 Y5.442 E46.08972
G1 X34.508 Y5.993 E46.14873
G1 X34.783 Y5.718 E46.17824
G1 X34.508 Y5.442 E46.20774
G1 X34.783 Y5.167 E46.23725
G1 X35.058 Y5.442 E46.26676
G1 X35.334 Y5.167 E46.29626
G1 X34.783 Y4.616 E46.35527
G1 X34.508 Y4.892 E46.38478
G1 X34.232 Y4.616 E46.41429
G1 X34.783 Y4.065 E46.47330
G1 X35.058 Y4.341 E46.50280
G1 X35.334 Y4.065 E46.53231
G1 X35.058 Y3.790 E46.56182
G1 X35.609 Y3.239 E46.62083
G1 X35.885 Y3.514 E46.65033
G1 X35.609 Y3.790 E46.67984
G1 X35.885 Y4.065 E46.70935
G1 X36.160 Y3.790 E46.73885
G1 X36.436 Y4.065 E46.76836
G1 X35.885 Y4.616 E46.82737
G1 X35.609 Y4.341 E46.85688
G1 X35.334 Y4.616 E46.88638
G1 X36.160 Y5.442 E46.97490
G1 X36.436 Y5.167 E47.00441
G1 X36.160 Y4.892 E47.03391
G1 X36.711 Y4.341 E47.09292
G1 X36.987 Y4.616 E47.12243
G1 X36.711 Y4.892 E47.15194
G1 X36.987 Y5.167 E47.18144
G1 X37.262 Y4.892 E47.21095
G1 X37.538 Y5.167 E47.24045
G1 X36.987 Y5.718 E47.29947
G1 X36.711 Y5.442 E47.32897
G1 X36.436 Y5.718 E47.35848
G1 X36.711 Y5.993 E47.38798
G1 X36.160 Y6.544 E47.44700
G1 X35.885 Y6.269 E47.47650
G1 X36.160 Y5.993 E47.50601
G1 X35.609 Y5.442 E47.56502
G1 X35.334 Y5.718 E47.59453
G1 X35.609 Y5.993 E47.62403
G1 X35.334 Y6.269 E47.65354
G1 X35.058 Y5.993 E47.68304
G1 X34.783 Y6.269 E47.71255
G1 X35.334 Y6.820 E47.77156
G1 X35.609 Y6.544 E47.80107
G1 X35.885 Y6.820 E47.83057
G1 X35.609 Y7.095 E47.86008
G1 X35.885 Y7.371 E47.88958
G1 X36.160 Y7.095 E47.91909
G1 X36.436 Y7.371 E47.94860
G1 X36.160 Y7.646 E47.97810
G1 X36.711 Y8.197 E48.03711
G1 X36.987 Y7.922 E48.06662
G1 X36.711 Y7.646 E48.09613
G1 X36.987 Y7.371 E48.12563
G1 X37.262 Y7.646 E48.15514
G1 X37.538 Y7.371 E48.18464
G1 X36.987 Y6.820 E48.24366
G1 X36.711 Y7.095 E48.27316
G1 X36.436 Y6.820 E48.30267
G1 X36.987 Y6.269 E48.36168
G1 X37.262 Y6.544 E48.39119
G1 X37.538 Y6.269 E48.42069
G1 X37.262 Y5.993 E48.45020
G1 X37.813 Y5.442 E48.50921
G1 X38.089 Y5.718 E48.53872
G1 X37.813 Y5.993 E48.56822
G1 X38.089 Y6.269 E48.59773
G1 X38.364 Y5.993 E48.62723
G1 X38.639 Y6.269 E48.65674
G1 X38.089 Y6.820 E48.71575
G1 X37.813 Y6.544 E48.74526
G1 X37.538 Y6.820 E48.77476
G1 X38.364 Y7.646 E48.86328
G1 X38.639 Y7.371 E48.89279
G1 X38.364 Y7.095 E48.92229
G1 X38.915 Y6.544 E48.98131
G1 X39.190 Y6.820 E49.01081
G1 X38.915 Y7.095 E49.04032
G1 X39.190 Y7.371 E49.06982
G1 X39.466 Y7.095 E49.09933
G1 X39.741 Y7.371 E49.12884
G1 X39.190 Y7.922 E49.18785
G1 X38.915 Y7.646 E49.21735
G1 X38.639 Y7.922 E49.24686
G1 X38.915 Y8.197 E49.27637
G1 X38.364 Y8.748 E49.33538
G1 X38.089 Y8.472 E49.36488
G1 X38.364 Y8.197 E49.39439
G1 X37.813 Y7.646 E49.45340
G1 X37.538 Y7.922 E49.48291
G1 X37.813 Y8.197 E49.51241
G1 X37.538 Y8.472 E49.54192
G1 X37.262 Y8.197 E49.57143
G1 X36.987 Y8.472 E49.60093
G1 X37.538 Y9.023 E49.65994
G1 X37.813 Y8.748 E49.68945
G1 X38.089 Y9.023 E49.71896
G1 X37.538 Y9.574 E49.77797
G1 X37.262 Y9.299 E49.80747
G1 X36.987 Y9.574 E49.83698
G1 X37.262 Y9.850 E49.86649
G1 X36.711 Y10.401 E49.92550
G1 X36.436 Y10.125 E49.95500
G1 X36.711 Y9.850 E49.98451
G1 X36.436 Y9.574 E50.01402
G1 X36.160 Y9.850 E50.04352
G1 X35.885 Y9.574 E50.07303
G1 X36.436 Y9.023 E50.13204
G1 X36.711 Y9.299 E50.16155
