; generated by Slic3r 1.2.9 on 2017-05-16 at 21:12:18

; external perimeters extrusion width = 0.40mm
; perimeters extrusion width = 0.40mm
; infill extrusion width = 0.40mm
; solid infill extrusion width = 0.40mm
; top infill extrusion width = 0.40mm
; support material extrusion width = 0.40mm

M107
M190 S77 ; set bed temperature
M104 S280 ; set temperature
G28 ; home all axes
G1 Z5 F5000 ; lift nozzle

M109 S280 ; wait for temperature to be reached
G21 ; set units to millimeters
G90 ; use absolute coordinates
M82 ; use absolute distances for extrusion
G92 E0
G1 Z0.496 F3600.000
G1 E-2.00000 F2400.00000
G92 E0
G1 X59.178 Y68.655 F3600.000
G1 E2.00000 F2400.00000
G1 X59.990 Y68.154 E2.07225 F1500.000
G1 X60.772 Y67.931 E2.13385
G1 X75.055 Y67.931 E3.21566
G1 X104.672 Y67.931 E5.45891 F1500.000
G1 X105.999 Y68.672 E5.57401
G1 X106.943 Y70.200 E5.71007
G1 X106.985 Y71.148 E5.78189
G1 X107.235 Y71.926 E5.84384
G1 X107.142 Y72.113 E5.85970
G1 X107.131 Y72.268 E5.87144
G1 X107.235 Y72.584 E5.89665
G1 X107.142 Y72.771 E5.91252
G1 X107.131 Y72.926 E5.92425
G1 X107.235 Y73.242 E5.94947
G1 X107.142 Y73.429 E5.96533
G1 X107.131 Y73.583 E5.97707
G1 X107.235 Y73.899 E6.00228
G1 X107.142 Y74.087 E6.01815
G1 X107.131 Y74.241 E6.02988
G1 X107.235 Y74.557 E6.05510
G1 X107.142 Y74.744 E6.07096
G1 X107.131 Y74.899 E6.08270
G1 X107.235 Y75.215 E6.10791
G1 X107.142 Y75.402 E6.12377
G1 X107.131 Y75.557 E6.13551
G1 X107.235 Y75.872 E6.16073
G1 X107.142 Y76.060 E6.17659
G1 X107.131 Y76.214 E6.18833
G1 X107.235 Y76.530 E6.21354
G1 X107.142 Y76.717 E6.22940
G1 X107.131 Y76.872 E6.24114
G1 X107.235 Y77.188 E6.26636
G1 X107.142 Y77.375 E6.28222
G1 X107.131 Y77.530 E6.29396
G1 X107.235 Y77.846 E6.31917
G1 X107.142 Y78.033 E6.33503
G1 X107.131 Y78.187 E6.34677
G1 X107.235 Y78.503 E6.37199
G1 X107.142 Y78.691 E6.38785
G1 X107.131 Y78.845 E6.39959
G1 X107.235 Y79.161 E6.42480
G1 X107.142 Y79.348 E6.44066
G1 X107.131 Y79.503 E6.45240
G1 X107.235 Y79.819 E6.47762
G1 X107.142 Y80.006 E6.49348
G1 X107.131 Y80.161 E6.50522
G1 X107.235 Y80.476 E6.53043
G1 X107.142 Y80.664 E6.54629
G1 X107.131 Y80.818 E6.55803
G1 X107.235 Y81.134 E6.58325
G1 X107.142 Y81.321 E6.59911
G1 X107.131 Y81.476 E6.61085
G1 X107.235 Y81.792 E6.63606
G1 X107.142 Y81.979 E6.65192
G1 X107.131 Y82.134 E6.66366
G1 X107.235 Y82.450 E6.68887
G1 X107.142 Y82.637 E6.70474
G1 X107.131 Y82.791 E6.71647
G1 X107.235 Y83.107 E6.74169
G1 X107.142 Y83.294 E6.75755
G1 X107.131 Y83.449 E6.76929
G1 X107.235 Y83.765 E6.79450
G1 X107.142 Y83.952 E6.81037
G1 X107.131 Y84.107 E6.82210
G1 X107.235 Y84.423 E6.84732
G1 X107.142 Y84.610 E6.86318
G1 X107.131 Y84.764 E6.87492
G1 X107.235 Y85.080 E6.90013
G1 X107.142 Y85.268 E6.91600
G1 X107.131 Y85.422 E6.92773
G1 X107.235 Y85.738 E6.95295
G1 X107.142 Y85.925 E6.96881
G1 X107.131 Y86.080 E6.98055
G1 X107.235 Y86.396 E7.00576
G1 X107.142 Y86.583 E7.02162
G1 X107.131 Y86.738 E7.03336
G1 X107.235 Y87.054 E7.05858
G1 X107.142 Y87.241 E7.07444
G1 X107.131 Y87.395 E7.08618
G1 X107.235 Y87.711 E7.11139
G1 X107.142 Y87.898 E7.12725
G1 X107.131 Y88.053 E7.13899
G1 X107.235 Y88.369 E7.16421
G1 X107.142 Y88.556 E7.18007
G1 X107.131 Y88.711 E7.19181
G1 X107.235 Y89.027 E7.21702
G1 X107.142 Y89.214 E7.23288
G1 X107.131 Y89.368 E7.24462
G1 X107.235 Y89.684 E7.26984
G1 X107.142 Y89.872 E7.28570
G1 X107.131 Y90.026 E7.29744
G1 X107.235 Y90.342 E7.32265
G1 X107.142 Y90.529 E7.33851
G1 X107.131 Y90.684 E7.35025
G1 X107.235 Y91.000 E7.37547
G1 X107.142 Y91.187 E7.39133
G1 X107.131 Y91.342 E7.40307
G1 X107.235 Y91.658 E7.42828
G1 X107.142 Y91.845 E7.44414
G1 X107.131 Y91.999 E7.45588
G1 X107.235 Y92.315 E7.48110
G1 X107.142 Y92.502 E7.49696
G1 X107.131 Y92.657 E7.50870
G1 X107.235 Y92.973 E7.53391
G1 X107.142 Y93.160 E7.54977
G1 X107.131 Y93.315 E7.56151
G1 X107.235 Y93.631 E7.58672
G1 X107.142 Y93.818 E7.60259
G1 X107.131 Y93.972 E7.61432
G1 X107.235 Y94.288 E7.63954
G1 X107.142 Y94.476 E7.65540
G1 X107.131 Y94.630 E7.66714
G1 X107.235 Y94.946 E7.69235
G1 X107.142 Y95.133 E7.70822
G1 X107.131 Y95.288 E7.71995
G1 X107.235 Y95.604 E7.74517
G1 X107.142 Y95.791 E7.76103
G1 X107.131 Y95.946 E7.77277
G1 X107.235 Y96.262 E7.79798
G1 X107.142 Y96.449 E7.81385
G1 X107.131 Y96.603 E7.82558
G1 X107.235 Y96.919 E7.85080
G1 X107.142 Y97.106 E7.86666
G1 X107.131 Y97.261 E7.87840
G1 X107.235 Y97.577 E7.90361
G1 X107.142 Y97.764 E7.91947
G1 X107.131 Y97.919 E7.93121
G1 X107.235 Y98.235 E7.95643
G1 X107.142 Y98.422 E7.97229
G1 X107.131 Y98.576 E7.98403
G1 X107.235 Y98.892 E8.00924
G1 X107.142 Y99.080 E8.02510
G1 X107.131 Y99.234 E8.03684
G1 X107.235 Y99.550 E8.06206
G1 X107.142 Y99.737 E8.07792
G1 X107.131 Y99.892 E8.08966
G1 X107.235 Y100.208 E8.11487
G1 X107.142 Y100.395 E8.13073
G1 X107.131 Y100.550 E8.14247
G1 X107.235 Y100.866 E8.16769
G1 X107.142 Y101.053 E8.18355
G1 X107.131 Y101.207 E8.19529
G1 X107.235 Y101.523 E8.22050
G1 X107.142 Y101.710 E8.23636
G1 X107.131 Y101.865 E8.24810
G1 X107.235 Y102.181 E8.27332
G1 X107.142 Y102.368 E8.28918
G1 X107.131 Y102.523 E8.30092
G1 X107.235 Y102.839 E8.32613
G1 X107.142 Y103.026 E8.34199
G1 X107.131 Y103.180 E8.35373
G1 X107.235 Y103.496 E8.37895
G1 X107.142 Y103.684 E8.39481
G1 X107.131 Y103.838 E8.40655
G1 X107.235 Y104.154 E8.43176
G1 X107.142 Y104.341 E8.44762
G1 X107.131 Y104.496 E8.45936
G1 X107.235 Y104.812 E8.48457
G1 X107.142 Y104.999 E8.50044
G1 X107.131 Y105.154 E8.51217
G1 X107.235 Y105.470 E8.53739
G1 X107.142 Y105.657 E8.55325
G1 X107.131 Y105.811 E8.56499
G1 X107.235 Y106.127 E8.59020
G1 X107.142 Y106.314 E8.60607
G1 X107.131 Y106.469 E8.61780
G1 X107.235 Y106.785 E8.64302
G1 X107.142 Y106.972 E8.65888
G1 X107.131 Y107.127 E8.67062
G1 X107.235 Y107.443 E8.69583
G1 X107.142 Y107.630 E8.71170
G1 X107.131 Y107.784 E8.72343
G1 X107.235 Y108.100 E8.74865
G1 X107.142 Y108.288 E8.76451
G1 X107.131 Y108.442 E8.77625
G1 X107.235 Y108.758 E8.80146
G1 X107.142 Y108.945 E8.81732
G1 X107.131 Y109.100 E8.82906
G1 X107.235 Y109.416 E8.85428
G1 X107.142 Y109.603 E8.87014
G1 X107.131 Y109.758 E8.88188
G1 X107.235 Y110.074 E8.90709
G1 X107.142 Y110.261 E8.92295
G1 X107.131 Y110.415 E8.93469
G1 X107.235 Y110.731 E8.95991
G1 X107.142 Y110.918 E8.97577
G1 X107.131 Y111.073 E8.98751
G1 X107.235 Y111.389 E9.01272
G1 X107.142 Y111.576 E9.02858
G1 X107.131 Y111.731 E9.04032
G1 X107.235 Y112.047 E9.06554
G1 X107.142 Y112.234 E9.08140
G1 X107.131 Y112.388 E9.09314
G1 X107.235 Y112.704 E9.11835
G1 X107.142 Y112.892 E9.13421
G1 X107.131 Y113.046 E9.14595
G1 X107.235 Y113.362 E9.17117
G1 X107.144 Y113.544 E9.18660
G1 X107.126 Y113.665 E9.19588
G1 X107.195 Y114.100 E9.22921
G1 X106.042 Y116.401 E9.42417
G1 X104.441 Y116.933 E9.55193
G1 X103.824 Y117.236 E9.60401
G1 X102.792 Y117.069 E9.68325
G1 X60.328 Y117.069 E12.89956
G1 X59.001 Y116.328 E13.01466
G1 X58.057 Y114.800 E13.15072
G1 X58.015 Y113.852 E13.22260
G1 X57.765 Y113.074 E13.28451
G1 X57.858 Y112.886 E13.30037
G1 X57.869 Y112.732 E13.31211
G1 X57.765 Y112.416 E13.33732
G1 X57.858 Y112.229 E13.35319
G1 X57.869 Y112.074 E13.36492
G1 X57.765 Y111.758 E13.39014
G1 X57.858 Y111.571 E13.40600
G1 X57.869 Y111.416 E13.41774
G1 X57.765 Y111.100 E13.44295
G1 X57.858 Y110.913 E13.45882
G1 X57.869 Y110.759 E13.47055
G1 X57.765 Y110.443 E13.49577
G1 X57.858 Y110.256 E13.51163
G1 X57.869 Y110.101 E13.52337
G1 X57.765 Y109.785 E13.54858
G1 X57.858 Y109.598 E13.56445
G1 X57.869 Y109.443 E13.57618
G1 X57.765 Y109.127 E13.60140
G1 X57.858 Y108.940 E13.61726
G1 X57.869 Y108.786 E13.62900
G1 X57.765 Y108.470 E13.65421
G1 X57.858 Y108.282 E13.67007
G1 X57.869 Y108.128 E13.68181
G1 X57.765 Y107.812 E13.70703
G1 X57.858 Y107.625 E13.72289
G1 X57.869 Y107.470 E13.73463
G1 X57.765 Y107.154 E13.75984
G1 X57.858 Y106.967 E13.77570
G1 X57.869 Y106.812 E13.78744
G1 X57.765 Y106.496 E13.81266
G1 X57.858 Y106.309 E13.82852
G1 X57.869 Y106.155 E13.84026
G1 X57.765 Y105.839 E13.86547
G1 X57.858 Y105.652 E13.88133
G1 X57.869 Y105.497 E13.89307
G1 X57.765 Y105.181 E13.91829
G1 X57.858 Y104.994 E13.93415
G1 X57.869 Y104.839 E13.94589
G1 X57.765 Y104.523 E13.97110
G1 X57.858 Y104.336 E13.98696
G1 X57.869 Y104.182 E13.99870
G1 X57.765 Y103.866 E14.02392
G1 X57.858 Y103.678 E14.03978
G1 X57.869 Y103.524 E14.05152
G1 X57.765 Y103.208 E14.07673
G1 X57.858 Y103.021 E14.09259
G1 X57.869 Y102.866 E14.10433
G1 X57.765 Y102.550 E14.12954
G1 X57.858 Y102.363 E14.14541
G1 X57.869 Y102.208 E14.15714
G1 X57.765 Y101.893 E14.18236
G1 X57.858 Y101.705 E14.19822
G1 X57.869 Y101.551 E14.20996
G1 X57.765 Y101.235 E14.23517
G1 X57.858 Y101.048 E14.25104
G1 X57.869 Y100.893 E14.26277
G1 X57.765 Y100.577 E14.28799
G1 X57.858 Y100.390 E14.30385
G1 X57.869 Y100.235 E14.31559
G1 X57.765 Y99.919 E14.34080
G1 X57.858 Y99.732 E14.35667
G1 X57.869 Y99.578 E14.36840
G1 X57.765 Y99.262 E14.39362
G1 X57.858 Y99.074 E14.40948
G1 X57.869 Y98.920 E14.42122
G1 X57.765 Y98.604 E14.44643
G1 X57.858 Y98.417 E14.46230
G1 X57.869 Y98.262 E14.47403
G1 X57.765 Y97.946 E14.49925
G1 X57.858 Y97.759 E14.51511
G1 X57.869 Y97.604 E14.52685
G1 X57.765 Y97.289 E14.55206
G1 X57.858 Y97.101 E14.56792
G1 X57.869 Y96.947 E14.57966
G1 X57.765 Y96.631 E14.60488
G1 X57.858 Y96.444 E14.62074
G1 X57.869 Y96.289 E14.63248
G1 X57.765 Y95.973 E14.65769
G1 X57.858 Y95.786 E14.67355
G1 X57.869 Y95.631 E14.68529
G1 X57.765 Y95.315 E14.71051
G1 X57.858 Y95.128 E14.72637
G1 X57.869 Y94.974 E14.73811
G1 X57.765 Y94.658 E14.76332
G1 X57.858 Y94.470 E14.77918
G1 X57.869 Y94.316 E14.79092
G1 X57.765 Y94.000 E14.81614
G1 X57.858 Y93.813 E14.83200
G1 X57.869 Y93.658 E14.84374
G1 X57.765 Y93.342 E14.86895
G1 X57.858 Y93.155 E14.88481
G1 X57.869 Y93.000 E14.89655
G1 X57.765 Y92.685 E14.92177
G1 X57.858 Y92.497 E14.93763
G1 X57.869 Y92.343 E14.94937
G1 X57.765 Y92.027 E14.97458
G1 X57.858 Y91.840 E14.99044
G1 X57.869 Y91.685 E15.00218
G1 X57.765 Y91.369 E15.02740
G1 X57.858 Y91.182 E15.04326
G1 X57.869 Y91.027 E15.05499
G1 X57.765 Y90.711 E15.08021
G1 X57.858 Y90.524 E15.09607
G1 X57.869 Y90.370 E15.10781
G1 X57.765 Y90.054 E15.13302
G1 X57.858 Y89.866 E15.14889
G1 X57.869 Y89.712 E15.16062
G1 X57.765 Y89.396 E15.18584
G1 X57.858 Y89.209 E15.20170
G1 X57.869 Y89.054 E15.21344
G1 X57.765 Y88.738 E15.23865
G1 X57.858 Y88.551 E15.25452
G1 X57.869 Y88.396 E15.26625
G1 X57.765 Y88.081 E15.29147
G1 X57.858 Y87.893 E15.30733
G1 X57.869 Y87.739 E15.31907
G1 X57.765 Y87.423 E15.34428
G1 X57.858 Y87.236 E15.36014
G1 X57.869 Y87.081 E15.37188
G1 X57.765 Y86.765 E15.39710
G1 X57.858 Y86.578 E15.41296
G1 X57.869 Y86.423 E15.42470
G1 X57.765 Y86.107 E15.44991
G1 X57.858 Y85.920 E15.46577
G1 X57.869 Y85.766 E15.47751
G1 X57.765 Y85.450 E15.50273
G1 X57.858 Y85.262 E15.51859
G1 X57.869 Y85.108 E15.53033
G1 X57.765 Y84.792 E15.55554
G1 X57.858 Y84.605 E15.57140
G1 X57.869 Y84.450 E15.58314
G1 X57.765 Y84.134 E15.60836
G1 X57.858 Y83.947 E15.62422
G1 X57.869 Y83.792 E15.63596
G1 X57.765 Y83.477 E15.66117
G1 X57.858 Y83.289 E15.67703
G1 X57.869 Y83.135 E15.68877
G1 X57.765 Y82.819 E15.71399
G1 X57.858 Y82.632 E15.72985
G1 X57.869 Y82.477 E15.74159
G1 X57.765 Y82.161 E15.76680
G1 X57.858 Y81.974 E15.78266
G1 X57.869 Y81.819 E15.79440
G1 X57.765 Y81.503 E15.81962
G1 X57.858 Y81.316 E15.83548
G1 X57.869 Y81.162 E15.84722
G1 X57.765 Y80.846 E15.87243
G1 X57.858 Y80.658 E15.88829
G1 X57.869 Y80.504 E15.90003
G1 X57.765 Y80.188 E15.92524
G1 X57.858 Y80.001 E15.94111
G1 X57.869 Y79.846 E15.95284
G1 X57.765 Y79.530 E15.97806
G1 X57.858 Y79.343 E15.99392
G1 X57.869 Y79.188 E16.00566
G1 X57.765 Y78.873 E16.03087
G1 X57.858 Y78.685 E16.04674
G1 X57.869 Y78.531 E16.05847
G1 X57.765 Y78.215 E16.08369
G1 X57.858 Y78.028 E16.09955
G1 X57.869 Y77.873 E16.11129
G1 X57.765 Y77.557 E16.13650
G1 X57.858 Y77.370 E16.15237
G1 X57.869 Y77.215 E16.16410
G1 X57.765 Y76.899 E16.18932
G1 X57.858 Y76.712 E16.20518
G1 X57.869 Y76.558 E16.21692
G1 X57.765 Y76.242 E16.24213
G1 X57.858 Y76.054 E16.25799
G1 X57.869 Y75.900 E16.26973
G1 X57.765 Y75.584 E16.29495
G1 X57.858 Y75.397 E16.31081
G1 X57.869 Y75.242 E16.32255
G1 X57.765 Y74.926 E16.34776
G1 X57.858 Y74.739 E16.36362
G1 X57.869 Y74.584 E16.37536
G1 X57.765 Y74.269 E16.40058
G1 X57.858 Y74.081 E16.41644
G1 X57.869 Y73.927 E16.42818
G1 X57.765 Y73.611 E16.45339
G1 X57.858 Y73.424 E16.46925
G1 X57.869 Y73.269 E16.48099
G1 X57.765 Y72.953 E16.50621
G1 X57.858 Y72.766 E16.52207
G1 X57.869 Y72.611 E16.53381
G1 X57.765 Y72.295 E16.55902
G1 X57.858 Y72.108 E16.57488
G1 X57.869 Y71.954 E16.58662
G1 X57.765 Y71.638 E16.61184
G1 X57.858 Y71.450 E16.62770
G1 X57.869 Y71.296 E16.63944
G1 X57.765 Y70.980 E16.66465
G1 X58.629 Y69.255 E16.81084
G1 X59.128 Y68.710 E16.86675
G1 X59.415 Y68.973 F3600.000
G1 X60.149 Y68.513 E16.93231 F1500.000
G1 X60.827 Y68.321 E16.98569
G1 X74.954 Y68.321 E18.05572
G1 X104.571 Y68.321 E20.29897 F1500.000
G1 X105.721 Y68.963 E20.39872
G1 X106.558 Y70.319 E20.51943
G1 X106.598 Y71.219 E20.58769
G1 X106.815 Y71.896 E20.64153
G1 X106.721 Y72.083 E20.65739
G1 X106.710 Y72.238 E20.66913
G1 X106.815 Y72.554 E20.69434
G1 X106.721 Y72.741 E20.71020
G1 X106.710 Y72.895 E20.72194
G1 X106.815 Y73.211 E20.74715
G1 X106.721 Y73.399 E20.76302
G1 X106.710 Y73.553 E20.77475
G1 X106.815 Y73.869 E20.79997
G1 X106.721 Y74.056 E20.81583
G1 X106.710 Y74.211 E20.82757
G1 X106.815 Y74.527 E20.85278
G1 X106.721 Y74.714 E20.86865
G1 X106.710 Y74.869 E20.88038
G1 X106.815 Y75.184 E20.90560
G1 X106.721 Y75.372 E20.92146
G1 X106.710 Y75.526 E20.93320
G1 X106.815 Y75.842 E20.95841
G1 X106.721 Y76.029 E20.97428
G1 X106.710 Y76.184 E20.98601
G1 X106.815 Y76.500 E21.01123
G1 X106.721 Y76.687 E21.02709
G1 X106.710 Y76.842 E21.03883
G1 X106.815 Y77.158 E21.06404
G1 X106.721 Y77.345 E21.07990
G1 X106.710 Y77.499 E21.09164
G1 X106.815 Y77.815 E21.11686
G1 X106.721 Y78.002 E21.13272
G1 X106.710 Y78.157 E21.14446
G1 X106.815 Y78.473 E21.16967
G1 X106.721 Y78.660 E21.18553
G1 X106.710 Y78.815 E21.19727
G1 X106.815 Y79.131 E21.22249
G1 X106.721 Y79.318 E21.23835
G1 X106.710 Y79.472 E21.25009
G1 X106.815 Y79.788 E21.27530
G1 X106.721 Y79.976 E21.29116
G1 X106.710 Y80.130 E21.30290
G1 X106.815 Y80.446 E21.32812
G1 X106.721 Y80.633 E21.34398
G1 X106.710 Y80.788 E21.35572
G1 X106.815 Y81.104 E21.38093
G1 X106.721 Y81.291 E21.39679
G1 X106.710 Y81.446 E21.40853
G1 X106.815 Y81.762 E21.43375
G1 X106.721 Y81.949 E21.44961
G1 X106.710 Y82.103 E21.46135
G1 X106.815 Y82.419 E21.48656
G1 X106.721 Y82.606 E21.50242
G1 X106.710 Y82.761 E21.51416
G1 X106.815 Y83.077 E21.53938
G1 X106.721 Y83.264 E21.55524
G1 X106.710 Y83.419 E21.56698
G1 X106.815 Y83.735 E21.59219
G1 X106.721 Y83.922 E21.60805
G1 X106.710 Y84.076 E21.61979
G1 X106.815 Y84.392 E21.64500
G1 X106.721 Y84.580 E21.66087
G1 X106.710 Y84.734 E21.67260
G1 X106.815 Y85.050 E21.69782
G1 X106.721 Y85.237 E21.71368
G1 X106.710 Y85.392 E21.72542
G1 X106.815 Y85.708 E21.75063
G1 X106.721 Y85.895 E21.76650
G1 X106.710 Y86.050 E21.77823
G1 X106.815 Y86.366 E21.80345
G1 X106.721 Y86.553 E21.81931
G1 X106.710 Y86.707 E21.83105
G1 X106.815 Y87.023 E21.85626
G1 X106.721 Y87.210 E21.87213
G1 X106.710 Y87.365 E21.88386
G1 X106.815 Y87.681 E21.90908
G1 X106.721 Y87.868 E21.92494
G1 X106.710 Y88.023 E21.93668
G1 X106.815 Y88.339 E21.96189
G1 X106.721 Y88.526 E21.97775
G1 X106.710 Y88.680 E21.98949
G1 X106.815 Y88.996 E22.01471
G1 X106.721 Y89.184 E22.03057
G1 X106.710 Y89.338 E22.04231
G1 X106.815 Y89.654 E22.06752
G1 X106.721 Y89.841 E22.08338
G1 X106.710 Y89.996 E22.09512
G1 X106.815 Y90.312 E22.12034
G1 X106.721 Y90.499 E22.13620
G1 X106.710 Y90.654 E22.14794
G1 X106.815 Y90.970 E22.17315
G1 X106.721 Y91.157 E22.18901
G1 X106.710 Y91.311 E22.20075
G1 X106.815 Y91.627 E22.22597
G1 X106.721 Y91.814 E22.24183
G1 X106.710 Y91.969 E22.25357
G1 X106.815 Y92.285 E22.27878
G1 X106.721 Y92.472 E22.29464
G1 X106.710 Y92.627 E22.30638
G1 X106.815 Y92.943 E22.33160
G1 X106.721 Y93.130 E22.34746
G1 X106.710 Y93.284 E22.35920
G1 X106.815 Y93.600 E22.38441
G1 X106.721 Y93.788 E22.40027
G1 X106.710 Y93.942 E22.41201
G1 X106.815 Y94.258 E22.43723
G1 X106.721 Y94.445 E22.45309
G1 X106.710 Y94.600 E22.46483
G1 X106.815 Y94.916 E22.49004
G1 X106.721 Y95.103 E22.50590
