; generated by Slic3r 1.2.9 on 2017-05-16 at 21:12:18

; external perimeters extrusion width = 0.40mm
; perimeters extrusion width = 0.40mm
; infill extrusion width = 0.40mm
; solid infill extrusion width = 0.40mm
; top infill extrusion width = 0.40mm
; support material extrusion width = 0.40mm

M107
M190 S77 ; set bed temperature
M104 S280 ; set temperature
G1 X3 Y0
G1 Z5 F5000 ; lift nozzle

M109 S280 ; wait for temperature to be reached
G21 ; set units to millimeters
G90 ; use absolute coordinates
M82 ; use absolute distances for extrusion
G92 E0
G1 Z0.496 F3600.000
G1 E-2.00000 F2400.00000
G92 E0
G1 X90.63964203923138 Y77.89557934023895 F3600.000
G1 E2.00000 F2400.00000
G1 X90.7951970976439 Y77.08709733910986 E2.07225 F1500.000
G1 X91.14744508213052 Y76.65181941800166 E2.13385
G1 X101.23178248949289 Y74.46774607669684 E3.21566
G1 X124.7832053803716 Y71.83324018511043 E5.45891 F1500.000
G1 X126.29976874483975 Y72.60543684238789 E5.57401
G1 X127.92515487190155 Y74.30894399186025 E5.71007
G1 X128.48279312421568 Y75.40233068514772 E5.78189
G1 X129.12278923954517 Y76.28731065576514 E5.84384
G1 X129.14988553227602 Y76.5104252425264 E5.85970
G1 X129.2273770723526 Y76.69106161506396 E5.87144
G1 X129.49047177688402 Y77.05100505834669 E5.89665
G1 X129.5184411773088 Y77.27463802860241 E5.91252
G1 X129.5964993238629 Y77.45561155582735 E5.92425
G1 X129.8604473617737 Y77.81606387981836 E5.94947
G1 X129.88928441176355 Y78.04021564175186 E5.96533
G1 X129.9673383969988 Y78.22036090914266 E5.97707
G1 X130.23212900816756 Y78.58131922538823 E6.00228
G1 X130.26239569806782 Y78.80715593009006 E6.01815
G1 X130.34100368648384 Y78.9876354911769 E6.02988
G1 X130.6066287521426 Y79.3490983984313 E6.05510
G1 X130.63718345096086 Y79.57428792622365 E6.07096
G1 X130.71691306789646 Y79.75626999206716 E6.08270
G1 X130.98336325656018 Y80.11823526605022 E6.10791
G1 X131.01476927430738 Y80.34394443386053 E6.12377
G1 X131.09504723672822 Y80.52626191821281 E6.13551
G1 X131.36173571097484 Y80.88755529791824 E6.16073
G1 X131.39456519963068 Y81.11495625448791 E6.17659
G1 X131.4748073092332 Y81.2964353444637 E6.18833
G1 X131.74287883980674 Y81.65939772875466 E6.21354
G1 X131.775969937618 Y81.88614581162895 E6.22940
G1 X131.85733026646642 Y82.06913200931369 E6.24114
G1 X132.12619940420598 Y82.43258980234097 E6.26636
G1 X132.160125563651 Y82.65985783364957 E6.28222
G1 X132.24202078386432 Y82.8431777651352 E6.29396
G1 X132.51167850797154 Y83.2071285562612 E6.31917
G1 X132.54643432774793 Y83.43491652399035 E6.33503
G1 X132.62827047805456 Y83.61739013267585 E6.34677
G1 X132.898706667898 Y83.98183072552541 E6.37199
G1 X132.93487745885201 Y84.21131873233747 E6.38785
G1 X133.01723642445742 Y84.39412274403814 E6.39959
G1 X133.28844340752127 Y84.7590513929404 E6.42480
G1 X133.32484115122733 Y84.98787818635158 E6.44066
G1 X133.4083137214469 Y85.17219490656068 E6.45240
G1 X133.6802827121487 Y85.53760907979307 E6.47762
G1 X133.71749399386752 Y85.7669554446153 E6.49348
G1 X133.80148385574802 Y85.95160318806649 E6.50522
G1 X134.07360590735223 Y86.31631406187954 E6.53043
G1 X134.11222561720464 Y86.54736602535513 E6.54629
G1 X134.1961261922266 Y86.73115649164129 E6.55803
G1 X134.46959203106107 Y87.09753324403657 E6.58325
G1 X134.50841313836096 Y87.3279172284365 E6.59911
G1 X134.59342382523747 Y87.51322422427089 E6.61085
G1 X134.86762580026388 Y87.88007869448914 E6.63606
G1 X134.90724444965883 Y88.11098141480862 E6.65192
G1 X134.99275949842644 Y88.2966170837609 E6.66366
G1 X135.267689138981 Y88.66394660192906 E6.68887
G1 X135.30810002730806 Y88.89536767995725 E6.70474
G1 X135.39350369201617 Y89.08013760718626 E6.71647
G1 X135.66915151942243 Y89.44793875704973 E6.74169
G1 X135.71034816844292 Y89.67987697976834 E6.75755
G1 X135.79685843936156 Y89.86616695275252 E6.76929
G1 X136.07321723983748 Y90.23443772473513 E6.79450
G1 X136.11519558080207 Y90.46689340647745 E6.81037
G1 X136.2021975226538 Y90.65350945550655 E6.82210
G1 X136.4792590615878 Y91.0222470925343 E6.84732
G1 X136.52201384392188 Y91.25521971424662 E6.86318
G1 X136.60888278951703 Y91.44096137260809 E6.87492
G1 X136.88663786140705 Y91.8101623883176 E6.90013
G1 X136.93078539174454 Y92.0448516386785 E6.91600
G1 X137.01813473040713 Y92.23091553479641 E6.92773
G1 X137.296576319295 Y92.60057782875064 E6.95295
G1 X137.34086714812892 Y92.834581811391 E6.96881
G1 X137.42931841859655 Y93.02216999813625 E6.98055
G1 X137.70843852502284 Y93.39229073918439 E7.00576
G1 X137.7534901663112 Y93.62680984048565 E7.02162
G1 X137.84241656688988 Y93.81472029319526 E7.03336
G1 X138.12220726950463 Y94.18529662825613 E7.05858
G1 X138.1680145511254 Y94.4203301558536 E7.07444
G1 X138.2567798916205 Y94.60735444125527 E7.08618
G1 X138.53723234567667 Y94.97838281081947 E7.11139
G1 X138.58378897980816 Y95.21392925142095 E7.12725
G1 X138.67365276071732 Y95.40248069974976 E7.13899
G1 X138.95476021353136 Y95.77395890110051 E7.16421
G1 X139.00206221491823 Y96.0100182630188 E7.18007
G1 X139.09238901535915 Y96.19888888669561 E7.19181
G1 X139.3741437785359 Y96.57081400888666 E7.21702
G1 X139.42218603938184 Y96.8073854803335 E7.23288
G1 X139.51233130085672 Y96.99536095378295 E7.24462
G1 X139.79472479675334 Y97.36772939656962 E7.26984
G1 X139.84414377441766 Y97.60602605467827 E7.28570
G1 X139.93474135110267 Y97.7943166119202 E7.29744
G1 X140.21776702329845 Y98.16712610905724 E7.32265
G1 X140.26727346391243 Y98.40471843870755 E7.33851
G1 X140.35896486152924 Y98.59453960549533 E7.35025
G1 X140.64261525227693 Y98.9677871993803 E7.37547
G1 X140.6928467726771 Y99.20588898120505 E7.39133
G1 X140.7849854387889 Y99.39602492780594 E7.40307
G1 X141.0692531666628 Y99.76970764763134 E7.42828
G1 X141.12020475112698 Y100.00831792410861 E7.44414
G1 X141.21213532129596 Y100.19754658196581 E7.45588
G1 X141.49701215926788 Y100.57166079036533 E7.48110
G1 X141.54867773313885 Y100.81077779935406 E7.49696
G1 X141.6416986978058 Y101.00153938400506 E7.50870
G1 X141.9271783486165 Y101.37608274616292 E7.53391
G1 X141.9795540350793 Y101.6157062349338 E7.54977
G1 X142.0730107585533 Y101.80677912136323 E7.56151
G1 X142.3590860675918 Y102.18174863353563 E7.58672
G1 X142.41216692403776 Y102.42187754502011 E7.60259
G1 X142.50539619607392 Y102.61203394702996 E7.61432
G1 X142.7920591944804 Y102.98742595583924 E7.63954
G1 X142.84650062217133 Y103.2292864374128 E7.65540
G1 X142.94015552321187 Y103.41974986944753 E7.66714
G1 X143.22740010556637 Y103.79556199982434 E7.69235
G1 X143.2818755216444 Y104.03669769688311 E7.70822
G1 X143.37661631172637 Y104.22869681756652 E7.71995
G1 X143.66443554686734 Y104.60492604222988 E7.74517
G1 X143.71960146410092 Y104.84656380762348 E7.76103
G1 X143.81476307041638 Y105.03886938247913 E7.77277
G1 X144.10315010089127 Y105.41551266826093 E7.79798
G1 X144.15900167870197 Y105.65765132455098 E7.81385
G1 X144.25391076154574 Y105.8490280651532 E7.82558
G1 X144.54285795569422 Y106.22608175158767 E7.85080
G1 X144.59938934864144 Y106.46871933488896 E7.86666
G1 X144.69538099745964 Y106.66163360751825 E7.87840
G1 X144.9848825015905 Y107.03909527942264 E7.90361
G1 X145.0420899601216 Y107.28223131753944 E7.91947
G1 X145.13849152447466 Y107.47544827279235 E7.93121
G1 X145.42854069954768 Y107.85331488486115 E7.95643
G1 X145.4864194624364 Y108.09694811893837 E7.97229
G1 X145.58255024899103 Y108.28922693623015 E7.98403
G1 X145.87313971050327 Y108.66749483239795 E8.00924
G1 X145.93236297682566 Y108.91286412631668 E8.02510
G1 X146.0288941168836 Y109.10544123783009 E8.03684
G1 X146.3200181964177 Y109.48410798213884 E8.06206
G1 X146.37922438993863 Y109.72873097955892 E8.07792
G1 X146.47683374854878 Y109.92284780305076 E8.08966
G1 X146.7684860213527 Y110.30191034579447 E8.11487
G1 X146.828349405011 Y110.54702661459964 E8.13073
G1 X146.92635454880107 Y110.74144093815698 E8.14247
G1 X147.2185286606275 Y111.12089622976717 E8.16769
G1 X147.279044582045 Y111.36650441368953 E8.18355
G1 X147.3767553245762 Y111.5599681671557 E8.19529
G1 X147.669444212403 Y111.93981256902724 E8.22050
G1 X147.73060706569916 Y112.18591054490656 E8.23636
G1 X147.82939283511922 Y112.38091545289247 E8.24810
G1 X148.12259107239515 Y112.76114651256388 E8.27332
G1 X148.18439724883316 Y113.00773362654735 E8.28918
G1 X148.28356850979816 Y113.20303205137981 E8.30092
G1 X148.5772699506893 Y113.58364672417613 E8.32613
G1 X148.63971488131966 Y113.83072155487021 E8.34199
G1 X148.7385745561655 Y114.02506008688995 E8.35373
G1 X149.03277237238794 Y114.40605475511613 E8.37895
G1 X149.09654596938188 Y114.65486850231528 E8.39481
G1 X149.19578212871838 Y114.84949610055828 E8.40655
G1 X149.49047107090135 Y115.23086830699566 E8.43176
G1 X149.55417896200692 Y115.47891349084449 E8.44762
G1 X149.65448599023017 Y115.6750839335596 E8.45936
G1 X149.94966011632036 Y116.05683064467122 E8.48457
G1 X150.01399323063166 Y116.30535916444573 E8.50044
G1 X150.11467242411715 Y116.50181770785034 E8.51217
G1 X150.41032585896488 Y116.8839358951002 E8.53739
G1 X150.4752797405607 Y117.13294625248375 E8.55325
G1 X150.57562512571548 Y117.32843249743661 E8.56499
G1 X150.87175134530654 Y117.71091858022919 E8.59020
G1 X150.93732063343379 Y117.96040853054325 E8.60607
G1 X151.03873384665272 Y118.15743872651012 E8.61780
G1 X151.33532783193752 Y118.54029025036442 E8.64302
G1 X151.40150906777646 Y118.7902589920024 E8.65888
G1 X151.50328474986938 Y118.98757316410314 E8.67062
G1 X151.8003408230693 Y119.37078711904381 E8.69583
G1 X151.8671296364029 Y119.62123310301016 E8.71170
G1 X151.9685553560341 Y119.81756570936419 E8.72343
G1 X152.26606721459643 Y120.20113854875868 E8.74865
G1 X152.33416920704298 Y120.4533249109321 E8.76451
G1 X152.43594892609815 Y120.64993702649323 E8.77625
G1 X152.7339117190416 Y121.03386630403433 E8.80146
G1 X152.80190178463093 Y121.28526134445121 E8.81732
G1 X152.904745384177 Y121.48341869209143 E8.82906
G1 X153.20315362615744 Y121.86770142129532 E8.85428
G1 X153.27173833750305 Y122.11956896814551 E8.87014
G1 X153.3749318663255 Y122.3180047286746 E8.88188
G1 X153.67378013506402 Y122.70263793189943 E8.90709
G1 X153.74295523697987 Y122.95497637732417 E8.92295
G1 X153.84577792711767 Y123.15241828317093 E8.93469
G1 X154.1450602062875 Y123.53739846621352 E8.95991
G1 X154.21482058479333 Y123.79020547715939 E8.97577
G1 X154.31870427786777 Y123.98919344253328 E8.98751
G1 X154.6184159341959 Y124.37451817720435 E9.01272
G1 X154.6887582857914 Y124.62779283433716 E9.02858
G1 X154.7929827931486 Y124.82705500633772 E9.04032
G1 X155.09311859009088 Y125.21272134427649 E9.06554
G1 X155.16403874609605 Y125.46646200171753 E9.08140
G1 X155.26787724767797 Y125.66472116835979 E9.09314
G1 X155.56843137667744 Y126.0507256593708 E9.11835
G1 X155.64064966453975 Y126.3062069766158 E9.13421
G1 X155.74482102785956 Y126.5047359048047 E9.14595
G1 X156.0457890139942 Y126.89107613909957 E9.17117
G1 X156.11558753692725 Y127.13901316699877 E9.18660
G1 X156.1912676848485 Y127.29678162983613 E9.19588
G1 X156.55535131384045 Y127.84164957734433 E9.22921
G1 X157.46141929056782 Y130.99747309376014 E9.42417
G1 X156.7840839179794 Y131.97578915668228 E9.55193
G1 X156.60045552935023 Y132.4832328312026 E9.60401
G1 X155.79263790372124 Y132.46169371896642 E9.68325
G1 X131.69896865579472 Y144.2061494459295 E12.89956
G1 X130.43512404640094 Y143.662440674082 E13.01466
G1 X128.64546338289585 Y141.84201912631718 E13.15072
G1 X127.78113369742812 Y140.49867768748345 E13.22260
G1 X126.97450413764174 Y139.48128915988036 E13.28451
G1 X126.84950595094959 Y139.1756323923202 E13.30037
G1 X126.71750070530906 Y138.9507691419497 E13.31211
G1 X126.38889302862019 Y138.5386495427244 E13.33732
G1 X126.26518366121358 Y138.23486273787194 E13.35319
G1 X126.13248049967146 Y138.0087773500339 E13.36492
G1 X125.80399750802835 Y137.5967942982135 E13.39014
G1 X125.68069145656385 Y137.29344882824984 E13.40600
G1 X125.54818285025075 Y137.0675761429507 E13.41774
G1 X125.2198276032993 Y136.65573268299488 E13.44295
G1 X125.09692935080379 Y136.3528324723977 E13.45882
G1 X124.96550420816138 Y136.12860341808025 E13.47055
G1 X124.6372796317378 Y135.71690243119596 E13.49577
G1 X124.51479309704531 Y135.41445075971083 E13.51163
G1 X124.38268111758968 Y135.18901025443603 E13.52337
G1 X124.05459060429807 Y134.77745511243842 E13.54858
G1 X123.9325210265651 Y134.47545666649444 E13.56445
G1 X123.80061150899054 Y134.2502360292573 E13.57618
G1 X123.47265832563905 Y133.83882994744997 E13.60140
G1 X123.35101038905194 Y133.5372887754157 E13.61726
G1 X123.22018891805028 Y133.31371527399594 E13.62900
G1 X122.89237618745923 Y132.9024612926429 E13.65421
G1 X122.77027200426004 Y132.5999569033183 E13.67007
G1 X122.63965730953426 Y132.37660692451905 E13.68181
G1 X122.31198865605938 Y131.96550860683647 E13.70703
G1 X122.19119767397324 Y131.66489358510026 E13.72289
G1 X122.05991176877033 Y131.44034704620086 E13.73463
G1 X121.73239068136301 Y131.02940778745318 E13.75984
G1 X121.61203580649408 Y130.72926243102685 E13.77570
G1 X121.48096354985005 Y130.5049457583178 E13.78744
G1 X121.15359359507254 Y130.09416901587588 E13.81266
G1 X121.03367979616252 Y129.79449754244618 E13.82852
G1 X120.90370211866963 Y129.57183291567165 E13.84026
G1 X120.57648670449808 Y129.16122195503985 E13.86547
G1 X120.45701834264369 Y128.86202789540127 E13.88133
G1 X120.32638185368992 Y128.63817837563525 E13.89307
G1 X119.99932493976789 Y128.22773703115075 E13.91829
G1 X119.88030780741263 Y127.92902541263344 E13.93415
G1 X119.74989387051664 Y127.7054136020155 E13.94589
G1 X119.42299926731032 Y127.29514552371673 E13.97110
G1 X119.30443855951043 Y126.99692069375855 E13.98696
G1 X119.17512443878546 Y126.77496479427272 E13.99870
G1 X118.84839578639672 Y126.36487342681858 E14.02392
G1 X118.72942284033894 Y126.06572452988813 E14.03978
G1 X118.6003361588828 Y125.84401034777095 E14.05152
G1 X118.27377768973138 Y125.43409974122645 E14.07673
G1 X118.15614501582216 Y125.13686094929575 E14.09259
G1 X118.02641703025641 Y124.91397812952596 E14.10433
G1 X117.700032816478 Y124.50425213651583 E14.12954
G1 X117.58287261757131 Y124.2075134319382 E14.14541
G1 X117.45337979385693 Y123.98487925948784 E14.15714
G1 X117.12804392629461 Y123.57675280344999 E14.18236
G1 X117.01049179026639 Y123.27910770882515 E14.19822
G1 X116.88210625241145 Y123.05813485371901 E14.20996
G1 X116.55608285284814 Y122.64878963042509 E14.23517
G1 X116.4398834935865 Y122.35306393853082 E14.25104
G1 X116.31087055817268 Y122.1309351791223 E14.26277
G1 X115.98503418113907 Y121.72178654453923 E14.28799
G1 X115.86932408536782 Y121.42657463744754 E14.30385
G1 X115.7405563577435 Y121.20470310035917 E14.31559
G1 X115.41491145428306 Y120.79575519321683 E14.34080
G1 X115.29969639162108 Y120.5010617284647 E14.35667
G1 X115.17204194161012 Y120.2808557565285 E14.36840
G1 X114.84659276182293 Y119.87211247533297 E14.39362
G1 X114.7310142899469 Y119.57653705990886 E14.40948
G1 X114.60361059320951 Y119.35659269713413 E14.42122
G1 X114.2783620857422 Y118.94805863886074 E14.44643
G1 X114.16415397575545 Y118.6544154053377 E14.46230
G1 X114.03614253823214 Y118.43333287282734 E14.47403
G1 X113.71109946262942 Y118.02501240306336 E14.49925
G1 X113.59740421770208 Y117.73190184714596 E14.51511
G1 X113.4696522291313 Y117.5110884864169 E14.52685
G1 X113.14567930769606 Y117.10438652457626 E14.55206
G1 X113.03164320224668 Y116.81041300819055 E14.56792
G1 X112.90501304193717 Y116.59127114101084 E14.57966
G1 X112.58039521159978 Y116.18339091671471 E14.60488
G1 X112.4677433756008 Y115.89135944628323 E14.62074
G1 X112.34052110436376 Y115.67109329462863 E14.63248
G1 X112.01612363405548 Y115.2634402216482 E14.65769
G1 X111.9040033242779 Y114.97195607001002 E14.67355
G1 X111.77705185770466 Y114.75196844866706 E14.68529
G1 X111.45287995381724 Y114.34454721190026 E14.71051
G1 X111.3412975853973 Y114.0536153522693 E14.72637
G1 X111.21547480903907 Y113.83530387092965 E14.73811
G1 X110.89153344146702 Y113.42811887492692 E14.76332
G1 X110.77964192034564 Y113.13635027771359 E14.77918
G1 X110.6540962504326 Y112.91832211332509 E14.79092
G1 X110.33039121203187 Y112.51137856579236 E14.81614
G1 X110.21990352472643 Y112.22156553172587 E14.83200
