; generated by Slic3r 1.2.9 on 2017-06-18 at 11:28:50

; external perimeters extrusion width = 0.40mm
; perimeters extrusion width = 0.40mm
; infill extrusion width = 0.40mm
; solid infill extrusion width = 0.40mm
; top infill extrusion width = 0.40mm
; support material extrusion width = 0.40mm

M107
M190 S77 ; set bed temperature
M104 S280 ; set temperature
;G28 ; home all axes
G1 Z5 F5000 ; lift nozzle

M109 S280 ; wait for temperature to be reached
G21 ; set units to millimeters
G90 ; use absolute coordinates
M82 ; use absolute distances for extrusion
G92 E0
G1 Z0.496 F3600.000
G1 E-2.00000 F2400.00000
G92 E0
G1 X40.213 Y15.146 F3600.000
G1 E2.00000 F2400.00000
G1 X41.058 Y13.461 E2.14272 F1500.000
G1 X41.069 Y13.307 E2.15446
G1 X40.964 Y12.991 E2.17963
G1 X42.591 Y9.744 E2.45472
G1 X42.603 Y9.590 E2.46646
G1 X42.498 Y9.274 E2.49163
G1 X44.751 Y4.778 E2.87257
G1 X45.067 Y4.673 E2.89774
G1 X45.184 Y4.572 E2.90947
G1 X46.729 Y1.488 E3.17071
G1 X47.045 Y1.384 E3.19588
G1 X47.162 Y1.282 E3.20762
G1 X47.789 Y0.030 E3.31368
G1 X48.105 Y-0.074 E3.33885
G1 X48.222 Y-0.176 E3.35059
G1 X48.616 Y-0.963 E3.41730
G1 X48.932 Y-1.068 E3.44247
G1 X49.049 Y-1.169 E3.45420
G1 X49.177 Y-1.425 E3.47582
G1 X50.031 Y-1.708 E3.54398
G1 X50.180 Y-1.813 E3.55781
G1 X50.733 Y-2.095 E3.60479
G1 X52.452 Y-2.553 E3.73953
G1 X53.158 Y-2.324 E3.79579
G1 X54.298 Y-2.099 E3.88380 F1500.000
G1 X54.681 Y-1.807 E3.92030
G1 X55.299 Y-1.427 E3.97524
G1 X55.626 Y-1.280 E4.00236
G1 X56.307 Y-0.380 E4.08782
G1 X56.637 Y-0.123 E4.11958
G1 X56.984 Y0.845 E4.19742
G1 X57.035 Y0.922 E4.20442
G1 X57.149 Y1.029 E4.21624
G1 X57.352 Y2.050 E4.29512
G1 X57.432 Y2.179 E4.30659
G1 X57.563 Y3.238 E4.38742
G1 X57.588 Y3.292 E4.39191
G1 X57.693 Y4.383 E4.47498
G1 X57.711 Y4.425 E4.47841
G1 X58.155 Y9.836 E4.88966
G1 X58.432 Y12.878 E5.12103
G1 X58.763 Y16.103 E5.36652
G1 X59.023 Y18.429 E5.54380
G1 X59.385 Y21.350 E5.76675
G1 X59.700 Y23.696 E5.94605
G1 X60.098 Y26.403 E6.15332
G1 X60.451 Y28.629 E6.32401
G1 X60.904 Y31.254 E6.52574
G1 X61.267 Y33.228 E6.67779
G1 X61.679 Y35.314 E6.83883
G1 X62.063 Y37.128 E6.97928
G1 X62.600 Y39.515 E7.16455
G1 X63.070 Y41.458 E7.31599
G1 X63.714 Y43.927 E7.50927
G1 X63.952 Y44.801 E7.57786
G1 X63.981 Y44.848 E7.58208
G1 X64.208 Y45.741 E7.65184
G1 X64.257 Y45.823 E7.65908
G1 X64.482 Y46.841 E7.73808
G1 X64.586 Y46.993 E7.75202
G1 X64.831 Y48.906 E7.89811
G1 X64.835 Y49.272 E7.92582
G1 X65.068 Y49.976 E7.98201
G1 X64.969 Y50.173 E7.99875
G1 X64.958 Y50.328 E8.01049
G1 X65.063 Y50.643 E8.03566
G1 X64.887 Y50.994 E8.06539
G1 X64.876 Y51.149 E8.07713
G1 X64.981 Y51.464 E8.10230
G1 X64.680 Y52.064 E8.15312
G1 X64.669 Y52.218 E8.16486
G1 X64.774 Y52.534 E8.19003
G1 X64.340 Y53.399 E8.26332
G1 X64.329 Y53.553 E8.27506
G1 X64.434 Y53.869 E8.30023
G1 X63.952 Y54.830 E8.38162
G1 X63.941 Y54.984 E8.39336
G1 X64.046 Y55.299 E8.41853
G1 X63.585 Y56.219 E8.49647
G1 X63.574 Y56.374 E8.50821
G1 X63.679 Y56.689 E8.53338
G1 X63.241 Y57.561 E8.60726
G1 X63.230 Y57.716 E8.61899
G1 X63.335 Y58.031 E8.64416
G1 X62.934 Y58.831 E8.71191
G1 X62.923 Y58.985 E8.72365
G1 X63.028 Y59.301 E8.74882
G1 X62.647 Y60.062 E8.81330
G1 X62.635 Y60.216 E8.82504
G1 X62.740 Y60.532 E8.85021
G1 X62.375 Y61.261 E8.91201
G1 X62.363 Y61.416 E8.92375
G1 X62.468 Y61.731 E8.94892
G1 X62.128 Y62.410 E9.00644
G1 X62.117 Y62.565 E9.01818
G1 X62.222 Y62.880 E9.04335
G1 X61.886 Y63.549 E9.10000
G1 X61.875 Y63.703 E9.11174
G1 X61.980 Y64.019 E9.13691
G1 X61.670 Y64.637 E9.18927
G1 X61.659 Y64.791 E9.20101
G1 X61.764 Y65.107 E9.22618
G1 X61.455 Y65.722 E9.27833
G1 X61.444 Y65.877 E9.29007
G1 X61.549 Y66.192 E9.31524
G1 X61.262 Y66.765 E9.36378
G1 X61.251 Y66.920 E9.37552
G1 X61.355 Y67.235 E9.40069
G1 X61.070 Y67.804 E9.44888
G1 X61.059 Y67.958 E9.46062
G1 X61.164 Y68.274 E9.48579
G1 X60.893 Y68.814 E9.53153
G1 X60.882 Y68.968 E9.54327
G1 X60.987 Y69.284 E9.56844
G1 X60.723 Y69.811 E9.61311
G1 X60.712 Y69.965 E9.62485
G1 X60.816 Y70.281 E9.65002
G1 X60.558 Y70.797 E9.69372
G1 X60.547 Y70.951 E9.70546
G1 X60.652 Y71.267 E9.73063
G1 X60.406 Y71.757 E9.77218
G1 X60.395 Y71.911 E9.78391
G1 X60.499 Y72.227 E9.80908
G1 X60.254 Y72.717 E9.85063
G1 X60.243 Y72.872 E9.86237
G1 X60.347 Y73.187 E9.88753
G1 X60.114 Y73.653 E9.92698
G1 X60.103 Y73.807 E9.93872
G1 X60.208 Y74.123 E9.96389
G1 X59.978 Y74.580 E10.00262
G1 X59.967 Y74.734 E10.01436
G1 X60.072 Y75.050 E10.03953
G1 X59.843 Y75.507 E10.07826
G1 X59.832 Y75.661 E10.09000
G1 X59.937 Y75.977 E10.11517
G1 X59.722 Y76.404 E10.15137
G1 X59.711 Y76.559 E10.16311
G1 X59.816 Y76.874 E10.18828
G1 X59.602 Y77.301 E10.22448
G1 X59.591 Y77.456 E10.23622
G1 X59.696 Y77.771 E10.26139
G1 X59.482 Y78.197 E10.29742
G1 X59.471 Y78.351 E10.30916
G1 X59.576 Y78.667 E10.33433
G1 X59.375 Y79.067 E10.36824
G1 X59.364 Y79.221 E10.37997
G1 X59.469 Y79.537 E10.40514
G1 X59.268 Y79.937 E10.43905
G1 X59.257 Y80.091 E10.45079
G1 X59.362 Y80.407 E10.47596
G1 X59.162 Y80.807 E10.50986
G1 X59.150 Y80.962 E10.52160
G1 X59.255 Y81.277 E10.54677
G1 X59.066 Y81.653 E10.57868
G1 X59.055 Y81.808 E10.59042
G1 X59.160 Y82.123 E10.61559
G1 X58.972 Y82.499 E10.64740
G1 X58.961 Y82.654 E10.65914
G1 X59.065 Y82.969 E10.68431
G1 X58.877 Y83.344 E10.71613
G1 X58.866 Y83.499 E10.72787
G1 X58.971 Y83.814 E10.75304
G1 X58.790 Y84.175 E10.78361
G1 X58.779 Y84.330 E10.79534
G1 X58.884 Y84.645 E10.82051
G1 X58.707 Y84.998 E10.85043
G1 X58.696 Y85.153 E10.86217
G1 X58.800 Y85.468 E10.88733
G1 X58.623 Y85.821 E10.91725
G1 X58.612 Y85.976 E10.92899
G1 X58.717 Y86.291 E10.95416
G1 X58.541 Y86.641 E10.98383
G1 X58.530 Y86.796 E10.99557
G1 X58.635 Y87.111 E11.02074
G1 X58.466 Y87.448 E11.04925
G1 X58.455 Y87.602 E11.06099
G1 X58.560 Y87.918 E11.08615
G1 X58.392 Y88.254 E11.11466
G1 X58.380 Y88.409 E11.12640
G1 X58.485 Y88.724 E11.15157
G1 X58.317 Y89.061 E11.18007
G1 X58.305 Y89.215 E11.19181
G1 X58.410 Y89.530 E11.21698
G1 X58.239 Y89.872 E11.24594
G1 X58.228 Y90.027 E11.25768
G1 X58.332 Y90.342 E11.28285
G1 X58.159 Y90.689 E11.31224
G1 X58.147 Y90.844 E11.32398
G1 X58.252 Y91.159 E11.34915
G1 X58.061 Y91.542 E11.38156
G1 X58.049 Y91.696 E11.39330
G1 X58.154 Y92.012 E11.41847
G1 X57.954 Y92.411 E11.45233
G1 X57.943 Y92.566 E11.46407
G1 X58.047 Y92.881 E11.48924
G1 X57.794 Y93.387 E11.53211
G1 X57.783 Y93.542 E11.54385
G1 X57.887 Y93.857 E11.56902
G1 X57.554 Y94.522 E11.62536
G1 X57.543 Y94.677 E11.63710
G1 X57.648 Y94.992 E11.66226
G1 X57.120 Y96.045 E11.75152
G1 X57.109 Y96.200 E11.76326
G1 X57.213 Y96.515 E11.78842
G1 X56.843 Y97.255 E11.85105
G1 X56.832 Y97.409 E11.86279
G1 X56.937 Y97.724 E11.88796
G1 X56.767 Y98.062 E11.91659
G1 X56.756 Y98.217 E11.92833
G1 X56.861 Y98.532 E11.95350
G1 X55.589 Y101.070 E12.16848
G1 X55.106 Y101.230 E12.20706
G1 X54.415 Y101.795 E12.27461
G1 X53.861 Y102.077 E12.32168
G1 X52.142 Y102.531 E12.45637
G1 X51.676 Y102.381 E12.49349
G1 X51.222 Y102.288 E12.52854
G1 X51.060 Y102.300 E12.54092
G1 X50.707 Y102.182 E12.56910
G1 X50.266 Y102.092 E12.60316
G1 X50.096 Y101.973 E12.61890
G1 X49.712 Y101.842 E12.64961
G1 X49.243 Y101.354 E12.70089
G1 X49.060 Y101.261 E12.71640
G1 X47.787 Y99.683 E12.86998
G1 X46.987 Y98.608 E12.97144
G1 X46.895 Y98.539 E12.98017
G1 X46.531 Y98.006 E13.02903
G1 X46.473 Y97.956 E13.03487
G1 X46.104 Y97.390 E13.08603
G1 X46.039 Y97.331 E13.09266
G1 X45.658 Y96.731 E13.14647
G1 X44.902 Y95.466 E13.25813
G1 X44.858 Y95.421 E13.26289
G1 X44.154 Y94.118 E13.37505
G1 X44.092 Y94.053 E13.38187
G1 X43.680 Y93.242 E13.45077
G1 X43.437 Y92.716 E13.49461
G1 X43.363 Y92.634 E13.50302
G1 X42.757 Y91.265 E13.61643
G1 X42.699 Y91.194 E13.62334
G1 X42.390 Y90.470 E13.68299
G1 X41.789 Y88.958 E13.80621
G1 X41.729 Y88.879 E13.81375
G1 X40.592 Y85.682 E14.07080
G1 X40.345 Y84.873 E14.13479
G1 X40.316 Y84.830 E14.13873
G1 X39.806 Y83.113 E14.27443
G1 X39.551 Y82.223 E14.34450
G1 X39.083 Y80.428 E14.48507
G1 X38.443 Y77.673 E14.69927
G1 X38.420 Y77.633 E14.70279
G1 X38.020 Y75.726 E14.85033
G1 X37.644 Y73.778 E15.00062
G1 X37.290 Y71.787 E15.15380
G1 X36.956 Y69.755 E15.30976
G1 X36.642 Y67.684 E15.46843
G1 X36.364 Y65.612 E15.62674
G1 X36.345 Y65.573 E15.63007
G1 X35.950 Y62.359 E15.87533
G1 X35.716 Y60.158 E16.04298
G1 X35.693 Y60.106 E16.04722
G1 X35.393 Y56.680 E16.30775
G1 X35.302 Y55.450 E16.40114
G1 X35.243 Y54.236 E16.49321
G1 X35.223 Y54.185 E16.49739
G1 X35.186 Y52.955 E16.59059
G1 X35.161 Y52.887 E16.59603
G1 X35.148 Y50.714 E16.76066
G1 X35.139 Y50.631 E16.76701
G1 X34.927 Y49.993 E16.81790
G1 X35.022 Y49.804 E16.83387
G1 X35.033 Y49.650 E16.84561
G1 X34.928 Y49.334 E16.87078
G1 X35.028 Y49.134 E16.88776
G1 X35.040 Y48.979 E16.89950
G1 X34.935 Y48.664 E16.92467
G1 X35.039 Y48.457 E16.94225
G1 X35.050 Y48.302 E16.95399
G1 X34.945 Y47.987 E16.97916
G1 X35.060 Y47.758 E16.99854
G1 X35.071 Y47.603 E17.01028
G1 X34.966 Y47.288 E17.03545
G1 X35.082 Y47.058 E17.05497
G1 X35.093 Y46.903 E17.06670
G1 X34.988 Y46.588 E17.09187
G1 X35.117 Y46.330 E17.11368
G1 X35.128 Y46.176 E17.12542
G1 X35.023 Y45.860 E17.15059
G1 X35.152 Y45.603 E17.17240
G1 X35.163 Y45.448 E17.18414
G1 X35.059 Y45.133 E17.20931
G1 X35.201 Y44.848 E17.23343
G1 X35.213 Y44.694 E17.24517
G1 X35.108 Y44.378 E17.27034
G1 X35.251 Y44.093 E17.29455
G1 X35.262 Y43.938 E17.30629
G1 X35.157 Y43.623 E17.33146
G1 X35.319 Y43.300 E17.35877
G1 X35.330 Y43.146 E17.37051
G1 X35.225 Y42.830 E17.39567
G1 X35.387 Y42.508 E17.42299
G1 X35.398 Y42.353 E17.43472
G1 X35.293 Y42.038 E17.45989
G1 X35.455 Y41.716 E17.48720
G1 X35.466 Y41.561 E17.49894
G1 X35.361 Y41.246 E17.52411
G1 X35.532 Y40.906 E17.55292
G1 X35.543 Y40.751 E17.56466
G1 X35.438 Y40.436 E17.58983
G1 X35.620 Y40.072 E17.62062
G1 X35.631 Y39.918 E17.63236
G1 X35.526 Y39.602 E17.65753
G1 X35.709 Y39.239 E17.68833
G1 X35.720 Y39.084 E17.70006
G1 X35.615 Y38.769 E17.72523
G1 X35.801 Y38.398 E17.75667
G1 X35.812 Y38.243 E17.76841
G1 X35.707 Y37.928 E17.79358
G1 X35.906 Y37.532 E17.82717
G1 X35.917 Y37.377 E17.83891
G1 X35.812 Y37.062 E17.86407
G1 X36.011 Y36.665 E17.89767
G1 X36.022 Y36.511 E17.90940
G1 X35.917 Y36.195 E17.93457
G1 X36.122 Y35.788 E17.96909
G1 X36.133 Y35.633 E17.98082
G1 X36.028 Y35.318 E18.00599
G1 X36.242 Y34.891 E18.04215
G1 X36.253 Y34.737 E18.05389
G1 X36.148 Y34.421 E18.07906
G1 X36.362 Y33.994 E18.11522
G1 X36.373 Y33.840 E18.12696
G1 X36.269 Y33.525 E18.15213
G1 X36.495 Y33.073 E18.19038
G1 X36.506 Y32.918 E18.20212
G1 X36.401 Y32.603 E18.22729
G1 X36.631 Y32.144 E18.26615
G1 X36.642 Y31.990 E18.27789
G1 X36.537 Y31.674 E18.30306
G1 X36.775 Y31.200 E18.34327
G1 X36.786 Y31.045 E18.35501
G1 X36.682 Y30.730 E18.38018
G1 X36.929 Y30.236 E18.42205
G1 X36.941 Y30.081 E18.43379
G1 X36.836 Y29.766 E18.45896
G1 X37.091 Y29.257 E18.50205
G1 X37.102 Y29.103 E18.51379
G1 X36.997 Y28.787 E18.53896
G1 X37.265 Y28.253 E18.58423
G1 X37.276 Y28.098 E18.59597
G1 X37.171 Y27.783 E18.62114
G1 X37.450 Y27.226 E18.66829
G1 X37.461 Y27.072 E18.68003
G1 X37.357 Y26.756 E18.70520
G1 X37.647 Y26.176 E18.75435
G1 X37.658 Y26.022 E18.76608
G1 X37.554 Y25.706 E18.79125
G1 X37.866 Y25.084 E18.84398
G1 X37.877 Y24.929 E18.85572
G1 X37.772 Y24.614 E18.88089
G1 X38.098 Y23.963 E18.93605
G1 X38.109 Y23.808 E18.94779
G1 X38.005 Y23.493 E18.97296
G1 X38.352 Y22.800 E19.03168
G1 X38.363 Y22.645 E19.04342
G1 X38.258 Y22.330 E19.06859
G1 X38.640 Y21.568 E19.13312
G1 X38.651 Y21.414 E19.14486
G1 X38.546 Y21.099 E19.17003
G1 X38.962 Y20.269 E19.24027
G1 X38.973 Y20.115 E19.25201
G1 X38.868 Y19.800 E19.27718
G1 X39.330 Y18.879 E19.35514
G1 X39.341 Y18.725 E19.36687
G1 X39.236 Y18.409 E19.39204
G1 X39.762 Y17.360 E19.48091
G1 X39.773 Y17.206 E19.49265
G1 X39.668 Y16.891 E19.51782
G1 X40.307 Y15.616 E19.62584
G1 X40.318 Y15.461 E19.63758
G1 X40.237 Y15.217 E19.65706
G1 X40.634 Y15.176 F3600.000
G1 X41.478 Y13.491 E19.79979 F1500.000
G1 X41.489 Y13.337 E19.81153
G1 X41.385 Y13.021 E19.83670
G1 X43.012 Y9.775 E20.11179
G1 X43.023 Y9.620 E20.12353
G1 X42.918 Y9.305 E20.14869
G1 X45.027 Y5.097 E20.50519
G1 X45.343 Y4.992 E20.53036
G1 X45.460 Y4.891 E20.54209
G1 X47.005 Y1.807 E20.80333
G1 X47.321 Y1.702 E20.82850
G1 X47.438 Y1.601 E20.84024
G1 X48.065 Y0.349 E20.94630
G1 X48.381 Y0.244 E20.97147
G1 X48.498 Y0.143 E20.98321
G1 X48.892 Y-0.644 E21.04992
G1 X49.208 Y-0.749 E21.07509
G1 X49.325 Y-0.851 E21.08683
G1 X49.453 Y-1.106 E21.10844
G1 X50.221 Y-1.361 E21.16979
G1 X50.394 Y-1.485 E21.18588
G1 X50.873 Y-1.729 E21.22660
G1 X52.441 Y-2.147 E21.34950
G1 X53.083 Y-1.940 E21.40060 F1500.000
G1 X54.134 Y-1.734 E21.48170
G1 X54.460 Y-1.485 E21.51280
G1 X55.118 Y-1.081 E21.57126
G1 X55.376 Y-0.965 E21.59273
G1 X56.029 Y-0.102 E21.67469
G1 X56.310 Y0.119 E21.70175
G1 X56.649 Y1.064 E21.77784
G1 X56.791 Y1.227 E21.79418
G1 X56.992 Y2.237 E21.87219
G1 X57.061 Y2.355 E21.88251
G1 X57.192 Y3.409 E21.96301
G1 X57.212 Y3.453 E21.96668
G1 X57.334 Y4.584 E22.05284
G1 X57.764 Y9.843 E22.45250
G1 X58.044 Y12.914 E22.68604
G1 X58.286 Y15.334 E22.87029
G1 X58.636 Y18.472 E23.10941
G1 X58.898 Y20.621 E23.27338
G1 X59.308 Y23.710 E23.50941
G1 X59.713 Y26.462 E23.72006
G1 X60.066 Y28.690 E23.89097
G1 X60.398 Y30.643 E24.04100
G1 X60.884 Y33.299 E24.24549
G1 X61.291 Y35.361 E24.40467
G1 X61.675 Y37.178 E24.54538
G1 X62.220 Y39.603 E24.73366
G1 X62.692 Y41.552 E24.88553
G1 X63.145 Y43.318 E25.02360
G1 X63.607 Y45.017 E25.15696
G1 X63.633 Y45.059 E25.16072
G1 X63.859 Y45.950 E25.23034
G1 X63.902 Y46.022 E25.23665
G1 X64.125 Y47.032 E25.31503
G1 X64.216 Y47.169 E25.32754
G1 X64.441 Y48.927 E25.46171
G1 X64.444 Y49.331 E25.49232
G1 X64.648 Y49.945 E25.54137
G1 X64.549 Y50.143 E25.55812
G1 X64.538 Y50.298 E25.56986
G1 X64.642 Y50.613 E25.59502
G1 X64.467 Y50.964 E25.62476
G1 X64.455 Y51.118 E25.63650
G1 X64.560 Y51.434 E25.66166
G1 X64.260 Y52.034 E25.71248
G1 X64.248 Y52.188 E25.72422
G1 X64.353 Y52.503 E25.74939
G1 X63.920 Y53.369 E25.82268
G1 X63.909 Y53.523 E25.83442
G1 X64.013 Y53.838 E25.85959
G1 X63.532 Y54.799 E25.94099
G1 X63.521 Y54.954 E25.95273
G1 X63.625 Y55.269 E25.97790
G1 X63.164 Y56.189 E26.05584
G1 X63.153 Y56.344 E26.06757
G1 X63.258 Y56.659 E26.09274
G1 X62.821 Y57.531 E26.16662
G1 X62.810 Y57.686 E26.17836
G1 X62.915 Y58.001 E26.20353
G1 X62.514 Y58.801 E26.27128
G1 X62.503 Y58.955 E26.28301
G1 X62.607 Y59.270 E26.30818
G1 X62.226 Y60.032 E26.37266
G1 X62.215 Y60.186 E26.38440
G1 X62.320 Y60.501 E26.40957
G1 X61.954 Y61.231 E26.47137
G1 X61.943 Y61.386 E26.48311
G1 X62.048 Y61.701 E26.50828
G1 X61.707 Y62.380 E26.56580
G1 X61.696 Y62.534 E26.57754
G1 X61.801 Y62.850 E26.60271
G1 X61.466 Y63.518 E26.65936
G1 X61.455 Y63.673 E26.67110
G1 X61.559 Y63.988 E26.69627
G1 X61.250 Y64.606 E26.74864
G1 X61.239 Y64.761 E26.76037
G1 X61.343 Y65.076 E26.78554
G1 X61.035 Y65.692 E26.83770
G1 X61.024 Y65.846 E26.84943
G1 X61.128 Y66.162 E26.87460
G1 X60.841 Y66.735 E26.92315
G1 X60.830 Y66.889 E26.93489
G1 X60.935 Y67.205 E26.96006
G1 X60.650 Y67.774 E27.00825
G1 X60.639 Y67.928 E27.01998
G1 X60.743 Y68.243 E27.04515
G1 X60.473 Y68.783 E27.09089
G1 X60.462 Y68.938 E27.10263
G1 X60.567 Y69.253 E27.12780
G1 X60.302 Y69.781 E27.17248
G1 X60.291 Y69.935 E27.18422
G1 X60.396 Y70.251 E27.20939
G1 X60.137 Y70.766 E27.25309
G1 X60.126 Y70.921 E27.26483
G1 X60.231 Y71.236 E27.29000
G1 X59.985 Y71.727 E27.33154
G1 X59.974 Y71.881 E27.34328
G1 X60.079 Y72.197 E27.36845
G1 X59.833 Y72.687 E27.40999
G1 X59.822 Y72.841 E27.42173
G1 X59.927 Y73.157 E27.44690
G1 X59.693 Y73.622 E27.48635
G1 X59.682 Y73.777 E27.49808
G1 X59.787 Y74.092 E27.52325
G1 X59.558 Y74.550 E27.56199
G1 X59.547 Y74.704 E27.57373
G1 X59.652 Y75.019 E27.59889
G1 X59.422 Y75.477 E27.63763
G1 X59.411 Y75.631 E27.64937
G1 X59.516 Y75.947 E27.67453
G1 X59.302 Y76.374 E27.71073
G1 X59.291 Y76.528 E27.72247
G1 X59.396 Y76.844 E27.74764
G1 X59.181 Y77.271 E27.78384
G1 X59.170 Y77.426 E27.79558
G1 X59.275 Y77.741 E27.82075
G1 X59.062 Y78.166 E27.85679
G1 X59.051 Y78.321 E27.86853
G1 X59.155 Y78.636 E27.89369
G1 X58.955 Y79.036 E27.92760
G1 X58.944 Y79.191 E27.93934
G1 X59.049 Y79.506 E27.96451
G1 X58.848 Y79.907 E27.99841
G1 X58.837 Y80.061 E28.01015
G1 X58.942 Y80.376 E28.03532
G1 X58.741 Y80.777 E28.06923
