; generated by Slic3r 1.2.9 on 2017-06-15 at 20:02:40

; external perimeters extrusion width = 0.40mm
; perimeters extrusion width = 0.40mm
; infill extrusion width = 0.40mm
; solid infill extrusion width = 0.40mm
; top infill extrusion width = 0.40mm
; support material extrusion width = 0.40mm

M107
M190 S77 ; set bed temperature
M104 S280 ; set temperature
G1 Z5 F5000 ; lift nozzle

M109 S280 ; wait for temperature to be reached
G21 ; set units to millimeters
G90 ; use absolute coordinates
M82 ; use absolute distances for extrusion
G92 E0
G1 Z0.496 F3600.000
G1 E-2.00000 F2400.00000
G92 E0
G1 X66.458 Y66.099 F3600.000
G1 E2.00000 F2400.00000
G1 X68.755 Y65.336 E2.18333 F1500.000
G1 X68.904 Y65.411 E2.19596
G1 X68.992 Y65.431 E2.20285 F1500.000
G1 X80.604 Y65.431 E3.08236
G1 X80.757 Y65.402 E3.09412
G1 X81.154 Y65.431 E3.12429
G1 X81.594 Y65.431 E3.15762
G1 X81.707 Y65.474 E3.16675
G1 X82.446 Y65.529 E3.22286
G1 X83.680 Y66.312 E3.33353
G1 X84.531 Y67.813 E3.46426
G1 X84.562 Y69.054 E3.55826
G1 X84.735 Y69.602 E3.60179
G1 X84.641 Y69.791 E3.61780
G1 X84.630 Y69.945 E3.62953
G1 X84.735 Y70.264 E3.65496
G1 X84.641 Y70.453 E3.67097
G1 X84.630 Y70.608 E3.68271
G1 X84.735 Y70.926 E3.70813
G1 X84.641 Y71.115 E3.72414
G1 X84.630 Y71.270 E3.73588
G1 X84.735 Y71.588 E3.76131
G1 X84.641 Y71.777 E3.77732
G1 X84.630 Y71.932 E3.78906
G1 X84.735 Y72.250 E3.81448
G1 X84.641 Y72.439 E3.83049
G1 X84.630 Y72.594 E3.84223
G1 X84.735 Y72.912 E3.86766
G1 X84.641 Y73.101 E3.88367
G1 X84.630 Y73.256 E3.89540
G1 X84.735 Y73.574 E3.92083
G1 X84.641 Y73.763 E3.93684
G1 X84.630 Y73.918 E3.94858
G1 X84.735 Y74.237 E3.97400
G1 X84.641 Y74.426 E3.99001
G1 X84.630 Y74.580 E4.00175
G1 X84.735 Y74.899 E4.02718
G1 X84.641 Y75.088 E4.04319
G1 X84.630 Y75.242 E4.05493
G1 X84.735 Y75.561 E4.08035
G1 X84.641 Y75.750 E4.09636
G1 X84.630 Y75.904 E4.10810
G1 X84.735 Y76.223 E4.13353
G1 X84.641 Y76.412 E4.14954
G1 X84.630 Y76.566 E4.16128
G1 X84.735 Y76.885 E4.18670
G1 X84.641 Y77.074 E4.20271
G1 X84.630 Y77.229 E4.21445
G1 X84.735 Y77.547 E4.23988
G1 X84.641 Y77.736 E4.25589
G1 X84.630 Y77.891 E4.26762
G1 X84.735 Y78.209 E4.29305
G1 X84.641 Y78.398 E4.30906
G1 X84.630 Y78.553 E4.32080
G1 X84.735 Y78.871 E4.34622
G1 X84.641 Y79.060 E4.36223
G1 X84.630 Y79.215 E4.37397
G1 X84.735 Y79.533 E4.39940
G1 X84.641 Y79.722 E4.41541
G1 X84.630 Y79.877 E4.42715
G1 X84.735 Y80.196 E4.45257
G1 X84.641 Y80.385 E4.46858
G1 X84.630 Y80.539 E4.48032
G1 X84.735 Y80.858 E4.50575
G1 X84.643 Y81.041 E4.52131
G1 X84.625 Y81.162 E4.53059
G1 X84.695 Y81.601 E4.56421
G1 X83.542 Y83.901 E4.75909
G1 X81.928 Y84.437 E4.88790
G1 X81.316 Y84.737 E4.93949
G1 X80.291 Y84.569 E5.01821
G1 X69.514 Y84.569 E5.83447
G1 X69.430 Y84.587 E5.84101
G1 X69.124 Y84.732 E5.86662
G1 X68.425 Y84.573 E5.92093
G1 X68.074 Y84.569 E5.94751
G1 X67.821 Y84.436 E5.96914
G1 X66.779 Y84.200 E6.05008
G1 X65.506 Y82.636 E6.20281
G1 X65.467 Y80.589 E6.35792
G1 X65.482 Y80.446 E6.36879
G1 X65.473 Y80.364 E6.37506
G1 X65.265 Y79.736 E6.42516
G1 X65.359 Y79.547 E6.44117
G1 X65.370 Y79.392 E6.45291
G1 X65.265 Y79.074 E6.47833
G1 X65.359 Y78.885 E6.49434
G1 X65.370 Y78.730 E6.50608
G1 X65.265 Y78.412 E6.53151
G1 X65.359 Y78.223 E6.54752
G1 X65.370 Y78.068 E6.55926
G1 X65.265 Y77.750 E6.58468
G1 X65.359 Y77.561 E6.60069
G1 X65.370 Y77.406 E6.61243
G1 X65.265 Y77.088 E6.63786
G1 X65.359 Y76.899 E6.65387
G1 X65.370 Y76.744 E6.66560
G1 X65.265 Y76.425 E6.69103
G1 X65.359 Y76.236 E6.70704
G1 X65.370 Y76.082 E6.71878
G1 X65.265 Y75.763 E6.74420
G1 X65.359 Y75.574 E6.76021
G1 X65.370 Y75.420 E6.77195
G1 X65.265 Y75.101 E6.79738
G1 X65.359 Y74.912 E6.81339
G1 X65.370 Y74.758 E6.82513
G1 X65.265 Y74.439 E6.85055
G1 X65.359 Y74.250 E6.86656
G1 X65.370 Y74.096 E6.87830
G1 X65.265 Y73.777 E6.90373
G1 X65.359 Y73.588 E6.91974
G1 X65.370 Y73.433 E6.93147
G1 X65.265 Y73.115 E6.95690
G1 X65.359 Y72.926 E6.97291
G1 X65.370 Y72.771 E6.98465
G1 X65.265 Y72.453 E7.01007
G1 X65.359 Y72.264 E7.02608
G1 X65.370 Y72.109 E7.03782
G1 X65.265 Y71.791 E7.06325
G1 X65.359 Y71.602 E7.07926
G1 X65.370 Y71.447 E7.09100
G1 X65.265 Y71.129 E7.11642
G1 X65.359 Y70.940 E7.13243
G1 X65.370 Y70.785 E7.14417
G1 X65.265 Y70.466 E7.16960
G1 X65.359 Y70.277 E7.18561
G1 X65.370 Y70.123 E7.19735
G1 X65.265 Y69.804 E7.22277
G1 X65.359 Y69.615 E7.23878
G1 X65.370 Y69.461 E7.25052
G1 X65.265 Y69.142 E7.27594
G1 X65.359 Y68.953 E7.29196
G1 X65.370 Y68.799 E7.30369
G1 X65.265 Y68.480 E7.32912
G1 X66.424 Y66.166 E7.52518
G1 X66.734 Y66.418 F3600.000
G1 X68.725 Y65.756 E7.68406 F1500.000
G1 X68.900 Y65.821 E7.69824 F1500.000
G1 X80.647 Y65.821 E8.58800
G1 X80.785 Y65.795 E8.59864
G1 X81.139 Y65.821 E8.62552
G1 X81.493 Y65.821 E8.65229
G1 X81.592 Y65.856 E8.66026
G1 X82.319 Y65.910 E8.71549
G1 X83.389 Y66.588 E8.81141
G1 X84.144 Y67.921 E8.92738
G1 X84.174 Y69.122 E9.01839
G1 X84.315 Y69.572 E9.05408
G1 X84.220 Y69.761 E9.07009
G1 X84.209 Y69.915 E9.08183
G1 X84.315 Y70.234 E9.10726
G1 X84.220 Y70.423 E9.12327
G1 X84.209 Y70.577 E9.13501
G1 X84.315 Y70.896 E9.16043
G1 X84.220 Y71.085 E9.17644
G1 X84.209 Y71.239 E9.18818
G1 X84.315 Y71.558 E9.21361
G1 X84.220 Y71.747 E9.22962
G1 X84.209 Y71.901 E9.24135
G1 X84.315 Y72.220 E9.26678
G1 X84.220 Y72.409 E9.28279
G1 X84.209 Y72.564 E9.29453
G1 X84.315 Y72.882 E9.31995
G1 X84.220 Y73.071 E9.33596
G1 X84.209 Y73.226 E9.34770
G1 X84.315 Y73.544 E9.37313
G1 X84.220 Y73.733 E9.38914
G1 X84.209 Y73.888 E9.40088
G1 X84.315 Y74.206 E9.42630
G1 X84.220 Y74.395 E9.44231
G1 X84.209 Y74.550 E9.45405
G1 X84.315 Y74.868 E9.47948
G1 X84.220 Y75.057 E9.49549
G1 X84.209 Y75.212 E9.50722
G1 X84.315 Y75.531 E9.53265
G1 X84.220 Y75.719 E9.54866
G1 X84.209 Y75.874 E9.56040
G1 X84.315 Y76.193 E9.58582
G1 X84.220 Y76.382 E9.60183
G1 X84.209 Y76.536 E9.61357
G1 X84.315 Y76.855 E9.63900
G1 X84.220 Y77.044 E9.65501
G1 X84.209 Y77.198 E9.66675
G1 X84.315 Y77.517 E9.69217
G1 X84.220 Y77.706 E9.70818
G1 X84.209 Y77.860 E9.71992
G1 X84.315 Y78.179 E9.74535
G1 X84.220 Y78.368 E9.76136
G1 X84.209 Y78.523 E9.77310
G1 X84.315 Y78.841 E9.79852
G1 X84.220 Y79.030 E9.81453
G1 X84.209 Y79.185 E9.82627
G1 X84.315 Y79.503 E9.85169
G1 X84.220 Y79.692 E9.86771
G1 X84.209 Y79.847 E9.87944
G1 X84.315 Y80.165 E9.90487
G1 X84.220 Y80.354 E9.92088
G1 X84.209 Y80.509 E9.93262
G1 X84.315 Y80.827 E9.95804
G1 X84.239 Y80.979 E9.97090
G1 X84.220 Y81.100 E9.98017
G1 X84.290 Y81.538 E10.01379
G1 X83.266 Y83.582 E10.18695
G1 X81.780 Y84.076 E10.30556
G1 X81.257 Y84.332 E10.34968
G1 X80.323 Y84.179 E10.42134
G1 X69.427 Y84.179 E11.24666
G1 X69.342 Y84.198 E11.25320
G1 X69.079 Y84.322 E11.27525
G1 X68.469 Y84.184 E11.32268
G1 X68.175 Y84.179 E11.34489
G1 X67.962 Y84.069 E11.36310
G1 X66.996 Y83.850 E11.43810
G1 X65.893 Y82.495 E11.57047
G1 X65.857 Y80.605 E11.71361
G1 X65.878 Y80.402 E11.72903
G1 X65.869 Y80.320 E11.73529
G1 X65.685 Y79.766 E11.77951
G1 X65.780 Y79.577 E11.79552
G1 X65.791 Y79.423 E11.80726
G1 X65.685 Y79.104 E11.83268
G1 X65.780 Y78.915 E11.84869
G1 X65.791 Y78.761 E11.86043
G1 X65.685 Y78.442 E11.88586
G1 X65.780 Y78.253 E11.90187
G1 X65.791 Y78.099 E11.91361
G1 X65.685 Y77.780 E11.93903
G1 X65.780 Y77.591 E11.95504
G1 X65.791 Y77.436 E11.96678
G1 X65.685 Y77.118 E11.99221
G1 X65.780 Y76.929 E12.00822
G1 X65.791 Y76.774 E12.01995
G1 X65.685 Y76.456 E12.04538
G1 X65.780 Y76.267 E12.06139
G1 X65.791 Y76.112 E12.07313
G1 X65.685 Y75.794 E12.09855
G1 X65.780 Y75.605 E12.11456
G1 X65.791 Y75.450 E12.12630
G1 X65.685 Y75.132 E12.15173
G1 X65.780 Y74.943 E12.16774
G1 X65.791 Y74.788 E12.17948
G1 X65.685 Y74.469 E12.20490
G1 X65.780 Y74.280 E12.22091
G1 X65.791 Y74.126 E12.23265
G1 X65.685 Y73.807 E12.25808
G1 X65.780 Y73.618 E12.27409
G1 X65.791 Y73.464 E12.28583
G1 X65.685 Y73.145 E12.31125
G1 X65.780 Y72.956 E12.32726
G1 X65.791 Y72.802 E12.33900
G1 X65.685 Y72.483 E12.36443
G1 X65.780 Y72.294 E12.38044
G1 X65.791 Y72.140 E12.39217
G1 X65.685 Y71.821 E12.41760
G1 X65.780 Y71.632 E12.43361
G1 X65.791 Y71.477 E12.44535
G1 X65.685 Y71.159 E12.47077
G1 X65.780 Y70.970 E12.48678
G1 X65.791 Y70.815 E12.49852
G1 X65.685 Y70.497 E12.52395
G1 X65.780 Y70.308 E12.53996
G1 X65.791 Y70.153 E12.55170
G1 X65.685 Y69.835 E12.57712
G1 X65.780 Y69.646 E12.59313
G1 X65.791 Y69.491 E12.60487
G1 X65.685 Y69.173 E12.63030
G1 X65.780 Y68.984 E12.64631
G1 X65.791 Y68.829 E12.65804
G1 X65.685 Y68.510 E12.68347
G1 X66.700 Y66.485 E12.85508
G1 X67.010 Y66.737 F3600.000
G1 X68.694 Y66.177 E12.98952 F1500.000
G1 X68.720 Y66.190 E12.99167
G1 X68.808 Y66.211 E12.99856 F1500.000
G1 X80.691 Y66.211 E13.89856
G1 X80.814 Y66.188 E13.90807
G1 X81.392 Y66.211 E13.95185
G1 X81.477 Y66.238 E13.95867
G1 X82.193 Y66.291 E14.01303
G1 X83.098 Y66.865 E14.09419
G1 X83.757 Y68.028 E14.19540
G1 X83.786 Y69.190 E14.28342
G1 X83.894 Y69.541 E14.31128
G1 X83.800 Y69.730 E14.32729
G1 X83.789 Y69.885 E14.33903
G1 X83.894 Y70.203 E14.36446
G1 X83.800 Y70.392 E14.38047
G1 X83.789 Y70.547 E14.39220
G1 X83.894 Y70.865 E14.41763
G1 X83.800 Y71.054 E14.43364
G1 X83.789 Y71.209 E14.44538
G1 X83.894 Y71.528 E14.47080
G1 X83.800 Y71.717 E14.48681
G1 X83.789 Y71.871 E14.49855
G1 X83.894 Y72.190 E14.52398
G1 X83.800 Y72.379 E14.53999
G1 X83.789 Y72.533 E14.55173
G1 X83.894 Y72.852 E14.57715
G1 X83.800 Y73.041 E14.59316
G1 X83.789 Y73.195 E14.60490
G1 X83.894 Y73.514 E14.63033
G1 X83.800 Y73.703 E14.64634
G1 X83.789 Y73.857 E14.65807
G1 X83.894 Y74.176 E14.68350
G1 X83.800 Y74.365 E14.69951
G1 X83.789 Y74.520 E14.71125
G1 X83.894 Y74.838 E14.73667
G1 X83.800 Y75.027 E14.75268
G1 X83.789 Y75.182 E14.76442
G1 X83.894 Y75.500 E14.78985
G1 X83.800 Y75.689 E14.80586
G1 X83.789 Y75.844 E14.81760
G1 X83.894 Y76.162 E14.84302
G1 X83.800 Y76.351 E14.85903
G1 X83.789 Y76.506 E14.87077
G1 X83.894 Y76.824 E14.89620
G1 X83.800 Y77.013 E14.91221
G1 X83.789 Y77.168 E14.92394
G1 X83.894 Y77.487 E14.94937
G1 X83.800 Y77.676 E14.96538
G1 X83.789 Y77.830 E14.97712
G1 X83.894 Y78.149 E15.00254
G1 X83.800 Y78.338 E15.01856
G1 X83.789 Y78.492 E15.03029
G1 X83.894 Y78.811 E15.05572
G1 X83.800 Y79.000 E15.07173
G1 X83.789 Y79.154 E15.08347
G1 X83.894 Y79.473 E15.10889
G1 X83.800 Y79.662 E15.12490
G1 X83.789 Y79.816 E15.13664
G1 X83.894 Y80.135 E15.16207
G1 X83.800 Y80.324 E15.17808
G1 X83.789 Y80.479 E15.18982
G1 X83.894 Y80.797 E15.21524
G1 X83.834 Y80.917 E15.22538
G1 X83.816 Y81.038 E15.23465
G1 X83.886 Y81.476 E15.26827
G1 X82.990 Y83.263 E15.41970
G1 X81.632 Y83.715 E15.52812
G1 X81.197 Y83.927 E15.56476
G1 X80.355 Y83.789 E15.62936
G1 X69.339 Y83.789 E16.46375
G1 X69.255 Y83.808 E16.47029
G1 X69.034 Y83.913 E16.48878
G1 X68.512 Y83.794 E16.52933
G1 X68.277 Y83.789 E16.54717
G1 X68.102 Y83.701 E16.56196
G1 X67.213 Y83.500 E16.63102
G1 X66.280 Y82.353 E16.74302
G1 X66.247 Y80.621 E16.87420
G1 X66.274 Y80.359 E16.89417
G1 X66.265 Y80.277 E16.90043
G1 X66.106 Y79.797 E16.93876
G1 X66.200 Y79.608 E16.95477
G1 X66.211 Y79.453 E16.96651
G1 X66.106 Y79.134 E16.99194
G1 X66.200 Y78.945 E17.00795
G1 X66.211 Y78.791 E17.01969
G1 X66.106 Y78.472 E17.04511
G1 X66.200 Y78.283 E17.06112
G1 X66.211 Y78.129 E17.07286
G1 X66.106 Y77.810 E17.09829
G1 X66.200 Y77.621 E17.11430
G1 X66.211 Y77.467 E17.12603
G1 X66.106 Y77.148 E17.15146
G1 X66.200 Y76.959 E17.16747
G1 X66.211 Y76.805 E17.17921
G1 X66.106 Y76.486 E17.20463
G1 X66.200 Y76.297 E17.22064
G1 X66.211 Y76.142 E17.23238
G1 X66.106 Y75.824 E17.25781
G1 X66.200 Y75.635 E17.27382
G1 X66.211 Y75.480 E17.28556
G1 X66.106 Y75.162 E17.31098
G1 X66.200 Y74.973 E17.32699
G1 X66.211 Y74.818 E17.33873
G1 X66.106 Y74.500 E17.36416
G1 X66.200 Y74.311 E17.38017
G1 X66.211 Y74.156 E17.39190
G1 X66.106 Y73.838 E17.41733
G1 X66.200 Y73.649 E17.43334
G1 X66.211 Y73.494 E17.44508
G1 X66.106 Y73.175 E17.47050
G1 X66.200 Y72.987 E17.48651
G1 X66.211 Y72.832 E17.49825
G1 X66.106 Y72.513 E17.52368
G1 X66.200 Y72.324 E17.53969
G1 X66.211 Y72.170 E17.55143
G1 X66.106 Y71.851 E17.57685
G1 X66.200 Y71.662 E17.59286
G1 X66.211 Y71.508 E17.60460
G1 X66.106 Y71.189 E17.63003
G1 X66.200 Y71.000 E17.64604
G1 X66.211 Y70.846 E17.65777
G1 X66.106 Y70.527 E17.68320
G1 X66.200 Y70.338 E17.69921
G1 X66.211 Y70.184 E17.71095
G1 X66.106 Y69.865 E17.73637
G1 X66.200 Y69.676 E17.75238
G1 X66.211 Y69.521 E17.76412
G1 X66.106 Y69.203 E17.78955
G1 X66.200 Y69.014 E17.80556
G1 X66.211 Y68.859 E17.81730
G1 X66.106 Y68.541 E17.84272
G1 X66.976 Y66.804 E17.98989
G1 X67.286 Y67.055 F3600.000
G1 X68.681 Y66.592 E18.10124 F1500.000
G1 X80.734 Y66.600 E19.01414
G1 X80.843 Y66.581 E19.02253
G1 X81.298 Y66.600 E19.05703 F1500.000
G1 X81.363 Y66.620 E19.06217
G1 X82.067 Y66.673 E19.11564
G1 X82.807 Y67.142 E19.18205
G1 X83.370 Y68.135 E19.26850
G1 X83.392 Y69.012 E19.33491
G1 X83.368 Y69.192 E19.34872
G1 X83.474 Y69.511 E19.37415
G1 X83.379 Y69.700 E19.39016
G1 X83.368 Y69.855 E19.40190
G1 X83.474 Y70.173 E19.42732
G1 X83.379 Y70.362 E19.44333
G1 X83.368 Y70.517 E19.45507
G1 X83.474 Y70.835 E19.48050
G1 X83.379 Y71.024 E19.49651
G1 X83.368 Y71.179 E19.50825
G1 X83.474 Y71.497 E19.53367
G1 X83.379 Y71.686 E19.54968
G1 X83.368 Y71.841 E19.56142
G1 X83.474 Y72.159 E19.58685
G1 X83.379 Y72.348 E19.60286
G1 X83.368 Y72.503 E19.61459
G1 X83.474 Y72.822 E19.64002
G1 X83.379 Y73.010 E19.65603
G1 X83.368 Y73.165 E19.66777
G1 X83.474 Y73.484 E19.69319
G1 X83.379 Y73.673 E19.70920
G1 X83.368 Y73.827 E19.72094
G1 X83.474 Y74.146 E19.74637
G1 X83.379 Y74.335 E19.76238
G1 X83.368 Y74.489 E19.77412
G1 X83.474 Y74.808 E19.79954
G1 X83.379 Y74.997 E19.81555
G1 X83.368 Y75.151 E19.82729
G1 X83.474 Y75.470 E19.85272
G1 X83.379 Y75.659 E19.86873
G1 X83.368 Y75.813 E19.88046
G1 X83.474 Y76.132 E19.90589
G1 X83.379 Y76.321 E19.92190
G1 X83.368 Y76.476 E19.93364
G1 X83.474 Y76.794 E19.95906
G1 X83.379 Y76.983 E19.97507
G1 X83.368 Y77.138 E19.98681
G1 X83.474 Y77.456 E20.01224
G1 X83.379 Y77.645 E20.02825
G1 X83.368 Y77.800 E20.03999
G1 X83.474 Y78.118 E20.06541
G1 X83.379 Y78.307 E20.08142
G1 X83.368 Y78.462 E20.09316
G1 X83.474 Y78.780 E20.11859
G1 X83.379 Y78.969 E20.13460
G1 X83.368 Y79.124 E20.14634
G1 X83.474 Y79.443 E20.17176
G1 X83.379 Y79.632 E20.18777
G1 X83.368 Y79.786 E20.19951
G1 X83.474 Y80.105 E20.22494
G1 X83.379 Y80.294 E20.24095
G1 X83.368 Y80.448 E20.25268
G1 X83.474 Y80.767 E20.27811
G1 X83.430 Y80.854 E20.28553
G1 X83.411 Y80.975 E20.29480
G1 X83.481 Y81.414 E20.32843
G1 X82.714 Y82.945 E20.45813
G1 X81.483 Y83.354 E20.55635
G1 X81.137 Y83.522 E20.58552
G1 X80.388 Y83.400 E20.64305
G1 X69.252 Y83.400 E21.48651
G1 X69.167 Y83.419 E21.49305
G1 X68.989 Y83.503 E21.50798
G1 X68.556 Y83.405 E21.54165
G1 X68.378 Y83.400 E21.55512
G1 X68.243 Y83.334 E21.56648
G1 X67.430 Y83.150 E21.62961
G1 X66.667 Y82.211 E21.72125
G1 X66.637 Y80.638 E21.84046
G1 X66.674 Y80.361 E21.86156
G1 X66.668 Y80.255 E21.86963
G1 X66.526 Y79.827 E21.90380
G1 X66.621 Y79.638 E21.91981
G1 X66.632 Y79.483 E21.93155
G1 X66.526 Y79.165 E21.95698
G1 X66.621 Y78.976 E21.97299
G1 X66.632 Y78.821 E21.98472
G1 X66.526 Y78.503 E22.01015
G1 X66.621 Y78.314 E22.02616
G1 X66.632 Y78.159 E22.03790
G1 X66.526 Y77.841 E22.06332
G1 X66.621 Y77.652 E22.07933
G1 X66.632 Y77.497 E22.09107
G1 X66.526 Y77.178 E22.11650
G1 X66.621 Y76.989 E22.13251
G1 X66.632 Y76.835 E22.14425
G1 X66.526 Y76.516 E22.16967
G1 X66.621 Y76.327 E22.18568
G1 X66.632 Y76.173 E22.19742
G1 X66.526 Y75.854 E22.22285
G1 X66.621 Y75.665 E22.23886
G1 X66.632 Y75.511 E22.25059
G1 X66.526 Y75.192 E22.27602
G1 X66.621 Y75.003 E22.29203
G1 X66.632 Y74.849 E22.30377
G1 X66.526 Y74.530 E22.32919
G1 X66.621 Y74.341 E22.34520
G1 X66.632 Y74.186 E22.35694
G1 X66.526 Y73.868 E22.38237
G1 X66.621 Y73.679 E22.39838
G1 X66.632 Y73.524 E22.41012
G1 X66.526 Y73.206 E22.43554
G1 X66.621 Y73.017 E22.45155
G1 X66.632 Y72.862 E22.46329
G1 X66.526 Y72.544 E22.48872
G1 X66.621 Y72.355 E22.50473
G1 X66.632 Y72.200 E22.51646
G1 X66.526 Y71.882 E22.54189
G1 X66.621 Y71.693 E22.55790
G1 X66.632 Y71.538 E22.56964
G1 X66.526 Y71.219 E22.59506
G1 X66.621 Y71.030 E22.61107
G1 X66.632 Y70.876 E22.62281
G1 X66.526 Y70.557 E22.64824
G1 X66.621 Y70.368 E22.66425
G1 X66.632 Y70.214 E22.67599
G1 X66.526 Y69.895 E22.70141
G1 X66.621 Y69.706 E22.71742
