; generated by Slic3r 1.2.9 on 2017-06-15 at 20:02:40

; external perimeters extrusion width = 0.40mm
; perimeters extrusion width = 0.40mm
; infill extrusion width = 0.40mm
; solid infill extrusion width = 0.40mm
; top infill extrusion width = 0.40mm
; support material extrusion width = 0.40mm

M107
M190 S77 ; set bed temperature
M104 S280 ; set temperature
G1 Z5 F5000 ; lift nozzle

M109 S280 ; wait for temperature to be reached
G21 ; set units to millimeters
G90 ; use absolute coordinates
M82 ; use absolute distances for extrusion
G92 E0
G1 Z0.496 F3600.000
G1 E-2.00000 F2400.00000
G92 E0
G1 X93.73229734195145 Y73.36332253862605 F3600.000
G1 E2.00000 F2400.00000
G1 X94.84747187458397 Y72.07517026386255 E2.18333 F1500.000
G1 X95.00715834609517 Y72.14824538425356 E2.19596
G1 X95.08476126593577 Y72.16109521949821 E2.20285 F1500.000
G1 X103.81820927467396 Y70.79051007251218 E3.08236
G1 X103.91878873909184 Y70.74014906027968 E3.09412
G1 X104.24580316252545 Y70.73543758636418 E3.12429
G1 X104.58870205237274 Y70.69193875670332 E3.15762
G1 X104.70376557220854 Y70.73256362470993 E3.16675
G1 X105.31568143918548 Y70.72674588834006 E3.22286
G1 X106.76902052561877 Y71.5479186648659 E3.33353
G1 X108.37016623591569 Y73.26874762992449 E3.46426
G1 X109.1750280970882 Y74.7615319243652 E3.55826
G1 X109.65609253023746 Y75.40599061162209 E3.60179
G1 X109.70361234708729 Y75.64437950985443 E3.61780
G1 X109.7931688448785 Y75.8319472962477 E3.62953
G1 X110.07747235924343 Y76.20730801506213 E3.65496
G1 X110.12594648855465 Y76.44635626412985 E3.67097
G1 X110.21672542767728 Y76.63554020143314 E3.68271
G1 X110.50121131010285 Y77.0102586250544 E3.70813
G1 X110.55063141384584 Y77.24996483903332 E3.72414
G1 X110.6419893168954 Y77.4395523386535 E3.73588
G1 X110.92728234749106 Y77.81483448014357 E3.76131
G1 X110.97764013529932 Y78.05519719613375 E3.77732
G1 X111.06957064831032 Y78.24518645205386 E3.78906
G1 X111.35565870219617 Y78.62102747475333 E3.81448
G1 X111.40694593246867 Y78.86204515539256 E3.83049
G1 X111.49944276093937 Y79.0524343254487 E3.84223
G1 X111.78631387160058 Y79.42882936650676 E3.86766
G1 X111.83852235254183 Y79.6705004024454 E3.88367
G1 X111.93157926161857 Y79.86128761005521 E3.89540
G1 X112.21922162000591 Y80.23823178337088 E3.92083
G1 X112.27234321060553 Y80.48055449570651 E3.93684
G1 X112.36595402522956 Y80.67173783155786 E3.94858
G1 X112.65501495273078 Y81.05045249769191 E3.97400
G1 X112.70904292469173 Y81.293426120778 E3.99001
G1 X112.80254119477982 Y81.48377639699763 E4.00175
G1 X113.09235352577998 Y81.86303275003125 E4.02718
G1 X113.14727846925881 Y82.10665448980478 E4.04319
G1 X113.24131518134182 Y82.29739460148663 E4.05493
G1 X113.531867535067 Y82.67718768901987 E4.08035
G1 X113.58768146678582 Y82.92145567202978 E4.09636
G1 X113.68225066385693 Y83.11258363474897 E4.10810
G1 X113.97353181331182 Y83.49290849180855 E4.13353
G1 X114.03022680412418 Y83.73782078438433 E4.14954
G1 X114.12532258881022 Y83.92933458748989 E4.16128
G1 X114.41732145964615 Y84.31018623901818 E4.18670
G1 X114.47488963523836 Y84.5557408494978 E4.20271
G1 X114.57118023744016 Y84.74887573625297 E4.21445
G1 X114.86321183912628 Y85.12901192085025 E4.23988
G1 X114.92164538066797 Y85.3752068017656 E4.25589
G1 X115.01845408889828 Y85.5687257599649 E4.26762
G1 X115.31117858213054 Y85.94937644303008 E4.29305
G1 X115.37046972687595 Y86.19620949324973 E4.30906
G1 X115.4677907860023 Y86.39011042838926 E4.32080
G1 X115.7611975836463 Y86.77127063258446 E4.34622
G1 X115.82133862548818 Y87.01873969941374 E4.36223
G1 X115.91916634017 Y87.21302049635071 E4.37397
G1 X116.21324500245228 Y87.59468524345607 E4.39940
G1 X116.27422829242946 Y87.84278812469438 E4.41541
G1 X116.37255702698981 Y88.03744664898484 E4.42715
G1 X116.66798464446019 Y88.42085821163313 E4.45257
G1 X116.72980384631853 Y88.6695936098887 E4.46858
G1 X116.82793938523439 Y88.86337950711145 E4.48032
G1 X117.1240214003942 Y89.24728792309031 E4.50575
G1 X117.18396276794874 Y89.48886993025394 E4.52131
G1 X117.25468378278116 Y89.64272448241175 E4.53059
G1 X117.60937983851458 Y90.18227634567421 E4.56421
G1 X118.40035289221059 Y93.2452712360811 E4.75909
G1 X117.65119698923594 Y94.17723219546508 E4.88790
G1 X117.4421177644545 Y94.65800697572139 E4.93949
G1 X116.61286567956384 Y94.61287270632471 E5.01821
G1 X109.47196881850623 Y96.64142564507645 E5.83447
G1 X109.43256128319396 Y96.68295817922797 E5.84101
G1 X109.3509908505634 Y96.93941343372563 E5.86662
G1 X108.78682343923826 Y96.88040186287799 E5.92093
G1 X108.56327757119348 Y96.95168108240395 E5.94751
G1 X108.30109019303546 Y96.83122239603301 E5.96914
G1 X107.46662198561933 Y96.74973141781444 E6.05008
G1 X105.45019929805729 Y94.95992816666794 E6.20281
G1 X103.8292589302264 Y92.25917011110312 E6.35792
G1 X103.7277746796874 Y92.06718693953275 E6.36879
G1 X103.65850773091421 Y91.96092105944425 E6.37506
G1 X103.04052562462985 Y91.17727523339353 E6.42516
G1 X102.9539901606538 Y90.90825148572682 E6.44117
G1 X102.8412687786377 Y90.70181978072102 E6.45291
G1 X102.5291066039298 Y90.30543046453738 E6.47833
G1 X102.44336047787577 Y90.03710282173002 E6.49434
G1 X102.33107934542663 Y89.831058722957 E6.50608
G1 X102.01941956804107 Y89.43511116699537 E6.53151
G1 X101.9344721377415 Y89.16748459373306 E6.54752
G1 X101.8226375812373 Y88.96183182770902 E6.55926
G1 X101.51149060574375 Y88.56633305673074 E6.58468
G1 X101.42735135060956 Y88.29941251356082 E6.60069
G1 X101.31596979746087 Y88.09415482397233 E6.61243
G1 X101.00534623969168 Y87.69911193883384 E6.63786
G1 X100.92202476169412 Y87.43290237994056 E6.65387
G1 X100.81110274171193 Y87.22804352655248 E6.66560
G1 X100.50025298475622 Y86.83215727547925 E6.69103
G1 X100.41776026679742 Y86.5666647315617 E6.70704
G1 X100.30806360407921 Y86.36351383176961 E6.71878
G1 X99.99776194495556 Y85.9681003053657 E6.74420
G1 X99.91610659448254 Y85.70332863305677 E6.76021
G1 X99.80688002337314 Y85.50058171288481 E6.77195
G1 X99.49713777792807 Y85.10564825925763 E6.79738
G1 X99.4163297703149 Y84.84160237928728 E6.81339
G1 X99.30758009336446 Y84.6392632152381 E6.82513
G1 X98.99840880539443 Y84.2448172547617 E6.85055
G1 X98.9184582421299 Y83.98150207158469 E6.86656
G1 X98.81019236900615 Y83.77957445108679 E6.87830
G1 X98.50160381435421 Y83.38562347511223 E6.90373
G1 X98.42252092382108 Y83.12304387416414 E6.91974
G1 X98.31399894725065 Y82.92023671008053 E6.93147
G1 X98.0067520633145 Y82.52808316356698 E6.95690
G1 X97.9285472015183 Y82.2662440084075 E6.97291
G1 X97.82052617421357 Y82.06385851275736 E6.98465
G1 X97.5138832884836 Y81.67221261747456 E7.01007
G1 X97.43656693972751 Y81.41111874681526 E7.02608
G1 X97.32905414623117 Y81.20915875547898 E7.03782
G1 X97.0230277099205 Y80.81802818200106 E7.06325
G1 X96.9466104874224 Y80.5576844066149 E7.07926
G1 X96.83961332533295 Y80.35615376022169 E7.09100
G1 X96.53421603763093 Y79.96554624350418 E7.11642
G1 X96.4587086840789 Y79.70595734301354 E7.13243
G1 X96.35223466531538 Y79.50485988516198 E7.14417
G1 X96.04674581160987 Y79.11349939056196 E7.16960
G1 X95.97216059879031 Y78.85467126113572 E7.18561
G1 X95.86694961768629 Y78.65529351747165 E7.19735
G1 X95.5621192785091 Y78.26447436837424 E7.22277
G1 X95.48846582703064 Y78.00641057324584 E7.23878
G1 X95.38379013752808 Y77.80747106572936 E7.25052
G1 X95.0796318303768 Y77.41720120245955 E7.27594
G1 X95.00692127418928 Y77.15990640720761 E7.29196
G1 X94.90278868926879 Y76.96140895193656 E7.30369
G1 X94.59931619731721 Y76.5716963702032 E7.32912
G1 X93.7554656113445 Y73.45293683495126 E7.52518
G1 X94.15294727197869 Y73.7241059132657 F3600.000
G1 X95.11559893624178 Y72.60404618096268 E7.68406 F1500.000
G1 X95.2870087734944 Y72.66087042527398 E7.69824 F1500.000
G1 X104.09775525917935 Y71.25681808947512 E8.58800
G1 X104.18828269052139 Y71.21138555098291 E8.59864
G1 X104.4793824732899 Y71.20695689059836 E8.62552
G1 X104.75453732416558 Y71.17146939144747 E8.65229
G1 X104.85355120357154 Y71.20376335508789 E8.66026
G1 X105.45399879094202 Y71.19692211737343 E8.71549
G1 X106.71310634125501 Y71.90749886994614 E8.81141
G1 X108.13637212797552 Y73.43708945182495 E8.92738
G1 X108.91791937050579 Y74.8835503619688 E9.01839
G1 X109.31277331126496 Y75.41330882107903 E9.05408
G1 X109.35998135058364 Y75.652118998711 E9.07009
G1 X109.44981912273771 Y75.83988120927272 E9.08183
G1 X109.735290499456 Y76.21541225292273 E9.10726
G1 X109.78345653603735 Y76.45488646841504 E9.12327
G1 X109.87387592144005 Y76.64305270467275 E9.13501
G1 X110.16016540020262 Y77.01915317938322 E9.16043
G1 X110.20928102932166 Y77.25929000417541 E9.17644
G1 X110.30027562068919 Y77.44785847374862 E9.18818
G1 X110.58737083862697 Y77.82452348787236 E9.21361
G1 X110.6374277041906 Y78.0653214161411 E9.22962
G1 X110.72899115407851 Y78.25429028926054 E9.24135
G1 X111.01687991021905 Y78.63151492316565 E9.26678
G1 X111.06786970586948 Y78.87297237437389 E9.28279
G1 X111.16064850926338 Y79.06356162361642 E9.29453
G1 X111.44866598124896 Y79.44011909478164 E9.31995
G1 X111.50058045140392 Y79.68223441618751 E9.33596
G1 X111.59391899651163 Y79.8732227286249 E9.34770
G1 X111.8827026890216 Y80.25032748418106 E9.37313
G1 X111.93553362985323 Y80.493098953306 E9.38914
G1 X112.02942571039094 Y80.68448438436607 E9.40088
G1 X112.31896394198087 Y81.06213145178742 E9.42630
G1 X112.37270320233469 Y81.30555727884231 E9.44231
G1 X112.46714267287136 Y81.49733785324038 E9.45405
G1 X112.75742391966925 Y81.87552224382917 E9.47948
G1 X112.81206340192524 Y82.11960057409848 E9.49549
G1 X112.90704417794312 Y82.31177428745785 E9.50722
G1 X113.19872431259991 Y82.69172325873676 E9.53265
G1 X113.253588733426 Y82.93521991518827 E9.54866
G1 X113.34910479134805 Y83.12778473562031 E9.56040
G1 X113.64150858731153 Y83.50826337796933 E9.58582
G1 X113.69792576823907 Y83.75364188072518 E9.60183
G1 X113.79329935018143 Y83.94536014912804 E9.61357
G1 X114.08641571195056 Y84.3263634271796 E9.63900
G1 X114.14370913896218 Y84.57238849952658 E9.65501
G1 X114.23960296237028 Y84.76449138841231 E9.66675
G1 X114.53342094777402 Y85.14601426059251 E9.69217
G1 X114.59158274498175 Y85.39268381100993 E9.70818
G1 X114.6879910060334 Y85.58516922899587 E9.71992
G1 X114.98249982497336 Y85.96720664983425 E9.74535
G1 X115.04152217351785 Y86.21451853315274 E9.76136
G1 X115.13912111007275 Y86.40862754233999 E9.77310
G1 X115.43362814188939 Y86.7899312897366 E9.79852
G1 X115.4935032804876 Y87.03788330926206 E9.81453
G1 X115.59160828537684 Y87.23237290264836 E9.82627
G1 X115.8867819641222 Y87.61417880397448 E9.85169
G1 X115.94750218956854 Y87.8627687135682 E9.86771
G1 X116.04610760383132 Y88.05763672511974 E9.87944
G1 X116.34193762354141 Y88.43993975053951 E9.90487
G1 X116.40349529116384 Y88.68916525665453 E9.92088
G1 X116.50259551615147 Y88.88440950278215 E9.93262
G1 X116.79907171720158 Y89.26720462705138 E9.95804
G1 X116.84950818039415 Y89.46807146471492 E9.97090
G1 X116.91970920251212 Y89.6222207785286 E9.98017
G1 X117.27424927920025 Y90.16093282639797 E10.01379
G1 X117.97956382357073 Y92.88437862190271 E10.18695
G1 X117.28913920734519 Y93.74224353862502 E10.30556
G1 X117.10929200110468 Y94.15190115300263 E10.34968
G1 X116.35243173221608 Y94.10983955289105 E10.42134
G1 X109.11559178229297 Y96.146378817708 E11.24666
G1 X109.07619432305107 Y96.189327818843 E11.25320
G1 X109.00508210629448 Y96.40846160942841 E11.27525
G1 X108.51244083974886 Y96.35716876256923 E11.32268
G1 X108.32328773629426 Y96.41413468261165 E11.34489
G1 X108.10379366608741 Y96.31506593486742 E11.36310
G1 X107.32793912118129 Y96.23737074855626 E11.43810
G1 X105.58083383834399 Y94.68670416353214 E11.57047
G1 X104.08799389939264 Y92.1964555684749 E11.71361
G1 X103.94417967351515 Y91.92436998309576 E11.72903
G1 X103.87505745365438 Y91.81823229752666 E11.73529
G1 X103.33021814067752 Y91.1276069908305 E11.77951
G1 X103.2448900866285 Y90.8588764241499 E11.79552
G1 X103.13325656644417 Y90.6540395052772 E11.80726
G1 X102.82004688289148 Y90.2568619281052 E11.83268
G1 X102.73551296898265 Y89.98882934638104 E11.84869
G1 X102.62431876509582 Y89.78437790962336 E11.86043
G1 X102.31161512262426 Y89.38764379677922 E11.88586
G1 X102.22788469395228 Y89.12031410360326 E11.90187
G1 X102.11713608400893 Y88.9162518167068 E11.91361
G1 X101.80494892194584 Y88.51996817584879 E11.93903
G1 X101.72203144353735 Y88.25334626888356 E11.95504
G1 X101.61097271948536 Y88.04836897105957 E11.96678
G1 X101.30007477292402 Y87.65385072887868 E11.99221
G1 X101.21797983066052 Y87.3879414976104 E12.00822
G1 X101.10738230712928 Y87.1833631105166 E12.01995
G1 X100.79701960375614 Y86.78930719978825 E12.04538
G1 X100.71575690526284 Y86.52411552318223 E12.06139
G1 X100.60562720345219 Y86.31993978290954 E12.07313
G1 X100.29581078489768 Y85.92635340836583 E12.09855
G1 X100.21539016039402 Y85.66188415242236 E12.11456
G1 X100.10573500554301 Y85.45811480761782 E12.12630
G1 X99.79647613518226 Y85.06500524550198 E12.15173
G1 X99.71690753829061 Y84.80126326070904 E12.16774
G1 X99.60773376098865 Y84.59790407126194 E12.17948
G1 X99.29829397326019 Y84.2039812221884 E12.20490
G1 X99.21958879173003 Y83.94097245041075 E12.22091
G1 X99.11165197392283 Y83.73932352246563 E12.23265
G1 X98.80279588149315 Y83.34589473378718 E12.25808
G1 X98.72496302354332 Y83.08362288413119 E12.27409
G1 X98.61751861104598 Y82.88238916630924 E12.28583
G1 X98.3092582110149 Y82.48946194542515 E12.31125
G1 X98.23230800505503 Y82.227931805452 E12.32726
G1 X98.12536310760844 Y82.0271170584633 E12.33900
G1 X97.81771063565125 Y81.63469897878755 E12.36443
G1 X97.7416535362483 Y81.37391530926978 E12.38044
G1 X97.63521537334775 Y81.17352329899037 E12.39217
G1 X97.32818330781686 Y80.78162199820856 E12.41760
G1 X97.25302989624541 Y80.52158953002721 E12.43361
G1 X97.14637002997075 Y80.32033845880936 E12.44535
G1 X96.8407068644173 Y79.93024720398049 E12.47077
G1 X96.76646784914699 Y79.67097063490263 E12.48678
G1 X96.66033263960972 Y79.47015243709366 E12.49852
G1 X96.35531243268323 Y79.08059082530153 E12.52395
G1 X96.28199864979953 Y78.82207481663579 E12.53996
G1 X96.17639570081631 Y78.6216932875693 E12.55170
G1 X95.87203163592602 Y78.23266911285003 E12.57712
G1 X95.79965404947974 Y77.974918285977 E12.59313
G1 X95.69459108016503 Y77.77497721886662 E12.60487
G1 X95.39089659920386 Y77.38649833097276 E12.63030
G1 X95.31946630148533 Y77.12951726374804 E12.64631
G1 X95.2149511473907 Y76.93002044762122 E12.65804
G1 X94.91121811988296 Y76.5408205603339 E12.68347
G1 X94.1761393613053 Y73.81373886624674 E12.85508
G1 X94.57360767677206 Y74.08489748989804 F3600.000
G1 X95.38480468607148 Y73.13515935707998 E12.98952 F1500.000
G1 X95.41254896500774 Y73.14775572674353 E12.99167
G1 X95.49050939753124 Y73.16160118543858 E12.99856 F1500.000
G1 X104.37880053918995 Y71.72352009611335 E13.89856
G1 X104.45934108541945 Y71.68305981209001 E13.90807
G1 X104.9216573687244 Y71.65187291120986 E13.95185
G1 X105.00463881657801 Y71.67584722846 E13.95867
G1 X105.59444081011083 Y71.66790778858419 E14.01303
G1 X106.65929790224573 Y72.2692794482573 E14.09419
G1 X107.9029370916288 Y73.60489699699981 E14.19540
G1 X108.66163028410718 Y75.0061323244003 E14.28342
G1 X108.96859142431823 Y75.41989702065938 E14.31128
G1 X109.01703032095489 Y75.65892084869033 E14.32729
G1 X109.1077895752636 Y75.84809111175574 E14.33903
G1 X109.3922503882245 Y76.22279208625298 E14.36446
G1 X109.44164501687646 Y76.4624805247195 E14.38047
G1 X109.53298923155526 Y76.65205845235931 E14.39220
G1 X109.81826560732054 Y77.02732892492988 E14.41763
G1 X109.86860750915159 Y77.2676804835329 E14.43364
G1 X109.96053020061335 Y77.45766423419768 E14.44538
G1 X110.24725856002044 Y77.83471828264246 E14.47080
G1 X110.29854073830714 Y78.0757323924025 E14.48681
G1 X110.39038527879138 Y78.26490007777606 E14.49855
G1 X110.67790807564083 Y78.64251617849794 E14.52398
G1 X110.73012074860209 Y78.88419019749213 E14.53999
G1 X110.82252753840258 Y79.0737574668767 E14.55173
G1 X111.11083268520672 Y79.4519306222831 E14.57715
G1 X111.16396754794243 Y79.69426283744629 E14.59316
G1 X111.25693032795753 Y79.88422775591297 E14.60490
G1 X111.5460058989115 Y80.26295294721363 E14.63033
