; generated by Slic3r 1.2.9 on 2017-06-18 at 11:28:50

; external perimeters extrusion width = 0.40mm
; perimeters extrusion width = 0.40mm
; infill extrusion width = 0.40mm
; solid infill extrusion width = 0.40mm
; top infill extrusion width = 0.40mm
; support material extrusion width = 0.40mm

M107
M190 S77 ; set bed temperature
M104 S280 ; set temperature
G1 X3 Y0
G1 Z5 F5000 ; lift nozzle

M109 S280 ; wait for temperature to be reached
G21 ; set units to millimeters
G90 ; use absolute coordinates
M82 ; use absolute distances for extrusion
G92 E0
G1 Z0.496 F3600.000
G1 E-2.00000 F2400.00000
G92 E0
G1 X42.97076546909538 Y15.478565117676931 F3600.000
G1 E2.00000 F2400.00000
G1 X43.20830805528029 Y13.68884246104491 E2.14272 F1500.000
G1 X43.171043651966535 Y13.527273474900245 E2.15446
G1 X42.97458989914854 Y13.197466117039625 E2.17963
G1 X43.69140438347113 Y9.826636696002321 E2.45472
G1 X43.66902459409874 Y9.668805338116632 E2.46646
G1 X43.49812731601212 Y9.345737444867742 E2.49163
G1 X45.00534729340503 Y4.787021337461258 E2.87257
G1 X45.30862410181974 Y4.681324563050345 E2.89774
G1 X45.41472272292324 Y4.579758222708137 E2.90947
G1 X46.7526853239469 Y1.4882513289184023 E3.17071
G1 X47.06535329730353 Y1.3841995369915614 E3.19588
G1 X47.179421022305895 Y1.2821578163341363 E3.20762
G1 X47.78900941639197 Y0.03000000197040969 E3.31368
G1 X48.1050569171267 Y-0.07400002918521557 E3.33885
G1 X48.222321180133996 Y-0.17600039074473395 E3.35059
G1 X48.625536757962884 Y-0.9630629615566471 E3.41730
G1 X48.94365380720978 Y-1.0680847740252857 E3.44247
G1 X49.062928591758556 Y-1.1691106359625074 E3.45420
G1 X49.19764175242549 Y-1.4251993282170854 E3.47582
G1 X50.06014607449722 Y-1.7083315551097005 E3.54398
G1 X50.2127411022342 Y-1.8133941569642547 E3.55781
G1 X50.776237690478794 Y-2.0955948571663026 E3.60479
G1 X52.514094422354844 Y-2.5540067270454587 E3.73953
G1 X53.20877690757418 Y-2.3247395433821474 E3.79579
G1 X54.3385554187816 Y-2.099522350075128 E3.88380 F1500.000
G1 X54.71084910691846 Y-1.8073286923323433 E3.92030
G1 X55.317408923412174 Y-1.4271583168336137 E3.97524
G1 X55.64072497730417 Y-1.2801129266760598 E4.00236
G1 X56.30828224160279 Y-0.3800028844557612 E4.08782
G1 X56.637133560942154 Y-0.12300009668575101 E4.11958
G1 X56.99026479145363 Y0.8450309642449744 E4.19742
G1 X57.042451814416246 Y0.9220401509852855 E4.20442
G1 X57.15826311216953 Y1.0290555904479652 E4.21624
G1 X57.38862608566266 Y2.0504362226085124 E4.29512
G1 X57.473321332597436 Y2.1795223588014276 E4.30659
G1 X57.6539991067402 Y3.2397046592173435 E4.38742
G1 X57.682016330915474 Y3.2937897183315337 E4.39191
G1 X57.85925110127161 Y4.387202826118215 E4.47498
G1 X57.88039517833305 Y4.429321856345781 E4.47841
G1 X58.980936928807765 Y9.882171390411113 E4.88966
G1 X59.8342837176146 Y12.97955614455574 E5.12103
G1 X60.929440978889666 Y16.296612229289128 E5.36652
G1 X61.833183405029374 Y18.713362212036017 E5.54380
G1 X63.106265338712596 Y21.77981277666748 E5.76675
G1 X64.23075911119221 Y24.269373536020936 E5.94605
G1 X65.6421207229017 Y27.172387860950906 E6.15332
G1 X66.88754025975241 Y29.5841866130918 E6.32401
G1 X68.45516585327948 Y32.45641770733075 E6.52574
G1 X69.69752702212612 Y34.636112073964966 E6.67779
G1 X71.0730443768944 Y36.957079565057754 E6.83883
G1 X72.32084314359174 Y38.989441160967644 E6.97928
G1 X74.0283406878744 Y41.68290086293679 E7.16455
G1 X75.47576209618556 Y43.89014090608117 E7.31599
G1 X77.3889858119358 Y46.712279097047364 E7.50927
G1 X78.08321141577106 Y47.71579001957577 E7.57786
G1 X78.13393286530507 Y47.76864042087051 E7.58208
G1 X78.83467730003085 Y48.798008810970735 E7.65184
G1 X78.92217291737475 Y48.89052341589948 E7.65908
G1 X79.69948309117193 Y50.07025851001271 E7.73808
G1 X79.87298319832557 Y50.241112763783335 E7.75202
G1 X81.20871503108519 Y52.4840984586791 E7.89811
G1 X81.43283864019477 Y52.91872542228905 E7.92582
G1 X82.04538500122965 Y53.73631678565461 E7.98201
G1 X82.08715423255944 Y53.98021307855176 E7.99875
G1 X82.17328853100624 Y54.16625497897266 E8.01049
G1 X82.44942339398136 Y54.532974318422575 E8.03566
G1 X82.52703075356582 Y54.96939406383721 E8.06539
G1 X82.61425771015557 Y55.15615997679552 E8.07713
G1 X82.89193963830257 Y55.5239073468698 E8.10230
G1 X83.03109354934452 Y56.274356691542344 E8.15312
G1 X83.11918602224158 Y56.46092264736681 E8.16486
G1 X83.39959371603678 Y56.83128963695237 E8.19003
G1 X83.61273109401463 Y57.9217483916966 E8.26332
G1 X83.70271232164463 Y58.10961000984398 E8.27506
G1 X83.98576972916304 Y58.48179944577642 E8.30023
G1 X84.23886991169812 Y59.70450594623572 E8.38162
G1 X84.33084688890537 Y59.893767527854216 E8.39336
G1 X84.61601217854692 Y60.26667648624652 E8.41853
G1 X84.87419034076261 Y61.44820986431904 E8.49647
G1 X84.96870807538502 Y61.64004713793523 E8.50821
G1 X85.25642358203868 Y62.014789169784805 E8.53338
G1 X85.51428419860626 Y63.144917139833616 E8.60726
G1 X85.61056918395064 Y63.33804787945335 E8.61899
G1 X85.90063553897608 Y63.71451442079786 E8.64416
G1 X86.14972383588933 Y64.76002707073182 E8.71191
G1 X86.24693707025195 Y64.95311546712772 E8.72365
G1 X86.53980231662192 Y65.332407323181 E8.74882
G1 X86.78761693352341 Y66.33482875325114 E8.81330
G1 X86.88561377466351 Y66.52919967318864 E8.82504
G1 X87.18044863385367 Y66.90998899928807 E8.85021
G1 X87.42740271791219 Y67.87759391290936 E8.91201
G1 X87.52753181142491 Y68.0743260771761 E8.92375
G1 X87.8235013251009 Y68.455275887752 E8.94892
G1 X88.06189007737683 Y69.36305101477689 E9.00644
G1 X88.16405681455453 Y69.56067281943432 E9.01818
G1 X88.46169614019392 Y69.94293208679433 E9.04335
G1 X88.70373383911186 Y70.84370266623323 E9.10000
G1 X88.80646279410074 Y71.04106961641364 E9.11174
G1 X89.10641256946663 Y71.42586642582972 E9.13691
G1 X89.33717405985037 Y72.26343113509152 E9.18927
G1 X89.44107536249774 Y72.46174112857432 E9.20101
G1 X89.74248238710584 Y72.84771224896856 E9.22618
G1 X89.97832132797322 Y73.68659869042769 E9.27833
G1 X90.08409551635627 Y73.8871204342819 E9.29007
G1 X90.38617297463146 Y74.27295339600333 E9.31524
G1 X90.61234942876165 Y75.05917842284698 E9.36378
G1 X90.71918981670856 Y75.26057899900843 E9.37552
G1 X91.0218723714251 Y75.64764654203469 E9.40069
G1 X91.25199896988559 Y76.4329730320421 E9.44888
G1 X91.35913334199269 Y76.63394643853353 E9.46062
G1 X91.66446406323446 Y77.0231549950189 E9.48579
G1 X91.88756197113949 Y77.77278944619606 E9.53153
G1 X91.99566809366624 Y77.9745816445645 E9.54327
G1 X92.3021496228555 Y78.36476137536543 E9.56844
G1 X92.52490718720014 Y79.10025628797887 E9.61311
G1 X92.63394717380882 Y79.30284342702221 E9.62485
G1 X92.9408673135774 Y79.69415003428583 E9.65002
G1 X93.16376212347804 Y80.4180214399998 E9.69372
G1 X93.27370267122453 Y80.62138272738451 E9.70546
G1 X93.58231880542392 Y81.01339096670844 E9.73063
G1 X93.79739807158833 Y81.70450112200174 E9.77218
G1 X93.90818891875192 Y81.908600217476 E9.78391
G1 X94.21713501269289 Y82.30165881918882 E9.80908
G1 X94.43678629114821 Y82.99599125592859 E9.85063
G1 X94.54917997000292 Y83.20213427213088 E9.86237
G1 X94.85830157661479 Y83.5947070844968 E9.88753
G1 X95.07080206351475 Y84.25820597529996 E9.92698
G1 X95.18321205969045 Y84.46372865170873 E9.93872
G1 X95.49461970708087 Y84.85818336786703 E9.96389
G1 X95.70546945707962 Y85.51220816555411 E10.00262
G1 X95.81864038380006 Y85.7184083960311 E10.01436
G1 X96.13088829299353 Y86.11361227637965 E10.03953
G1 X96.34568852834049 Y86.77039130062074 E10.07826
G1 X96.45960369501836 Y86.97725955646962 E10.09000
G1 X96.77266400177272 Y87.37319356007644 E10.11517
G1 X96.975710876487 Y87.98978449502921 E10.15137
G1 X97.09111185891321 Y88.19861476115081 E10.16311
G1 X97.40413611341152 Y88.59389891463063 E10.18828
G1 X97.6106705488698 Y89.21286950283864 E10.22448
G1 X97.72675793762934 Y89.42232520916748 E10.23622
G1 X98.0405062053435 Y89.81826985761188 E10.26139
G1 X98.24906683017402 Y90.43848471188015 E10.29742
G1 X98.36502956843961 Y90.64721841072175 E10.30916
G1 X98.680274954015 Y91.04514540345016 E10.33433
G1 X98.8786180829809 Y91.62986970731052 E10.36824
G1 X98.99520865678298 Y91.83918359371343 E10.37997
G1 X99.31110879453517 Y92.23771633328946 E10.40514
G1 X99.51190779499707 Y92.82471899927282 E10.43905
G1 X99.62911386738315 Y93.034605453025 E10.45079
G1 X99.94564869467806 Y93.43372926403906 E10.47596
G1 X100.14945577984935 Y94.02273700844896 E10.50986
G1 X100.26748198693333 Y94.23478951124618 E10.52160
G1 X100.5838245146803 Y94.63314112463225 E10.54677
G1 X100.77700514006159 Y95.18912126521226 E10.57868
G1 X100.89619362988873 Y95.40146000478728 E10.59042
G1 X101.21310551998688 Y95.80034862649335 E10.61559
G1 X101.40898276286968 Y96.35806767408897 E10.64740
G1 X101.52873109125316 Y96.57093706235382 E10.65914
G1 X101.84561446621058 Y96.97061136706428 E10.68431
G1 X102.04275312338451 Y97.52894945954324 E10.71613
G1 X102.16305084031114 Y97.74234266818385 E10.72787
G1 X102.48104916032037 Y98.1422651141805 E10.75304
G1 X102.67275551479078 Y98.68161784596575 E10.78361
G1 X102.79357830623468 Y98.89551456019912 E10.79534
G1 X103.11208212910842 Y99.29592221667234 E10.82051
G1 X103.30136423590929 Y99.82508644698643 E10.85043
G1 X103.42269492234286 Y100.03947287741823 E10.86217
G1 X103.74111539789804 Y100.44062221754515 E10.88733
G1 X103.9321902492197 Y100.9715204924643 E10.91725
G1 X104.0540202010475 Y101.18639090809009 E10.92899
G1 X104.37347733021068 Y101.5877210542594 E10.95416
G1 X104.56438955017143 Y102.11594497309281 E10.98383
G1 X104.68670649132106 Y102.33128996320605 E10.99557
G1 X105.00661667723611 Y102.73306201740961 E11.02074
G1 X105.1923279521848 Y103.2431298552777 E11.04925
G1 X105.31427932146714 Y103.45755931831982 E11.06099
G1 X105.63545012920615 Y103.86112395590536 E11.08615
G1 X105.82246538424627 Y104.37108583928135 E11.11466
G1 X105.9451541175905 Y104.58762743662838 E11.12640
G1 X106.26590893132192 Y104.99022953113095 E11.15157
G1 X106.45531555540099 Y105.50310309990812 E11.18007
G1 X106.57762077471986 Y105.71871592635821 E11.19181
G1 X106.89877922595748 Y106.12171760435692 E11.21698
G1 X107.09228499289759 Y106.64390383164358 E11.24594
G1 X107.21641997847158 Y106.86104251474629 E11.25768
G1 X107.53743156687351 Y107.26473670554498 E11.28285
G1 X107.73562085958385 Y107.79598567417563 E11.31224
G1 X107.85965856148442 Y108.01386793468167 E11.32398
G1 X108.18160095413637 Y108.41765123504813 E11.34915
G1 X108.40211015012576 Y109.00582010571593 E11.38156
G1 X108.52577028982563 Y109.22278612352221 E11.39330
G1 X108.84895892933474 Y109.62835770641705 E11.41847
G1 X109.08005792536049 Y110.24334690988256 E11.45233
G1 X109.2055658151177 Y110.4618634972231 E11.46407
G1 X109.52777898779836 Y110.86676455620416 E11.48924
G1 X109.82385080209126 Y111.6491721806112 E11.53211
G1 X109.94990155975584 Y111.86823926584182 E11.54385
G1 X110.27257690831388 Y112.27360934944474 E11.56902
G1 X110.66558362923858 Y113.30626771304723 E11.62536
G1 X110.79228844102825 Y113.52600235523072 E11.63710
G1 X111.11602930270682 Y113.93160789926942 E11.66226
G1 X111.74675129506002 Y115.57601298386597 E11.75152
G1 X111.87438438266376 Y115.79670324234905 E11.76326
G1 X112.19836270641386 Y116.20341079745016 E11.78842
G1 X112.64839845288526 Y117.36514214202485 E11.85105
G1 X112.77583741653176 Y117.58512325495802 E11.86279
G1 X113.1008494442018 Y117.99204299811561 E11.88796
G1 X113.30775848546294 Y118.52494309196106 E11.91659
G1 X113.4364254770045 Y118.74670915774858 E11.92833
G1 X113.76171739649502 Y119.15392139309726 E11.95350
G1 X115.34852327186506 Y123.18637673089523 E12.16848
G1 X115.25703508246255 Y123.58899248498858 E12.20706
G1 X115.42622860511383 Y124.64746366291777 E12.27461
G1 X115.41542899456728 Y125.25732212851914 E12.32168
G1 X115.02779718398507 Y126.56890666065544 E12.45637
G1 X114.68338213097834 Y126.53731403971629 E12.49349
G1 X114.39636457510352 Y126.58402303440862 E12.52854
G1 X114.33465616338731 Y126.66596642456298 E12.54092
G1 X114.07173608304558 Y126.63783690118085 E12.56910
G1 X113.7956379656092 Y126.6863522435895 E12.60316
G1 X113.61382814164833 Y126.58389808857146 E12.61890
G1 X113.32729551171687 Y126.5515488008939 E12.64961
G1 X112.68321243645835 Y126.03971045517811 E12.70089
G1 X112.51965926450363 Y125.98073087456436 E12.71640
G1 X110.545456071247 Y124.22794525090572 E12.86998
G1 X109.23056272399224 Y123.00698961478545 E12.97144
G1 X109.1287109151391 Y122.9456638191987 E12.98017
G1 X108.49105952565861 Y122.32691454350194 E13.02903
G1 X108.42102040194972 Y122.27889333440126 E13.03487
G1 X107.7515239613807 Y121.61460114813627 E13.08603
G1 X107.67039092526785 Y121.55653470472544 E13.09266
G1 X106.96513135129598 Y120.84817656503387 E13.14647
G1 X105.49856283381304 Y119.33496512549891 E13.25813
G1 X105.43911705339723 Y119.28838585477872 E13.26289
G1 X103.96044266931533 Y117.69825238016632 E13.37505
G1 X103.87526786006377 Y117.6303455881482 E13.38187
G1 X102.96607676317477 Y116.62955645869175 E13.45077
G1 X102.38666722283718 Y115.97017276814175 E13.49461
G1 X102.2810232887802 Y115.88273564890791 E13.50302
G1 X100.7842312765246 Y114.15533705189232 E13.61643
G1 X100.69533373995043 Y114.07704598262339 E13.62334
G1 X99.90862325144911 Y113.15862468969331 E13.68299
G1 X98.28451701565206 Y111.22182651068447 E13.80621
G1 X98.18750471419467 Y111.13276124778456 E13.81375
G1 X94.81094656209271 Y106.98153561814867 E14.07080
G1 X93.97417280295689 Y105.91420296587388 E14.13479
G1 X93.92288728526185 Y105.8641319454095 E14.13873
G1 X92.15361308706241 Y103.59352470314101 E14.27443
G1 X91.24090820459867 Y102.41306260358732 E14.34450
G1 X89.42116121478182 Y100.01414271386163 E14.48507
G1 X86.66579012505454 Y96.3038764806682 E14.69927
G1 X86.61973844915487 Y96.25557373166555 E14.70279
G1 X84.73457072529487 Y93.67334619807798 E14.85033
G1 X82.82671078824754 Y91.02618663746634 E15.00062
G1 X80.89448355110503 Y88.31310652986852 E15.15380
G1 X78.93988827582669 Y85.53895728144961 E15.30976
G1 X76.96596663461065 Y82.70793299079199 E15.46843
G1 X75.01516540007094 Y79.86961690791007 E15.62674
G1 X74.9718437415007 Y79.82120466680551 E15.63007
G1 X71.97949278093033 Y75.42263531362093 E15.87533
G1 X69.96154386518353 Y72.41157303376859 E16.04298
G1 X69.90508912089305 Y72.34637185912294 E16.04722
G1 X66.8228018643337 Y67.6649762903572 E16.30775
G1 X65.73380944384708 Y65.98796423178322 E16.40114
G1 X64.68085300148724 Y64.32872520557461 E16.49321
G1 X64.62719206340316 Y64.26433810258388 E16.49739
G1 X63.578979395709084 Y62.582649153474776 E16.59059
G1 X63.50850880000254 Y62.4964727217155 E16.59603
G1 X61.70325518155425 Y59.52767340136465 E16.76066
G1 X61.629923592358935 Y59.417045249846694 E16.76701
G1 X60.98520622249301 Y58.60587874098331 E16.81790
G1 X60.88496448221022 Y58.32342809400409 E16.83387
G1 X60.76539795804846 Y58.11131063220067 E16.84561
G1 X60.44674300572364 Y57.71018370436957 E16.87078
G1 X60.341616981980195 Y57.41263478013588 E16.88776
G1 X60.22245462450032 Y57.199508644231244 E16.89950
G1 X59.90525119720307 Y56.800343781977936 E16.92467
G1 X59.79809670884183 Y56.493542015271615 E16.94225
G1 X59.6790223110265 Y56.28131102514539 E16.95399
G1 X59.36248978942847 Y55.882780566689206 E16.97916
G1 X59.24550754276649 Y55.54488644199075 E16.99854
G1 X59.12715662028743 Y55.33333572795111 E17.01028
G1 X58.81136029713986 Y54.93549625171438 E17.03545
G1 X58.69584387331014 Y54.59757557462449 E17.05497
G1 X58.578238775162916 Y54.386720710036734 E17.06670
G1 X58.263212132528366 Y53.989597993297174 E17.09187
G1 X58.13495152659886 Y53.612661275596416 E17.11368
G1 X58.01895690203332 Y53.40389819531873 E17.12542
G1 X57.70398711527653 Y53.0062249641503 E17.15059
G1 X57.578613329950905 Y52.63255074750621 E17.17240
G1 X57.46265981487456 Y52.42321737219714 E17.18414
G1 X57.14998836395332 Y52.027464713557 E17.20931
G1 X57.01274861818188 Y51.61554850917103 E17.23343
G1 X56.8991125150472 Y51.40814712208021 E17.24517
G1 X56.58602785140515 Y51.012191126681195 E17.27034
G1 X56.451976493299156 Y50.602369836975676 E17.29455
G1 X56.33787791530668 Y50.39471386744809 E17.30629
G1 X56.02660776809533 Y50.00101045854426 E17.33146
