; generated by Slic3r 1.2.9 on 2017-06-19 at 17:22:38

; external perimeters extrusion width = 0.40mm
; perimeters extrusion width = 0.40mm
; infill extrusion width = 0.40mm
; solid infill extrusion width = 0.40mm
; top infill extrusion width = 0.40mm
; support material extrusion width = 0.40mm

M107
M190 S77 ; set bed temperature
M104 S280 ; set temperature

G1 Z5 F5000 ; lift nozzle

M109 S280 ; wait for temperature to be reached
G21 ; set units to millimeters
G90 ; use absolute coordinates
M82 ; use absolute distances for extrusion
G92 E0
G1 Z0.496 F3600.000
G1 E-2.00000 F2400.00000
G92 E0
G1 X50.78206968999984 Y0.3252875852170554 F3600.000
G1 E2.00000 F2400.00000
G1 X44.50333409981774 Y0.3868279329414254 E2.52466 F1500.000
G1 X36.61747442137428 Y0.501016238344391 E3.21640
G1 X36.12671572396251 Y0.50837556736576 E3.25878
G1 X35.906040188246884 Y0.5097603028311313 E3.27594
G1 X35.830307687766236 Y0.508895761839958 E3.28210
G1 X35.668120065402945 Y0.505047993276138 E3.29826
G1 X35.43928780322765 Y0.4972208477331286 E3.32550
G1 X33.624032000936474 Y0.4111400452562072 E3.58918
G1 X32.55667197365234 Y0.3447533168436853 E3.77418
G1 X31.877611532233715 Y0.291916513445998 E3.91294
G1 X30.997946786843805 Y0.1987051966415518 E4.14460
G1 X30.391670865551305 Y0.08060272934990961 E4.42277
G1 X30.278947781102282 Y-0.00555186980225675 E4.65475
G1 X30.282245639978555 Y-0.02031032610841179 E4.65475
G1 X30.63105541766395 Y-0.1403180648086287 E4.93267
G1 X31.31073498019489 Y-0.23665927151081564 E5.16431
G1 X32.318676535402865 Y-0.3273963422162622 E5.39582
G1 X33.919264880005876 Y-0.42705204073854197 E5.67349
G1 X35.43928780322765 Y-0.4972208477331286 E5.89074
G1 X35.75536505197507 Y-0.5073755849341917 E5.92712
G1 X35.87931221470111 Y-0.5095700815783069 E5.93827
G1 X35.94100947385869 Y-0.5097901424436699 E5.94298
G1 X36.115260001833015 Y-0.5084889275891074 E5.95663
G1 X36.43251583407328 Y-0.5040806033772605 E5.98355
G1 X45.09815883159755 Y-0.38012344203652243 E6.74215
G1 X52.37918794712266 Y-0.3122115090755881 E7.34763 F1500.000
G1 X61.00191669939561 Y-0.2552803217225268 E8.04471
G1 X70.46625185150691 Y-0.21048773703224846 E8.79531
G1 X71.0085169609956 Y-0.20758979039496261 E8.83916
G1 X71.20406736977881 Y-0.20583478239781317 E8.85679
G1 X71.17434038331511 Y-0.2022919840781526 E8.87598
G1 X70.12904234338296 Y-0.14648279084789362 E9.18495
G1 X69.55533372071477 Y-0.10323793025621353 E9.41773
G1 X69.13806058170854 Y-0.05189051830846252 E9.68928
G1 X68.999 Y0.0 E9.96091
G1 X69.13806058170854 Y0.05189051830846252 E10.23253
G1 X69.55533372071477 Y0.10323793025621353 E10.50408
G1 X70.12904234338296 Y0.14648279084789362 E10.73687
G1 X71.17434038331511 Y0.2022919840781526 E11.04583
G1 X71.20406736977881 Y0.20583478239781317 E11.06502
G1 X71.0085169609956 Y0.20758979039496261 E11.08265
G1 X70.46625185150691 Y0.21048773703224846 E11.12650
G1 X61.17017629531568 Y0.25435983121546807 E11.86369
G1 X50.85122776295573 Y0.32470443405509014 E12.69979
G1 X51.00691737401899 Y0.3317322428419409 F3600.000
G1 X44.68161627560042 Y0.39459141615888355 E13.23003 F1500.000
G1 X36.82471354946295 Y0.5100315113960376 E13.92267
G1 X36.44230789892429 Y0.5161951960099651 E13.95631
G1 X36.113715469333805 Y0.5198982830301376 E13.98322
G1 X35.974578371399986 Y0.5206390312578928 E13.99396
G1 X35.85451214282521 Y0.5206301930274462 E14.00304
G1 X35.74359395751916 Y0.5198297289005586 E14.01172
G1 X35.50650557292283 Y0.5158030237285263 E14.03270
G1 X35.38427868418403 Y0.5125665007772602 E14.04539
G1 X35.127031257992755 Y0.5038384849170379 E14.07578
G1 X33.28207020303876 Y0.416708116091483 E14.34114
G1 X32.200665365796404 Y0.3495855452306189 E14.52663
G1 X31.51138881420494 Y0.29610742891256703 E14.66580
G1 X30.61851879173779 Y0.2016678063603052 E14.89798
G1 X30.003525209548293 Y0.08188185642979966 E15.17674
G1 X29.888957552376258 Y-0.005535599595166098 E15.40933
G1 X29.892368340430973 Y-0.02064218573841826 E15.40933
G1 X30.24734561907871 Y-0.14244408771289932 E15.68785
G1 X30.935779738031496 Y-0.24014922203787709 E15.92006
G1 X31.958724833760186 Y-0.33205130725025755 E16.15215
G1 X33.580320859098414 Y-0.43273223681826967 E16.43044
G1 X35.127031257992755 Y-0.5038384849170379 E16.64938
G1 X35.38427868418403 Y-0.5125665007772602 E16.67978
G1 X35.50650557292283 Y-0.5158030237285263 E16.69248
G1 X35.74359395751916 Y-0.5198297289005586 E16.71346
G1 X35.85451214282521 Y-0.5206301930274462 E16.72214
G1 X35.974578371399986 Y-0.5206390312578928 E16.73122
G1 X36.2675177672804 Y-0.5184244952088585 E16.75422
G1 X36.63081003745344 Y-0.5133084847556217 E16.78515
G1 X45.27410280723407 Y-0.38781135541535794 E17.54554
G1 X52.52846478815082 Y-0.31908363719331123 E18.15084 F1500.000
G1 X61.128353961152925 Y-0.261322121603138 E18.84775
G1 X70.59012831834207 Y-0.2157218395978652 E19.59949
G1 X71.18534436244585 Y-0.21251010474154586 E19.64769
G1 X71.44658867993628 Y-0.21013239569012573 E19.67128
G1 X71.55738923409658 Y-0.20800220274284767 E19.68556
G1 X71.59145215037896 Y-0.20523300398613922 E19.70081
G1 X71.5574104897599 Y-0.20119415478409333 E19.72284
G1 X70.50870588090524 Y-0.1452727029244551 E20.03401
G1 X69.94032940299896 Y-0.10239453844813988 E20.26612
G1 X69.52702353042305 Y-0.051455942502437825 E20.53694
G1 X69.388 Y0.0 E20.80780
G1 X69.52702353042305 Y0.051455942502437825 E21.07866
G1 X69.94032940299896 Y0.10239453844813988 E21.34947
G1 X70.50870588090524 Y0.1452727029244551 E21.58158
G1 X71.5574104897599 Y0.20119415478409333 E21.89275
G1 X71.59145215037896 Y0.20523300398613922 E21.91478
G1 X71.55738923409658 Y0.20800220274284767 E21.93003
G1 X71.44658867993628 Y0.21013239569012573 E21.94431
G1 X71.18534436244585 Y0.21251010474154586 E21.96790
G1 X70.59012831834207 Y0.2157218395978652 E22.01610
G1 X61.29601373662076 Y0.2603711948873305 E22.75444
G1 X51.07493745468515 Y0.3311493092504607 E23.58458
G1 X50.60509227340663 Y0.3258623630510711 F3600.000
G1 X50.834016268636496 Y0.31776923795200623 F3600.000
G1 X50.60439556006968 Y0.31547649941529526 E23.60411 F1500.000
G1 X50.467442178101315 Y0.32084825377429915 E23.62709
G1 X50.3630664872583 Y0.3217254385498039 F3600.000
G1 X49.732885257141476 Y0.31537926980994174 E23.68055 F1500.000
G1 X49.910876930785335 Y0.3084068609998147 E23.71005
G1 X50.256999880613655 Y0.31197859152848967 E23.73956
G1 X50.436157159323706 Y0.3050907593257144 E23.76906
G1 X50.090619740626096 Y0.3015093304898477 E23.79857
G1 X50.27339505145837 Y0.29463663694212644 E23.82808
G1 X50.96198057375714 Y0.3018430533241281 E23.88709
G1 X50.78168370584023 Y0.30864814800830925 E23.91659
G1 X51.128488780717944 Y0.3121327900351155 E23.94610
G1 X51.67138357930819 Y0.2920091935578611 E24.03462
G1 X51.328904936692346 Y0.2884020554971745 E24.06412
G1 X51.14395481383895 Y0.2951106441798843 E24.09363
G1 X50.4578527089689 Y0.2878386839465387 E24.15264
G1 X50.645308450043025 Y0.28106611375145457 E24.18215
G1 X50.986424320597344 Y0.28477083994757496 E24.21165
G1 X51.174915583711524 Y0.27807955964185377 E24.24116
G1 X50.83437830838496 Y0.2743680650310515 E24.27067
G1 X51.02641169041774 Y0.26769586808268464 E24.30017
G1 X51.70400743656143 Y0.27515946810945613 E24.35918
G1 X51.515465949557324 Y0.2817659790206127 E24.38869
G1 X51.856425657771666 Y0.2853854266541551 E24.41820
G1 X52.04496326254827 Y0.27882223393253525 E24.44770
G1 X52.72768742321248 Y0.2859925764471465 E24.50671
G1 X52.5415892412858 Y0.2924958971938464 E24.53622
G1 X52.19929932479937 Y0.2889704470163689 E24.56573
G1 X51.832689800935476 Y0.3021897159101626 E24.62474
G1 X52.17738477539862 Y0.3056528287991892 E24.65424
G1 X52.35897918218039 Y0.29905779548955536 E24.68375
G1 X52.70310712851758 Y0.3025068115373067 E24.71326
G1 X52.688309841937425 Y0.3030716854290821 E24.71576
G1 X53.2068335648721 Y0.29919950671707607 F3600.000
G1 X52.885771924025086 Y0.2959882392880906 E24.74333 F1500.000
G1 X53.06942453993636 Y0.28950213501728655 E24.77283
G1 X53.68616917791769 Y0.29570658378870773 E24.82581
G1 X54.166148192390416 Y0.29227552284309405 F3600.000
G1 X53.59772610848337 Y0.28656736474214833 E24.87470 F1500.000
G1 X53.78582498205266 Y0.28021248873621674 E24.90420
G1 X53.44459322513364 Y0.2766778943210657 E24.93371
G1 X53.25653381511043 Y0.28307382193897374 E24.96321
G1 X52.574902491588134 Y0.2759378084001209 E25.02223
G1 X52.76540177995426 Y0.26948500249089113 E25.05173
G1 X53.10527040699445 Y0.2731109738601956 E25.08124
G1 X53.29671704711276 Y0.2667325683380018 E25.11074
G1 X52.959307944874055 Y0.26309220898207436 E25.14025
G1 X53.154141447303985 Y0.2567328960037785 E25.16976
G1 X53.828428111918704 Y0.26403449054021194 E25.22877
G1 X53.63605429186603 Y0.2703400664080362 E25.25827
G1 X53.97484756810343 Y0.27388933383044173 E25.28778
G1 X54.36052336024738 Y0.2613892128035481 E25.34679
G1 X54.024148767009734 Y0.25778725104000294 E25.37630
G1 X54.22074515349268 Y0.2515720823165745 E25.40580
G1 X54.5561550148102 Y0.2552170918241651 E25.43531
G1 X54.954316336389816 Y0.24298380298604616 E25.49432
G1 X54.621598603482845 Y0.23930838505418764 E25.52383
G1 X54.419663771471434 Y0.24541988282565694 E25.55333
G1 X54.086458610265844 Y0.24172311304397084 E25.58284
G1 X54.28842198848664 Y0.23557435558786197 E25.61234
G1 X53.95721464271484 Y0.231808043935522 E25.64185
G1 X53.551640292338384 Y0.24418608723948979 E25.70086
G1 X53.88630999613908 Y0.24789973611383212 E25.73037
G1 X53.68726457922773 Y0.2541268567455769 E25.75987
G1 X53.35232542260928 Y0.2504337991728181 E25.78938
G1 X52.68346049757932 Y0.24289321322015472 E25.84839
G1 X52.88529625519743 Y0.23659523054137957 E25.87790
G1 X53.218451546432654 Y0.2404030580473842 E25.90740
G1 X53.62655611728204 Y0.22797709891646187 E25.96642
G1 X53.29594162785755 Y0.224121139399748 E25.99592
G1 X53.08995897530907 Y0.2303227441046575 E26.02543
G1 X52.7588643641995 Y0.2264422587675315 E26.05493
G1 X52.96688687283783 Y0.220194552373666 E26.08444
G1 X52.63789680448868 Y0.21624156611738235 E26.11395
G1 X52.22207718963312 Y0.22881110837308835 E26.17296
G1 X52.55365990109538 Y0.23271627632126432 E26.20246
G1 X52.34980551062248 Y0.2390623125881865 E26.23197
G1 X52.017668113824556 Y0.23515914884606803 E26.26148
G1 X51.61448891541986 Y0.24802830806075596 E26.32049
G1 X51.949214710137824 Y0.2518790657718797 E26.34999
G1 X52.148802833813924 Y0.24543444525003655 E26.37950
G1 X52.81869037566153 Y0.25301908314223853 E26.43851
G1 X52.621386621790954 Y0.2593917222837685 E26.46802
G1 X52.28541555730431 Y0.255657121235858 E26.49752
G1 X52.08901140355805 Y0.26210491708708383 E26.52703
G1 X52.42746346143402 Y0.2658254601326124 E26.55654
G1 X52.23449438828713 Y0.2722934093409098 E26.58604
G1 X51.557027552022426 Y0.2648741240567552 E26.64505
G1 X51.75251210327862 Y0.25834950694489606 E26.67456
G1 X51.41578444407904 Y0.2545498930923706 E26.70407
G1 X51.21999160484117 Y0.2610978969460641 E26.73357
G1 X50.54693591109158 Y0.25338045580118257 E26.79258
G1 X50.74629540173352 Y0.24677093007681594 E26.82209
G1 X51.08052952936177 Y0.2506764177798845 E26.85160
G1 X51.481993211219 Y0.2376528731409866 E26.91061
G1 X51.14940963491172 Y0.23369789774070143 E26.94011
G1 X50.94664518886401 Y0.24019902172391566 E26.96962
G1 X50.61452070305516 Y0.23621431386202554 E26.99913
G1 X50.818382668085775 Y0.22966757597896117 E27.02863
G1 X50.4884156713201 Y0.22560377558975397 E27.05814
G1 X50.078987499748834 Y0.23878919078814156 E27.11715
G1 X50.41163446070758 Y0.2427992312101093 E27.14666
G1 X50.21216764888766 Y0.2494514582310941 E27.17616
G1 X49.543793496259454 Y0.24141971539232754 E27.23517
G1 X49.74595144330843 Y0.2347107119279541 E27.26468
G1 X49.41495608618913 Y0.23059240247314092 E27.29419
G1 X49.210225786923594 Y0.2373146749425327 E27.32369
G1 X48.54683021578237 Y0.2289510956392958 E27.38270
G1 X48.754335038025076 Y0.2221729027010019 E27.41221
G1 X49.083611165031456 Y0.2264033418800261 E27.44172
G1 X49.291941511772485 Y0.21970976636028597 E27.47122
G1 X48.96287011603793 Y0.21543688361687727 E27.50073
G1 X49.17479347185913 Y0.2087739789051467 E27.53023
G1 X49.82984058774421 Y0.2172997933842959 E27.58925
G1 X49.62070382410955 Y0.22391072581612823 E27.61875
G1 X49.951530507082566 Y0.2280712876314802 E27.64826
G1 X50.57889228719822 Y0.20845033911591723 E27.73678
G1 X50.253383418432634 Y0.2042289708924099 E27.76628
G1 X50.03994982011872 Y0.2107290436663361 E27.79579
G1 X49.38790148406794 Y0.20217261254507574 E27.85480
G1 X49.603929733439465 Y0.1956045594757081 E27.88431
G1 X49.927801653988325 Y0.19995661512680193 E27.91381
G1 X50.14453671139061 Y0.1934688886991167 E27.94332
G1 X49.82128505970113 Y0.1891172317728005 E27.97282
G1 X50.041520570422314 Y0.18266324933299535 E28.00233
G1 X50.68438578102728 Y0.1913825381697578 E28.06134
G1 X50.467941755137986 Y0.1977880412840077 E28.09085
G1 X50.79207561224487 Y0.2020328250065424 E28.12035
G1 X51.00831416543777 Y0.19566540455489165 E28.14986
G1 X51.65754044667632 Y0.20403562900462524 E28.20887
G1 X51.444223669912645 Y0.2103764962264007 E28.23838
G1 X51.118091846233845 Y0.20621969526516168 E28.26788
G1 X50.69578463738382 Y0.21908401499977012 E28.32690
G1 X51.024626573841765 Y0.2231925418276528 E28.35640
G1 X51.23375400065859 Y0.216746648934636 E28.38591
G1 X51.562103680901146 Y0.2208272249842622 E28.41541
G1 X51.3550677732977 Y0.22722502461114052 E28.44492
G1 X51.685589142429244 Y0.23122914833388075 E28.47443
G1 X52.099863310761194 Y0.21851072362713236 E28.53344
G1 X51.77199745035921 Y0.21445787106139932 E28.56294
G1 X51.98320276781722 Y0.20816300462814724 E28.59245
G1 X52.31050652593607 Y0.2122162051679516 E28.62196
G1 X52.7371541989137 Y0.19980159149467883 E28.68097
G1 X52.41250430956338 Y0.19570427383882866 E28.71047
G1 X52.197230367137294 Y0.20189671674267384 E28.73998
G1 X51.548911579198254 Y0.1935872791359027 E28.79899
G1 X51.766690081557265 Y0.1873332351355086 E28.82850
G1 X52.08972699102963 Y0.19155229686137126 E28.85800
G1 X52.30815065551448 Y0.1853714375443537 E28.88751
G1 X51.98764011762796 Y0.18114728699604288 E28.91702
G1 X52.20940378897272 Y0.17499840390216967 E28.94652
G1 X52.84980841970953 Y0.1834498456162463 E29.00553
G1 X52.63075368071409 Y0.1895591443592137 E29.03504
G1 X52.95309464988804 Y0.19368085842907365 E29.06455
G1 X53.39165737266451 Y0.18156724967270615 E29.12356
G1 X53.071980149604364 Y0.17740642777101295 E29.15306
G1 X53.294918106701324 Y0.17139832613009545 E29.18257
G1 X53.61343560153555 Y0.1755960127249561 E29.21208
G1 X54.06347958650091 Y0.16378029402641925 E29.27109
G1 X53.747639445839845 Y0.159548131558569 E29.30059
G1 X53.51992849397316 Y0.16545892255978012 E29.33010
G1 X53.20370961690548 Y0.16119347854003765 E29.35961
G1 X53.43194004525757 Y0.15528739793158433 E29.38911
G1 X53.1180603938058 Y0.15095465250728252 E29.41862
G1 X52.65992679448007 Y0.1628728108781507 E29.47763
G1 X52.97751736350052 Y0.16716885161035822 E29.50714
G1 X52.75207549471396 Y0.17317984473129203 E29.53664
G1 X52.43427856850898 Y0.1689173580545671 E29.56615
G1 X51.80044850191936 Y0.16021990424030538 E29.62516
G1 X52.02885630109507 Y0.15413983190037037 E29.65467
G1 X52.34446522794937 Y0.15854056736567732 E29.68417
G1 X52.80533580993497 Y0.14658921537724987 E29.74318
G1 X52.49249792113155 Y0.14215569061669547 E29.77269
G1 X52.26030724172983 Y0.14812923173701423 E29.80219
G1 X51.947114578193855 Y0.14365845493490276 E29.83170
G1 X52.18183197244037 Y0.13768544629177334 E29.86121
G1 X51.871097347173986 Y0.133145199100828 E29.89071
G1 X51.401851036708784 Y0.1451931050016179 E29.94972
G1 X51.71540522900309 Y0.14970170481421902 E29.97923
G1 X51.48445848020546 Y0.15578295243042528 E30.00874
G1 X51.17063381471838 Y0.1513076635736777 E30.03824
G1 X50.712867410549755 Y0.16368664275804107 E30.09725
G1 X51.02950735603863 Y0.1681254823357032 E30.12676
G1 X51.25658096283832 Y0.161934883873383 E30.15627
G1 X51.891203435649864 Y0.1707024685621706 E30.21528
G1 X51.666908374703425 Y0.17685515856266776 E30.24478
G1 X51.34829715774419 Y0.17252533297905065 E30.27429
G1 X51.12459486392044 Y0.17875131160708657 E30.30380
G1 X51.44575154470969 Y0.18307683861807522 E30.33330
