; generated by Slic3r 1.2.9 on 2017-06-18 at 17:23:42

; external perimeters extrusion width = 0.40mm
; perimeters extrusion width = 0.40mm
; infill extrusion width = 0.40mm
; solid infill extrusion width = 0.40mm
; top infill extrusion width = 0.40mm
; support material extrusion width = 0.40mm

M107
M190 S77 ; set bed temperature
M104 S280 ; set temperature
G1 X3 Y0
G1 Z5 F5000 ; lift nozzle

M109 S280 ; wait for temperature to be reached
G21 ; set units to millimeters
G90 ; use absolute coordinates
M82 ; use absolute distances for extrusion
G92 E0
G1 Z0.496 F3600.000
G1 E-2.00000 F2400.00000
G92 E0
G1 X57.014553124618985 Y-0.07316941335812326 F3600.000
G1 E2.00000 F2400.00000
G1 X56.862 Y0.0 E2.83546 F1500.000
G1 X57.27455008989595 Y0.12009737882474429 E2.83546 F1500.000
G1 X43.68036272743164 Y0.1577492114242063 E3.87501 F1500.000
G1 X43.138 Y0.0 E4.91457
G1 X43.68036272743164 Y-0.1577492114242063 E4.91457
G1 X57.27455008989595 Y-0.12009737882474429 E5.95412
G1 X57.02008499642911 Y-0.0744812203275163 E6.15254
G1 X57.40901107840128 Y-0.073975710350922 F3600.000
G1 X57.252 Y0.0 E7.02318 F1500.000
G1 X57.709470695891845 Y0.12599705742949607 E7.02318 F1500.000
G1 X43.35877083128626 Y0.16804546160739042 E8.12175 F1500.000
G1 X42.748 Y0.0 E9.22031
G1 X43.35877083128626 Y-0.16804546160739042 E9.22031
G1 X57.709470695891845 Y-0.12599705742949607 E10.31888
G1 X57.41460291598297 Y-0.07527842596176093 E10.54112
G1 X56.959132805898655 Y-0.07016043961221141 F3600.000
G1 X56.958227452808345 Y-0.07579867084430254 F3600.000
G1 X56.99773677085784 Y-0.11303450170815678 F3600.000
G1 X56.81762047991802 Y-0.11702648751582115 E10.56331 F1500.000
G1 X56.26546085299577 Y-0.11818027396283888 E10.60578
G1 X56.93770354519051 Y-0.10333160776448216 E10.68805
G1 X56.88304180509338 Y-0.09360914897187132 E10.73053
G1 X55.713377612562674 Y-0.11935692854479006 E10.87286
G1 X55.16137305216396 Y-0.12055713458160029 E10.91534
G1 X56.833767049175975 Y-0.08386890937251866 E11.11775
G1 X56.7898932997765 Y-0.07411269303027575 E11.16023
G1 X54.60944955774596 Y-0.12178160275219758 E11.42272
G1 X54.057609612338574 Y-0.12303107247032743 E11.46520
G1 X56.75143308322706 Y-0.06434232209346213 E11.78776
G1 X56.71845195348688 Y-0.054577239518671126 E11.83024
G1 X53.50684808508159 Y-0.12430399613702879 E12.21288
G1 X52.95518293802789 Y-0.1256057609848246 E12.25536
G1 X56.690840530018605 Y-0.04478410534086852 E12.69807
G1 X56.66867106258978 Y-0.03498236805766329 E12.74055
G1 X52.40360941767275 Y-0.12693493154319935 E13.24334
G1 X51.852130448034636 Y-0.12829237761836634 E13.28582
G1 X56.65194993996235 Y-0.025173901834542867 E13.84869
G1 X56.64068198741961 Y-0.015360588588055763 E13.89117
G1 X51.30074907835168 Y-0.12967900600403295 E14.51411
G1 X50.74946848982756 Y-0.13109576245662632 E14.55659
G1 X56.63487045981477 Y-0.005544315827928381 E15.23960
G1 X56.634 Y0.0 E15.28208
G1 X56.63451703687425 Y0.004273025516932295 E15.28208
G1 X50.198292002816196 Y-0.13254363379765227 E16.02517
G1 X49.6482141169247 Y-0.13402095876128875 E16.06765
G1 X56.63960774052023 Y0.014071889545211177 E16.87082
G1 X56.65015944372973 Y0.023885699097829952 E16.91330
G1 X49.097256186064 Y-0.13553413520266988 E17.77654
G1 X48.54641322487172 Y-0.13708165445865508 E17.81902
G1 X56.666164834052424 Y0.033694909175251385 E18.74233
G1 X56.68761929204647 Y0.043497637003101594 E18.78481
G1 X47.995689191843056 Y-0.13866469143658658 E19.76821
G1 X47.44508822839304 Y-0.1402844748885305 E19.81069
G1 X56.71451663375084 Y0.05329200727588744 E20.85415
G1 X56.74684911957667 Y0.06307615429587761 E20.89663
G1 X46.89461466949057 Y-0.14194229050937893 E22.00018
G1 X46.34427305503884 Y-0.14363948424971573 E22.04266
G1 X56.78460746540386 Y0.07284822408445432 E23.20627
G1 X56.82769835212403 Y0.08258883941273966 E23.24875
G1 X45.79505759358754 Y-0.1453743025080669 E24.47245
G1 X45.244994109846004 Y-0.1471544719534874 E24.51493
G1 X56.8762647507728 Y0.09233127996926813 E25.79870
G1 X56.930220059297156 Y0.10205617548287363 E25.84118
G1 X44.69507753656996 Y-0.1489784527790744 E27.18502
G1 X44.14531336393479 Y-0.1508478698865708 E27.22750
G1 X56.98954897171937 Y0.1117617391740731 E28.63142
G1 X56.74512042457924 Y0.11717669333750468 E28.66146
G1 X43.8293131591176 Y-0.14553025772735695 E30.06538
G1 X43.75214230183477 Y-0.13295631108107359 E30.10786
G1 X56.19297069918977 Y0.11833344422528252 E31.45170
G1 X55.64089765631033 Y0.11951315145107944 E31.49418
G1 X43.681912641275225 Y-0.1203399325834085 E32.77794
G1 X43.61865770516099 Y-0.10768494258199246 E32.82042
G1 X55.08890360136059 Y0.12071650185128052 E34.04411
G1 X54.53798350691012 Y0.12194197938470759 E34.08659
G1 X43.56250274031555 Y-0.09501808630592132 E35.25021
G1 X43.51327251540615 Y-0.08229767073280364 E35.29269
G1 X53.986154567629654 Y0.12319474233908277 E36.39623
G1 X53.43441210493477 Y0.12447337839772256 E36.43871
G1 X43.471098410323144 Y-0.0695505071818559 E37.48217
G1 X43.43600097845104 Y-0.056780665520729766 E37.52465
G1 X52.882758825537834 Y0.12577869313968407 E38.50804
G1 X52.331197549836375 Y0.12711152575117 E38.55052
G1 X43.40799738527452 Y-0.043992259676843615 E39.47383
G1 X43.387101366650434 Y-0.031189439820220693 E39.51631
G1 X51.779731217919625 Y0.12847275078630863 E40.37955
G1 X51.22836289595833 Y0.12986328003913028 E40.42203
G1 X43.37332319525448 Y-0.01837638437034545 E41.22519
G1 X43.36667522418568 Y-0.005580350689698617 E41.26767
G1 X50.678087177793124 Y0.131281481421195 E42.01076
G1 X50.12692442191122 Y0.1327334564191242 E42.05324
G1 X43.36713677429027 Y0.0072405689420985955 E42.73625
G1 X43.37472600489829 Y0.020059108753287428 E42.77873
G1 X49.575869694842474 Y0.13421771311780475 E43.40166
G1 X49.02492663941477 Y0.1357353334326016 E43.44414
G1 X43.38943917591008 Y0.03287105940647406 E44.00701
G1 X43.41126904387846 Y0.04567222453763295 E44.04948
G1 X48.47409906331422 Y0.137287447855649 E44.55227
G1 X47.92339094847109 Y0.1388752381943653 E44.59475
G1 X43.44020487981151 Y0.05845842897516605 E45.03746
G1 X43.476232495468146 Y0.07122552685509471 E45.07994
G1 X47.37280646109116 Y0.14049994049599135 E45.46257
G1 X46.82333987446858 Y0.14215982223601634 E45.50505
G1 X43.51925041863658 Y0.08394651221723418 E45.82761
G1 X43.56939270864353 Y0.0966631689801442 E45.87009
G1 X46.2730156894923 Y0.1438622170046412 E46.13258
G1 X45.72282883855721 Y0.1456055870618409 E46.17506
G1 X43.62656389173917 Y0.10934854338256172 E46.37746
G1 X43.69073637511732 Y0.12199868441065882 E46.41994
G1 X45.172784339688434 Y0.14739141880109355 E46.56228
G1 X44.622887456999024 Y0.1492212708292267 E46.60476
G1 X43.761879358638154 Y0.13460970804580838 E46.68701
G1 X43.839958907371255 Y0.14717780399153213 E46.72949
G1 X44.073143715873044 Y0.15109677836968877 E46.75168
G1 Z0.496 F3600.000
M104 S270 ; set temperature
M140 S30 ; wait for bed temperature to be reached
G1 Z0.896 F3600.000
G1 X54.86161154213391 Y0.1276852558466117 F3600.000
G1 X43.57761342707974 Y0.16100639907308364 E47.31329 F3000.000
G1 X43.014 Y0.0 E48.00154
G1 X43.57761342707974 Y-0.16100639907308364 E48.00154
G1 X57.41261526877172 Y-0.12198286316648395 E48.68978
G1 X56.986 Y0.0 E49.37803
G1 X57.41261526877172 Y0.12198286316648395 E49.37803
G1 X54.93600182029996 Y0.12751141003279717 E49.50097 F3000.000
G1 X54.97681420380778 Y0.13317656977763265 F3600.000
G1 X43.31951061588762 Y0.16932322621973023 E50.08175 F750.000
G1 X42.7 Y0.0 E50.80095
G1 X43.31951061588762 Y-0.16932322621973023 E50.80095
G1 X57.76313703392501 Y-0.12671702579927516 E51.52014
G1 X57.3 Y0.0 E52.23934
G1 X57.76313703392501 Y0.12671702579927516 E52.23934
G1 X55.051150987059295 Y0.13299566995015238 E52.37406 F750.000
G1 X54.672966711163575 Y0.12593398717034923 F3600.000
G1 X57.039385068564684 Y0.11958837289645861 F3600.000
G1 X57.19083360994137 Y0.11622412261607608 E52.38623 F1200.000
G1 X57.140614986189995 Y0.10843663030748255 E52.40847
G1 X56.59460999953971 Y0.12053277359966956 E52.45210
G1 X56.149886206474186 Y0.12149213503857073 E52.47435
G1 X57.0938676304207 Y0.10063591176015037 E52.54944
G1 X57.05060007572226 Y0.0928228849240777 E52.57168
G1 X55.70521491745633 Y0.12246681374381828 E52.67823
G1 X55.26059739995579 Y0.12345717760602119 E52.70048
G1 X57.01082024493245 Y0.08499847665759266 E52.83849
G1 X56.9746125392705 Y0.07718112154397548 E52.86073
G1 X54.817027226948376 Y0.12446134165881013 E53.03020
G1 X54.37252109291972 Y0.12548419005646538 E53.05244
G1 X56.9418216252343 Y0.06933678360298305 E53.25337
G1 X56.91253846034281 Y0.061483889725640284 E53.27562
G1 X53.92807278217904 Y0.1265238991707658 E53.50800
G1 X53.483683736257355 Y0.12758088706202467 E53.53025
G1 X56.88676846156758 Y0.053623395916650815 E53.79409
G1 X56.86451640522409 Y0.045756263787751134 E53.81634
G1 X53.03935544480155 Y0.12865558564782628 E54.11164
G1 X52.59508944759006 Y0.12974844127856192 E54.13389
G1 X56.8457864225661 Y0.03788345986160986 E54.46065
G1 X56.83058199596411 Y0.030005954866682234 E54.48290
G1 X52.15088733665037 Y0.13085991534171157 E54.84112
G1 X51.706750758484134 Y0.13199048489655 E54.86337
G1 X56.81890595567641 Y0.022124723024292105 E55.25305
G1 X56.81076047721945 Y0.01424074132924048 E55.27530
G1 X51.26268141640661 Y0.13314064334106676 E55.69644
G1 X50.818681073007 Y0.13431090111301153 E55.71868
G1 X56.806147079343454 Y0.00635498882526183 E56.17128
G1 X56.805 Y0.0 E56.19353
G1 X56.80506662261738 Y-0.001531554123332566 E56.19353
G1 X50.37475155273721 Y0.13550178642710473 E56.67759
G1 X49.93089474463682 Y0.13671384605059342 E56.69984
G1 X56.807519308626745 Y-0.00941790656247192 E57.21536
G1 X56.813487386359235 Y-0.017285488860818796 E57.23760
G1 X49.48810310569602 Y0.13794486746077725 E57.78458
G1 X49.044397488398204 Y0.13920094383414197 E57.80683
G1 X56.82299644510134 Y-0.025168524611221446 E58.38527
G1 X56.83603530331792 Y-0.03304843294933573 E58.40751
G1 X48.60077066261398 Y0.14047995313437567 E59.01741
G1 X48.15722480583781 Y0.14178252489595192 E59.03965
G1 X56.85260153238373 Y-0.04092423786574816 E59.68101
G1 X56.87269204987574 Y-0.04879496640300653 E59.70326
G1 X47.71376217612692 Y0.14310931174403285 E60.37608
G1 X47.27038511584182 Y0.14446099045504562 E60.39832
G1 X56.896303122434944 Y-0.05665964937266713 E61.10260
G1 X56.92343036922494 Y-0.06451732206536386 E61.12484
G1 X46.827096055595845 Y0.14583826307579453 E61.86058
G1 X46.383897518427666 Y0.147241858104882 E61.88282
G1 X56.95406876598018 Y-0.07236702495261015 E62.65002
G1 X56.98821264963484 Y-0.08020780437907299 E62.67226
G1 X45.94079212421135 Y0.14867253174048797 E63.47092
G1 X45.49778259431991 Y0.1501310691988592 E63.49316
G1 X57.02585572352247 Y-0.08803871324409067 E64.32328
G1 X57.06699106313561 Y-0.0958588116712425 E64.34552
G1 X45.054871756559244 Y0.1516182861081856 E65.20710
G1 X44.612062550391016 Y0.1531350299828941 E65.22934
G1 X57.11161112243288 Y-0.10366716766481945 E66.12238
G1 X57.15970774068041 Y-0.11146285775208782 E66.14462
G1 X44.169358032464096 Y0.15468218178377452 E67.06911
G1 X43.74439907005239 Y0.15573431682698044 E67.09039
G1 X57.188918944145115 Y-0.11892197457632997 E68.04353
G1 X56.76735143548622 Y-0.12016421743137226 E68.06481
G1 X43.66041901997735 Y0.14614355428081457 E68.98930
G1 X43.59743255055279 Y0.1359770848360199 E69.01154
G1 X56.32260758345622 Y-0.12111772649156642 E69.90457
G1 X55.877915753900496 Y-0.12208641301914817 E69.92682
G1 X43.53896495094939 Y0.1257822545470152 E70.78839
G1 X43.48503444864681 Y0.1155610722166056 E70.81063
G1 X55.43327719880902 Y-0.12307064043988453 E71.64075
G1 X54.98869321051374 Y-0.1240707838144058 E71.66299
G1 X43.43565794367573 Y0.10531557906159393 E72.46165
G1 X43.39085098266684 Y0.09504784642730375 E72.48389
G1 X54.54416512332002 Y-0.12508723030500343 E73.25109
G1 X54.09969431521771 Y-0.12612037966495396 E73.27333
G1 X43.35062773478603 Y0.084759973410523 E74.00906
G1 X43.31500096964099 Y0.07445408439723515 E74.03131
G1 X53.65528220967625 Y-0.12717064475163994 E74.73559
G1 X53.210930277528504 Y-0.12823845206482104 E74.75783
G1 X43.283982037238665 Y0.06413232652198303 E75.43065
G1 X43.25758085006604 Y0.053796867056159665 E75.45289
G1 X52.76664003894885 Y-0.12932424231149603 E76.09425
G1 X52.322413065530526 Y-0.13042847099889082 E76.11649
G1 X43.235805867359524 Y0.0434498907329289 E76.72639
G1 X43.218664081621036 Y0.03309359701684861 E76.74863
G1 X51.878250982468565 Y-0.13155160905721017 E77.32707
G1 X51.434155470854186 Y-0.13269414349389824 E77.34932
G1 X43.20616100743041 Y0.022730197326593853 E77.89630
G1 X43.198313045766035 Y0.012385059502812077 E77.91854
G1 X50.99111932483929 Y-0.13385396081758447 E78.43406
G1 X50.5471620766191 Y-0.1350367706384682 E78.45631
G1 X43.19508761421836 Y0.002014119281313816 E78.94036
G1 X43.195 Y0.0 E78.96261
G1 X43.196508493164124 Y-0.008357254206178714 E78.96261
G1 X50.10327679902783 Y-0.13624054015358447 E79.41521
G1 X49.65946542201195 Y-0.13746582787660885 E79.43746
G1 X43.20257522416922 Y-0.018726830125292124 E79.85860
G1 X43.21328585053444 Y-0.02909237996053139 E79.88084
G1 X49.21572994480525 Y-0.13871321221029717 E80.27052
G1 X48.7720724390506 Y-0.13998329233358986 E80.29277
G1 X43.22863692044893 Y-0.039451680385711556 E80.65099
G1 X43.248623492545974 Y-0.04980251611768463 E80.67323
G1 X48.328495052091164 Y-0.14127668913627456 E81.00000
G1 X47.88500001044168 Y-0.142594046204185 E81.02224
G1 X43.273239143840385 Y-0.06014268274423098 E81.31755
G1 X43.30247598001759 Y-0.07046998951713897 E81.33979
G1 X47.4415896234517 Y-0.1439360308581272 E81.60363
G1 X46.99826628717277 Y-0.14530333524995478 E81.62588
G1 X43.33632464803632 Y-0.08078226210170424 E81.85826
G1 X43.37477435099807 Y-0.09107734527413824 E81.88051
G1 X46.55503248844318 Y-0.1466966775194646 E82.08143
G1 X46.11189080920452 Y-0.1481168030160522 E82.10368
G1 X43.417812865228484 Y-0.10135310555868286 E82.27315
G1 X43.46542655950819 Y-0.11160743379657971 E82.29539
G1 X45.6688439310653 Y-0.14956448558936003 E82.43340
G1 X45.22688325542675 Y-0.15103720201856566 E82.45564
G1 X43.51747889067105 Y-0.12181543871476565 E82.56219
G1 X43.574186406633004 Y-0.1320207443690207 E82.58443
G1 X44.784034219797576 Y-0.1525423750714618 E82.65952
G1 X44.34128867094415 Y-0.15407760981587168 E82.68177
G1 X43.63542002777102 Y-0.14219846539202485 E82.72540
G1 X43.701160728291875 Y-0.15234661389039456 E82.74764
G1 X43.898649740054644 Y-0.15564380847657397 E82.75981
G1 Z1.296 F3600.000
G1 X57.03099526573247 Y-0.039725693782903276 F3600.000
G1 X56.986 Y0.0 E83.21550 F3000.000
G1 X57.41261526877172 Y0.12198286316648395 E83.21550 F3000.000
G1 X43.57761342707974 Y0.16100639907308364 E83.90375 F3000.000
G1 X43.014 Y0.0 E84.59200
G1 X43.57761342707974 Y-0.16100639907308364 E84.59200
G1 X57.41261526877172 Y-0.12198286316648395 E85.28024
G1 X57.03402314408479 Y-0.04103966122395916 E85.50910
G1 X57.34776020037748 Y-0.04081501711145656 F3600.000
G1 X57.3 Y0.0 E85.98396 F750.000
G1 X57.76313703392501 Y0.12671702579927516 E85.98396 F750.000
G1 X43.31951061588762 Y0.16932322621973023 E86.70316 F750.000
G1 X42.7 Y0.0 E87.42236
G1 X43.31951061588762 Y-0.16932322621973023 E87.42236
G1 X57.76313703392501 Y-0.12671702579927516 E88.14156
G1 X57.35086943543228 Y-0.04212166792202912 E88.38219
G1 X56.905393320844375 Y-0.0367358880544438 F3600.000
G1 X57.19083360994137 Y-0.11622412261607608 F3600.000
G1 X57.039385068564684 Y-0.11958837289645861 E88.39436 F1200.000
G1 X56.59460999953971 Y-0.12053277359966956 E88.41661
G1 X57.140614986189995 Y-0.10843663030748255 E88.46024
G1 X57.0938676304207 Y-0.10063591176015037 E88.48248
G1 X56.149886206474186 Y-0.12149213503857073 E88.55757
G1 X55.70521491745633 Y-0.12246681374381828 E88.57982
G1 X57.05060007572226 Y-0.0928228849240777 E88.68637
G1 X57.01082024493245 Y-0.08499847665759266 E88.70861
G1 X55.26059739995579 Y-0.12345717760602119 E88.84662
G1 X54.817027226948376 Y-0.12446134165881013 E88.86887
G1 X56.9746125392705 Y-0.07718112154397548 E89.03833
G1 X56.9418216252343 Y-0.06933678360298305 E89.06058
G1 X54.37252109291972 Y-0.12548419005646538 E89.26150
G1 X53.92807278217904 Y-0.1265238991707658 E89.28375
