; generated by Slic3r 1.2.9 on 2017-06-18 at 17:47:18

; external perimeters extrusion width = 0.40mm
; perimeters extrusion width = 0.40mm
; infill extrusion width = 0.40mm
; solid infill extrusion width = 0.40mm
; top infill extrusion width = 0.40mm
; support material extrusion width = 0.40mm

M107
M190 S77 ; set bed temperature
M104 S280 ; set temperature
G28 ; home all axes
G1 Z5 F5000 ; lift nozzle

M109 S280 ; wait for temperature to be reached
G21 ; set units to millimeters
G90 ; use absolute coordinates
M82 ; use absolute distances for extrusion
G92 E0
G1 Z0.496 F3600.000
G1 E-2.00000 F2400.00000
G92 E0
G1 X18.138 Y-2.188 F3600.000
G1 E2.00000 F2400.00000
G1 X18.138 Y-6.862 E2.35409 F1500.000
G1 X31.862 Y-6.862 E3.39364
G1 X31.862 Y6.862 E4.43319
G1 X18.138 Y6.862 E5.47275 F1500.000
G1 X18.138 Y-2.113 E6.15254
G1 X17.748 Y-2.113 F3600.000
G1 X17.748 Y-7.252 E6.54181 F1500.000
G1 X32.252 Y-7.252 E7.64037
G1 X32.252 Y7.252 E8.73894
G1 X17.748 Y7.252 E9.83751 F1500.000
G1 X17.748 Y-2.038 E10.54112
G1 X18.181 Y-2.363 F3600.000
G1 X18.571 Y6.634 F3600.000
G1 X18.366 Y6.429 E10.56330 F1500.000
G1 X18.366 Y5.873 E10.60578
G1 X19.127 Y6.634 E10.68804
G1 X19.683 Y6.634 E10.73052
G1 X18.366 Y5.317 E10.87285
G1 X18.366 Y4.761 E10.91533
G1 X20.239 Y6.634 E11.11774
G1 X20.795 Y6.634 E11.16022
G1 X18.366 Y4.205 E11.42270
G1 X18.366 Y3.649 E11.46518
G1 X21.351 Y6.634 E11.78774
G1 X21.906 Y6.634 E11.83022
G1 X18.366 Y3.094 E12.21286
G1 X18.366 Y2.538 E12.25534
G1 X22.462 Y6.634 E12.69805
G1 X23.018 Y6.634 E12.74052
G1 X18.366 Y1.982 E13.24331
G1 X18.366 Y1.426 E13.28579
G1 X23.574 Y6.634 E13.84865
G1 X24.130 Y6.634 E13.89113
G1 X18.366 Y0.870 E14.51407
G1 X18.366 Y0.314 E14.55655
G1 X24.686 Y6.634 E15.23956
G1 X25.242 Y6.634 E15.28204
G1 X18.366 Y-0.242 E16.02512
G1 X18.366 Y-0.797 E16.06760
G1 X25.797 Y6.634 E16.87077
G1 X26.353 Y6.634 E16.91325
G1 X18.366 Y-1.353 E17.77648
G1 X18.366 Y-1.909 E17.81896
G1 X26.909 Y6.634 E18.74228
G1 X27.465 Y6.634 E18.78476
G1 X18.366 Y-2.465 E19.76815
G1 X18.366 Y-3.021 E19.81063
G1 X28.021 Y6.634 E20.85409
G1 X28.577 Y6.634 E20.89657
G1 X18.366 Y-3.577 E22.00011
G1 X18.366 Y-4.133 E22.04259
G1 X29.133 Y6.634 E23.20620
G1 X29.688 Y6.634 E23.24868
G1 X18.366 Y-4.688 E24.47237
G1 X18.366 Y-5.244 E24.51485
G1 X30.244 Y6.634 E25.79862
G1 X30.800 Y6.634 E25.84110
G1 X18.366 Y-5.800 E27.18494
G1 X18.366 Y-6.356 E27.22742
G1 X31.356 Y6.634 E28.63134
G1 X31.634 Y6.356 E28.66137
G1 X18.644 Y-6.634 E30.06529
G1 X19.200 Y-6.634 E30.10777
G1 X31.634 Y5.800 E31.45162
G1 X31.634 Y5.244 E31.49410
G1 X19.756 Y-6.634 E32.77787
G1 X20.312 Y-6.634 E32.82035
G1 X31.634 Y4.688 E34.04404
G1 X31.634 Y4.133 E34.08652
G1 X20.867 Y-6.634 E35.25014
G1 X21.423 Y-6.634 E35.29262
G1 X31.634 Y3.577 E36.39616
G1 X31.634 Y3.021 E36.43864
G1 X21.979 Y-6.634 E37.48211
G1 X22.535 Y-6.634 E37.52459
G1 X31.634 Y2.465 E38.50798
G1 X31.634 Y1.909 E38.55046
G1 X23.091 Y-6.634 E39.47378
G1 X23.647 Y-6.634 E39.51626
G1 X31.634 Y1.353 E40.37950
G1 X31.634 Y0.797 E40.42198
G1 X24.203 Y-6.634 E41.22514
G1 X24.758 Y-6.634 E41.26762
G1 X31.634 Y0.242 E42.01071
G1 X31.634 Y-0.314 E42.05319
G1 X25.314 Y-6.634 E42.73621
G1 X25.870 Y-6.634 E42.77869
G1 X31.634 Y-0.870 E43.40163
G1 X31.634 Y-1.426 E43.44411
G1 X26.426 Y-6.634 E44.00697
G1 X26.982 Y-6.634 E44.04945
G1 X31.634 Y-1.982 E44.55224
G1 X31.634 Y-2.538 E44.59472
G1 X27.538 Y-6.634 E45.03743
G1 X28.094 Y-6.634 E45.07991
G1 X31.634 Y-3.094 E45.46255
G1 X31.634 Y-3.649 E45.50503
G1 X28.649 Y-6.634 E45.82759
G1 X29.205 Y-6.634 E45.87007
G1 X31.634 Y-4.205 E46.13256
G1 X31.634 Y-4.761 E46.17504
G1 X29.761 Y-6.634 E46.37745
G1 X30.317 Y-6.634 E46.41993
G1 X31.634 Y-5.317 E46.56227
G1 X31.634 Y-5.873 E46.60475
G1 X30.873 Y-6.634 E46.68701
G1 X31.429 Y-6.634 E46.72949
G1 X31.634 Y-6.429 E46.75168
G1 Z0.496 F3600.000
M104 S270 ; set temperature
M140 S30 ; wait for bed temperature to be reached
G1 Z0.896 F3600.000
G1 X31.986 Y-3.485 F3600.000
G1 X31.986 Y6.986 E47.26748 F3000.000
G1 X18.014 Y6.986 E47.95572 F3000.000
G1 X18.014 Y-6.986 E48.64397
G1 X31.986 Y-6.986 E49.33222
G1 X31.986 Y-3.560 E49.50097
G1 X32.300 Y-3.560 F3600.000
G1 X32.300 Y7.300 E50.03594 F750.000
G1 X17.700 Y7.300 E50.75514 F750.000
G1 X17.700 Y-7.300 E51.47433
G1 X32.300 Y-7.300 E52.19353
G1 X32.300 Y-3.635 E52.37406
G1 X31.867 Y-3.310 F3600.000
G1 X31.632 Y6.805 F3600.000
G1 X31.805 Y6.632 E52.38623 F1200.000
G1 X31.805 Y6.184 E52.40847
G1 X31.184 Y6.805 E52.45210
G1 X30.736 Y6.805 E52.47435
G1 X31.805 Y5.736 E52.54944
G1 X31.805 Y5.288 E52.57168
G1 X30.288 Y6.805 E52.67823
G1 X29.840 Y6.805 E52.70048
G1 X31.805 Y4.840 E52.83849
G1 X31.805 Y4.393 E52.86073
G1 X29.393 Y6.805 E53.03020
G1 X28.945 Y6.805 E53.05244
G1 X31.805 Y3.945 E53.25337
G1 X31.805 Y3.497 E53.27562
G1 X28.497 Y6.805 E53.50800
G1 X28.049 Y6.805 E53.53025
G1 X31.805 Y3.049 E53.79409
G1 X31.805 Y2.601 E53.81634
G1 X27.601 Y6.805 E54.11164
G1 X27.153 Y6.805 E54.13389
G1 X31.805 Y2.153 E54.46065
G1 X31.805 Y1.705 E54.48290
G1 X26.705 Y6.805 E54.84112
G1 X26.257 Y6.805 E54.86337
G1 X31.805 Y1.257 E55.25305
G1 X31.805 Y0.809 E55.27530
G1 X25.809 Y6.805 E55.69644
G1 X25.361 Y6.805 E55.71868
G1 X31.805 Y0.361 E56.17128
G1 X31.805 Y-0.087 E56.19353
G1 X24.913 Y6.805 E56.67759
G1 X24.465 Y6.805 E56.69984
G1 X31.805 Y-0.535 E57.21536
G1 X31.805 Y-0.982 E57.23760
G1 X24.018 Y6.805 E57.78458
G1 X23.570 Y6.805 E57.80683
G1 X31.805 Y-1.430 E58.38527
G1 X31.805 Y-1.878 E58.40751
G1 X23.122 Y6.805 E59.01741
G1 X22.674 Y6.805 E59.03965
G1 X31.805 Y-2.326 E59.68101
G1 X31.805 Y-2.774 E59.70326
G1 X22.226 Y6.805 E60.37608
G1 X21.778 Y6.805 E60.39832
G1 X31.805 Y-3.222 E61.10260
G1 X31.805 Y-3.670 E61.12484
G1 X21.330 Y6.805 E61.86058
G1 X20.882 Y6.805 E61.88282
G1 X31.805 Y-4.118 E62.65002
G1 X31.805 Y-4.566 E62.67226
G1 X20.434 Y6.805 E63.47092
G1 X19.986 Y6.805 E63.49316
G1 X31.805 Y-5.014 E64.32328
G1 X31.805 Y-5.462 E64.34552
G1 X19.538 Y6.805 E65.20710
G1 X19.090 Y6.805 E65.22934
G1 X31.805 Y-5.910 E66.12238
G1 X31.805 Y-6.358 E66.14462
G1 X18.642 Y6.805 E67.06911
G1 X18.215 Y6.785 E67.09039
G1 X31.785 Y-6.785 E68.04353
G1 X31.358 Y-6.805 E68.06481
G1 X18.195 Y6.358 E68.98930
G1 X18.195 Y5.910 E69.01154
G1 X30.910 Y-6.805 E69.90457
G1 X30.462 Y-6.805 E69.92682
G1 X18.195 Y5.462 E70.78839
G1 X18.195 Y5.014 E70.81063
G1 X30.014 Y-6.805 E71.64075
G1 X29.566 Y-6.805 E71.66299
G1 X18.195 Y4.566 E72.46165
G1 X18.195 Y4.118 E72.48389
G1 X29.118 Y-6.805 E73.25109
G1 X28.670 Y-6.805 E73.27333
G1 X18.195 Y3.670 E74.00906
G1 X18.195 Y3.222 E74.03131
G1 X28.222 Y-6.805 E74.73559
G1 X27.774 Y-6.805 E74.75783
G1 X18.195 Y2.774 E75.43065
G1 X18.195 Y2.326 E75.45289
G1 X27.326 Y-6.805 E76.09425
G1 X26.878 Y-6.805 E76.11649
G1 X18.195 Y1.878 E76.72639
G1 X18.195 Y1.430 E76.74863
G1 X26.430 Y-6.805 E77.32707
G1 X25.982 Y-6.805 E77.34932
G1 X18.195 Y0.982 E77.89630
G1 X18.195 Y0.535 E77.91854
G1 X25.535 Y-6.805 E78.43406
G1 X25.087 Y-6.805 E78.45631
G1 X18.195 Y0.087 E78.94036
G1 X18.195 Y-0.361 E78.96261
G1 X24.639 Y-6.805 E79.41521
G1 X24.191 Y-6.805 E79.43746
G1 X18.195 Y-0.809 E79.85860
G1 X18.195 Y-1.257 E79.88084
G1 X23.743 Y-6.805 E80.27052
G1 X23.295 Y-6.805 E80.29277
G1 X18.195 Y-1.705 E80.65099
G1 X18.195 Y-2.153 E80.67323
G1 X22.847 Y-6.805 E81.00000
G1 X22.399 Y-6.805 E81.02224
G1 X18.195 Y-2.601 E81.31755
G1 X18.195 Y-3.049 E81.33979
G1 X21.951 Y-6.805 E81.60363
G1 X21.503 Y-6.805 E81.62588
G1 X18.195 Y-3.497 E81.85826
G1 X18.195 Y-3.945 E81.88051
G1 X21.055 Y-6.805 E82.08143
G1 X20.607 Y-6.805 E82.10368
G1 X18.195 Y-4.393 E82.27315
G1 X18.195 Y-4.841 E82.29539
G1 X20.159 Y-6.805 E82.43340
G1 X19.712 Y-6.805 E82.45564
G1 X18.195 Y-5.288 E82.56219
G1 X18.195 Y-5.736 E82.58443
G1 X19.264 Y-6.805 E82.65952
G1 X18.816 Y-6.805 E82.68177
G1 X18.195 Y-6.184 E82.72540
G1 X18.195 Y-6.632 E82.74764
G1 X18.368 Y-6.805 E82.75981
G1 Z1.296 F3600.000
G1 X18.014 Y0.118 F3600.000
G1 X18.014 Y-6.986 E83.10974 F3000.000
G1 X31.986 Y-6.986 E83.79799
G1 X31.986 Y6.986 E84.48623
G1 X18.014 Y6.986 E85.17448 F3000.000
G1 X18.014 Y0.193 E85.50910
G1 X17.700 Y0.193 F3600.000
G1 X17.700 Y-7.300 E85.87820 F750.000
G1 X32.300 Y-7.300 E86.59740
G1 X32.300 Y7.300 E87.31659
G1 X17.700 Y7.300 E88.03579 F750.000
G1 X17.700 Y0.268 E88.38219
G1 X18.133 Y-0.057 F3600.000
G1 X18.195 Y6.632 F3600.000
G1 X18.368 Y6.805 E88.39436 F1200.000
G1 X18.816 Y6.805 E88.41661
G1 X18.195 Y6.184 E88.46024
G1 X18.195 Y5.736 E88.48248
G1 X19.264 Y6.805 E88.55757
G1 X19.712 Y6.805 E88.57981
G1 X18.195 Y5.288 E88.68636
G1 X18.195 Y4.841 E88.70861
G1 X20.159 Y6.805 E88.84661
G1 X20.607 Y6.805 E88.86886
G1 X18.195 Y4.393 E89.03832
G1 X18.195 Y3.945 E89.06057
G1 X21.055 Y6.805 E89.26149
G1 X21.503 Y6.805 E89.28374
G1 X18.195 Y3.497 E89.51612
G1 X18.195 Y3.049 E89.53837
G1 X21.951 Y6.805 E89.80221
G1 X22.399 Y6.805 E89.82446
G1 X18.195 Y2.601 E90.11976
G1 X18.195 Y2.153 E90.14200
G1 X22.847 Y6.805 E90.46877
G1 X23.295 Y6.805 E90.49101
G1 X18.195 Y1.705 E90.84923
G1 X18.195 Y1.257 E90.87148
G1 X23.743 Y6.805 E91.26116
G1 X24.191 Y6.805 E91.28341
G1 X18.195 Y0.809 E91.70455
G1 X18.195 Y0.361 E91.72679
G1 X24.639 Y6.805 E92.17939
G1 X25.087 Y6.805 E92.20164
G1 X18.195 Y-0.087 E92.68570
G1 X18.195 Y-0.535 E92.70794
G1 X25.535 Y6.805 E93.22346
G1 X25.982 Y6.805 E93.24571
G1 X18.195 Y-0.982 E93.79268
G1 X18.195 Y-1.430 E93.81493
G1 X26.430 Y6.805 E94.39337
G1 X26.878 Y6.805 E94.41561
G1 X18.195 Y-1.878 E95.02551
G1 X18.195 Y-2.326 E95.04775
G1 X27.326 Y6.805 E95.68911
G1 X27.774 Y6.805 E95.71136
G1 X18.195 Y-2.774 E96.38417
G1 X18.195 Y-3.222 E96.40642
G1 X28.222 Y6.805 E97.11069
G1 X28.670 Y6.805 E97.13294
G1 X18.195 Y-3.670 E97.86867
G1 X18.195 Y-4.118 E97.89092
G1 X29.118 Y6.805 E98.65811
G1 X29.566 Y6.805 E98.68036
G1 X18.195 Y-4.566 E99.47901
G1 X18.195 Y-5.014 E99.50125
G1 X30.014 Y6.805 E100.33137
G1 X30.462 Y6.805 E100.35361
G1 X18.195 Y-5.462 E101.21518
G1 X18.195 Y-5.910 E101.23743
G1 X30.910 Y6.805 E102.13046
G1 X31.358 Y6.805 E102.15271
G1 X18.195 Y-6.358 E103.07720
G1 X18.215 Y-6.785 E103.09847
G1 X31.785 Y6.785 E104.05161
G1 X31.805 Y6.358 E104.07289
G1 X18.642 Y-6.805 E104.99738
G1 X19.090 Y-6.805 E105.01963
G1 X31.805 Y5.910 E105.91266
G1 X31.805 Y5.462 E105.93490
G1 X19.538 Y-6.805 E106.79648
G1 X19.986 Y-6.805 E106.81872
G1 X31.805 Y5.014 E107.64884
G1 X31.805 Y4.566 E107.67108
G1 X20.434 Y-6.805 E108.46974
G1 X20.882 Y-6.805 E108.49198
G1 X31.805 Y4.118 E109.25918
G1 X31.805 Y3.670 E109.28142
G1 X21.330 Y-6.805 E110.01716
G1 X21.778 Y-6.805 E110.03940
G1 X31.805 Y3.222 E110.74368
G1 X31.805 Y2.774 E110.76593
G1 X22.226 Y-6.805 E111.43874
G1 X22.674 Y-6.805 E111.46099
G1 X31.805 Y2.326 E112.10235
G1 X31.805 Y1.878 E112.12459
G1 X23.122 Y-6.805 E112.73449
G1 X23.570 Y-6.805 E112.75674
G1 X31.805 Y1.430 E113.33518
G1 X31.805 Y0.982 E113.35742
G1 X24.018 Y-6.805 E113.90440
G1 X24.465 Y-6.805 E113.92665
G1 X31.805 Y0.535 E114.44217
G1 X31.805 Y0.087 E114.46441
G1 X24.913 Y-6.805 E114.94847
G1 X25.361 Y-6.805 E114.97072
G1 X31.805 Y-0.361 E115.42332
G1 X31.805 Y-0.809 E115.44556
G1 X25.809 Y-6.805 E115.86671
G1 X26.257 Y-6.805 E115.88895
G1 X31.805 Y-1.257 E116.27864
G1 X31.805 Y-1.705 E116.30088
G1 X26.705 Y-6.805 E116.65910
G1 X27.153 Y-6.805 E116.68135
G1 X31.805 Y-2.153 E117.00811
G1 X31.805 Y-2.601 E117.03036
G1 X27.601 Y-6.805 E117.32566
G1 X28.049 Y-6.805 E117.34791
G1 X31.805 Y-3.049 E117.61175
G1 X31.805 Y-3.497 E117.63400
G1 X28.497 Y-6.805 E117.86639
G1 X28.945 Y-6.805 E117.88863
G1 X31.805 Y-3.945 E118.08956
G1 X31.805 Y-4.393 E118.11180
G1 X29.393 Y-6.805 E118.28127
G1 X29.840 Y-6.805 E118.30352
G1 X31.805 Y-4.840 E118.44152
G1 X31.805 Y-5.288 E118.46377
G1 X30.288 Y-6.805 E118.57032
G1 X30.736 Y-6.805 E118.59256
G1 X31.805 Y-5.736 E118.66765
G1 X31.805 Y-6.184 E118.68990
G1 X31.184 Y-6.805 E118.73353
G1 X31.632 Y-6.805 E118.75577
G1 X31.805 Y-6.632 E118.76794
G1 Z1.696 F3600.000
G1 X21.801 Y-6.986 F3600.000
G1 X31.986 Y-6.986 E119.26967 F3000.000
G1 X31.986 Y6.986 E119.95792
G1 X18.014 Y6.986 E120.64616 F3000.000
G1 X18.014 Y-6.986 E121.33441
G1 X21.726 Y-6.986 E121.51723
G1 X21.726 Y-7.300 F3600.000
G1 X32.300 Y-7.300 E122.03813 F750.000
G1 X32.300 Y7.300 E122.75733
G1 X17.700 Y7.300 E123.47652 F750.000
G1 X17.700 Y-7.300 E124.19572
G1 X21.651 Y-7.300 E124.39033
G1 X21.976 Y-6.867 F3600.000
G1 X21.351 Y-6.616 F3600.000
G1 X21.883 Y-4.631 E124.49159 F4800.000
G1 X20.045 Y-2.793 E124.61965
G1 X18.281 Y-3.265 E124.70961
G1 X18.281 Y-6.508 E124.86936
G1 X18.492 Y-6.719 E124.88403
G1 X21.454 Y-6.719 E125.02994
G1 X21.351 Y-6.616 E125.03707
G1 X28.137 Y-4.961 F3600.000
G1 X26.152 Y-5.493 E125.13833 F4800.000
G1 X24.313 Y-3.655 E125.26639
G1 X24.845 Y-1.669 E125.36765
G1 X23.007 Y0.169 E125.49572
G1 X21.021 Y-0.363 E125.59698
G1 X19.183 Y1.476 E125.72505
G1 X19.715 Y3.461 E125.82631
G1 X18.281 Y4.895 E125.92620
G1 X18.281 Y1.071 E126.11457
G1 X18.961 Y1.254 E126.14924
G1 X20.799 Y-0.585 E126.27730
G1 X20.267 Y-2.570 E126.37856
G1 X22.106 Y-4.409 E126.50663
G1 X24.091 Y-3.877 E126.60789
G1 X25.930 Y-5.715 E126.73596
G1 X25.661 Y-6.719 E126.78715
G1 X29.895 Y-6.719 E126.99575
G1 X28.137 Y-4.961 E127.11822
G1 X31.719 Y-6.169 F3600.000
G1 X31.719 Y-2.619 E127.29313 F4800.000
G1 X31.099 Y-1.999 E127.33630
G1 X29.114 Y-2.531 E127.43756
G1 X27.275 Y-0.693 E127.56563
G1 X27.807 Y1.293 E127.66689
G1 X25.969 Y3.131 E127.79495
G1 X23.983 Y2.599 E127.89621
G1 X22.145 Y4.438 E128.02428
G1 X22.677 Y6.423 E128.12554
G1 X22.381 Y6.719 E128.14614
G1 X18.420 Y6.719 E128.34129
G1 X18.281 Y6.202 E128.36766
G1 X18.281 Y5.340 E128.41013
G1 X19.937 Y3.683 E128.52551
G1 X21.923 Y4.215 E128.62677
G1 X23.761 Y2.377 E128.75483
G1 X23.229 Y0.392 E128.85609
G1 X25.068 Y-1.447 E128.98416
G1 X27.053 Y-0.915 E129.08542
G1 X28.891 Y-2.753 E129.21348
G1 X28.359 Y-4.739 E129.31474
G1 X30.198 Y-6.577 E129.44281
G1 X31.719 Y-6.169 E129.52038
G1 X31.719 Y-0.293 F3600.000
G1 X31.321 Y-1.777 E129.59604 F4800.000
G1 X31.719 Y-2.174 E129.62373
G1 X31.719 Y-0.293 E129.71639
G1 X31.719 Y0.788 F3600.000
G1 X30.237 Y2.269 E129.81961 F4800.000
G1 X30.769 Y4.255 E129.92087
G1 X28.931 Y6.093 E130.04893
G1 X26.945 Y5.561 E130.15019
G1 X25.788 Y6.719 E130.23084
G1 X25.343 Y6.719 E130.25273
G1 X26.723 Y5.339 E130.34885
G1 X26.191 Y3.353 E130.45011
G1 X28.029 Y1.515 E130.57817
G1 X30.015 Y2.047 E130.67943
G1 X31.719 Y0.343 E130.79813
G1 X31.719 Y0.788 E130.82001
G1 X31.719 Y4.672 F3600.000
G1 X31.719 Y6.719 E130.92084 F4800.000
G1 X29.261 Y6.719 E131.04191
G1 X29.153 Y6.315 E131.06248
G1 X30.991 Y4.477 E131.19055
G1 X31.719 Y4.672 E131.22765
G1 X23.174 Y6.719 F3600.000
G1 X22.826 Y6.719 E131.24478 F4800.000
G1 X22.899 Y6.645 E131.24990
G1 X23.174 Y6.719 E131.26389
G1 Z2.096 F3600.000
G1 X31.986 Y2.083 F3600.000
G1 X31.986 Y6.986 E131.50541 F3000.000
G1 X18.014 Y6.986 E132.19365 F3000.000
G1 X18.014 Y-6.986 E132.88190
G1 X31.986 Y-6.986 E133.57014
G1 X31.986 Y2.008 E134.01318
G1 X32.300 Y2.008 F3600.000
G1 X32.300 Y7.300 E134.27387 F750.000
G1 X17.700 Y7.300 E134.99306 F750.000
G1 X17.700 Y-7.300 E135.71226
G1 X32.300 Y-7.300 E136.43146
G1 X32.300 Y1.933 E136.88627
G1 X31.867 Y2.258 F3600.000
G1 X31.719 Y-0.900 F3600.000
G1 X31.403 Y-2.080 E136.94645 F4800.000
G1 X31.719 Y-2.396 E136.96848
G1 X31.719 Y-0.900 E137.04218
G1 X31.719 Y-6.169 F3600.000
G1 X30.198 Y-6.577 E137.11976 F4800.000
G1 X30.160 Y-6.719 E137.12699
G1 X31.719 Y-6.719 E137.20379
G1 X31.719 Y-6.169 E137.23085
G1 X29.894 Y-6.496 F3600.000
G1 X28.441 Y-5.042 E137.33211 F4800.000
G1 X29.114 Y-2.531 E137.46018
G1 X31.099 Y-1.999 E137.56144
G1 X31.719 Y0.314 E137.67938
G1 X31.719 Y0.566 E137.69178
G1 X30.318 Y1.966 E137.78934
G1 X30.991 Y4.477 E137.91740
G1 X31.719 Y4.672 E137.95450
G1 X31.719 Y6.719 E138.05533
G1 X29.424 Y6.719 E138.16838
G1 X29.234 Y6.012 E138.20443
G1 X30.688 Y4.558 E138.30569
G1 X30.015 Y2.047 E138.43376
G1 X28.029 Y1.515 E138.53502
G1 X27.357 Y-0.996 E138.66309
G1 X28.810 Y-2.450 E138.76435
G1 X28.137 Y-4.961 E138.89241
G1 X26.152 Y-5.493 E138.99367
G1 X25.823 Y-6.719 E139.05619
G1 X29.834 Y-6.719 E139.25379
G1 X29.894 Y-6.496 E139.26517
