; generated by Slic3r 1.2.9 on 2017-06-20 at 10:06:41

; external perimeters extrusion width = 0.40mm
; perimeters extrusion width = 0.40mm
; infill extrusion width = 0.40mm
; solid infill extrusion width = 0.40mm
; top infill extrusion width = 0.40mm
; support material extrusion width = 0.40mm

M107
M190 S77 ; set bed temperature
M104 S280 ; set temperature

G1 Z5 F5000 ; lift nozzle

M109 S280 ; wait for temperature to be reached
G21 ; set units to millimeters
G90 ; use absolute coordinates
M82 ; use absolute distances for extrusion
G92 E0
G1 Z0.496 F3600.000
G1 E-2.00000 F2400.00000
G92 E0
G1 X25.638 Y-1.391 F3600.000
G1 E2.00000 F2400.00000
G1 X25.638 Y-24.362 E3.73988 F1500.000
G1 X74.362 Y-24.362 E7.43042
G1 X74.362 Y24.362 E11.12095
G1 X25.638 Y24.362 E14.81149 F1500.000
G1 X25.638 Y-1.316 E16.75645
G1 X25.248 Y-1.316 F3600.000
G1 X25.248 Y-24.752 E18.53153 F1500.000
G1 X74.752 Y-24.752 E22.28107
G1 X74.752 Y24.752 E26.03062
G1 X25.248 Y24.752 E29.78016 F1500.000
G1 X25.248 Y-1.241 E31.74896
G1 X25.681 Y-1.566 F3600.000
G1 X25.969 Y-1.310 F3600.000
G1 X26.177 Y-1.102 E31.77128 F1500.000
G1 X25.969 Y-0.893 E31.79360
G1 X25.969 Y-0.208 F3600.000
G1 X26.177 Y0.000 E31.81593 F1500.000
G1 X26.453 Y-0.275 E31.84543
G1 X26.177 Y-0.551 E31.87494
G1 X26.453 Y-0.826 E31.90444
G1 X27.003 Y-0.275 E31.96346
G1 X26.728 Y0.000 E31.99296
G1 X27.003 Y0.275 E32.02247
G1 X27.830 Y-0.551 E32.11099
G1 X27.554 Y-0.826 E32.14049
G1 X27.279 Y-0.551 E32.17000
G1 X26.728 Y-1.102 E32.22901
G1 X27.003 Y-1.377 E32.25852
G1 X27.279 Y-1.102 E32.28802
G1 X27.554 Y-1.377 E32.31753
G1 X27.279 Y-1.653 E32.34703
G1 X27.554 Y-1.928 E32.37654
G1 X28.105 Y-1.377 E32.43555
G1 X27.830 Y-1.102 E32.46506
G1 X28.105 Y-0.826 E32.49456
G1 X28.381 Y-1.102 E32.52407
G1 X28.932 Y-0.551 E32.58308
G1 X28.656 Y-0.275 E32.61259
G1 X28.381 Y-0.551 E32.64209
G1 X27.830 Y0.000 E32.70111
G1 X28.105 Y0.275 E32.73061
G1 X28.381 Y0.000 E32.76012
G1 X28.656 Y0.275 E32.78962
G1 X28.381 Y0.551 E32.81913
G1 X28.656 Y0.826 E32.84864
G1 X29.207 Y0.275 E32.90765
G1 X28.932 Y0.000 E32.93715
G1 X29.207 Y-0.275 E32.96666
G1 X29.483 Y0.000 E32.99617
G1 X29.758 Y-0.275 E33.02567
G1 X29.483 Y-0.551 E33.05518
G1 X29.758 Y-0.826 E33.08468
G1 X30.033 Y-0.551 E33.11419
G1 X30.584 Y-1.102 E33.17320
G1 X30.309 Y-1.377 E33.20271
G1 X30.033 Y-1.102 E33.23221
G1 X29.758 Y-1.377 E33.26172
G1 X30.033 Y-1.653 E33.29122
G1 X29.758 Y-1.928 E33.32073
G1 X29.207 Y-1.377 E33.37974
G1 X29.483 Y-1.102 E33.40925
G1 X29.207 Y-0.826 E33.43875
G1 X28.656 Y-1.377 E33.49777
G1 X28.932 Y-1.653 E33.52727
G1 X28.656 Y-1.928 E33.55678
G1 X28.381 Y-1.653 E33.58628
G1 X27.830 Y-2.204 E33.64530
G1 X28.105 Y-2.479 E33.67480
G1 X28.381 Y-2.204 E33.70431
G1 X28.656 Y-2.479 E33.73381
G1 X28.381 Y-2.755 E33.76332
G1 X28.656 Y-3.030 E33.79283
G1 X29.207 Y-2.479 E33.85184
G1 X28.932 Y-2.204 E33.88134
G1 X29.207 Y-1.928 E33.91085
G1 X30.033 Y-2.755 E33.99937
G1 X29.758 Y-3.030 E34.02887
G1 X29.483 Y-2.755 E34.05838
G1 X28.932 Y-3.306 E34.11739
G1 X29.207 Y-3.581 E34.14690
G1 X29.483 Y-3.306 E34.17640
G1 X29.758 Y-3.581 E34.20591
G1 X29.483 Y-3.856 E34.23542
G1 X29.758 Y-4.132 E34.26492
G1 X30.309 Y-3.581 E34.32393
G1 X30.033 Y-3.306 E34.35344
G1 X30.309 Y-3.030 E34.38295
G1 X30.584 Y-3.306 E34.41245
G1 X31.135 Y-2.755 E34.47146
G1 X30.860 Y-2.479 E34.50097
G1 X30.584 Y-2.755 E34.53048
G1 X30.033 Y-2.204 E34.58949
G1 X30.309 Y-1.928 E34.61899
G1 X30.584 Y-2.204 E34.64850
G1 X30.860 Y-1.928 E34.67801
G1 X30.584 Y-1.653 E34.70751
G1 X30.860 Y-1.377 E34.73702
G1 X31.411 Y-1.928 E34.79603
G1 X31.135 Y-2.204 E34.82554
G1 X31.411 Y-2.479 E34.85504
G1 X31.686 Y-2.204 E34.88455
G1 X32.237 Y-2.755 E34.94356
G1 X31.962 Y-3.030 E34.97306
G1 X31.686 Y-2.755 E35.00257
G1 X31.135 Y-3.306 E35.06158
G1 X31.411 Y-3.581 E35.09109
G1 X31.686 Y-3.306 E35.12059
G1 X31.962 Y-3.581 E35.15010
G1 X31.686 Y-3.856 E35.17961
G1 X31.962 Y-4.132 E35.20911
G1 X32.513 Y-3.581 E35.26812
G1 X32.237 Y-3.306 E35.29763
G1 X32.513 Y-3.030 E35.32714
G1 X33.064 Y-3.581 E35.38615
G1 X32.788 Y-3.856 E35.41565
G1 X33.064 Y-4.132 E35.44516
G1 X33.339 Y-3.856 E35.47467
G1 X33.890 Y-4.407 E35.53368
G1 X33.614 Y-4.683 E35.56318
G1 X33.339 Y-4.407 E35.59269
G1 X33.064 Y-4.683 E35.62220
G1 X33.339 Y-4.958 E35.65170
G1 X33.064 Y-5.234 E35.68121
G1 X32.513 Y-4.683 E35.74022
G1 X32.788 Y-4.407 E35.76973
G1 X32.513 Y-4.132 E35.79923
G1 X31.686 Y-4.958 E35.88775
G1 X31.962 Y-5.234 E35.91726
G1 X32.237 Y-4.958 E35.94676
G1 X32.788 Y-5.509 E36.00577
G1 X32.513 Y-5.785 E36.03528
G1 X32.237 Y-5.509 E36.06479
G1 X31.962 Y-5.785 E36.09429
G1 X32.237 Y-6.060 E36.12380
G1 X31.962 Y-6.336 E36.15330
G1 X31.411 Y-5.785 E36.21232
G1 X31.686 Y-5.509 E36.24182
G1 X31.411 Y-5.234 E36.27133
G1 X31.135 Y-5.509 E36.30083
G1 X30.584 Y-4.958 E36.35984
G1 X30.860 Y-4.683 E36.38935
G1 X31.135 Y-4.958 E36.41886
G1 X31.686 Y-4.407 E36.47787
G1 X31.411 Y-4.132 E36.50737
G1 X31.135 Y-4.407 E36.53688
G1 X30.860 Y-4.132 E36.56639
G1 X31.135 Y-3.856 E36.59589
G1 X30.860 Y-3.581 E36.62540
G1 X30.584 Y-3.856 E36.65490
G1 X30.309 Y-4.132 E36.68441
G1 X30.584 Y-4.407 E36.71392
G1 X30.309 Y-4.683 E36.74342
G1 X30.033 Y-4.407 E36.77293
G1 X29.758 Y-4.683 E36.80243
G1 X30.033 Y-4.958 E36.83194
G1 X29.758 Y-5.234 E36.86145
G1 X29.483 Y-4.958 E36.89095
G1 X28.932 Y-5.509 E36.94996
G1 X29.207 Y-5.785 E36.97947
G1 X29.483 Y-5.509 E37.00898
G1 X29.758 Y-5.785 E37.03848
G1 X29.483 Y-6.060 E37.06799
G1 X29.758 Y-6.336 E37.09749
G1 X30.309 Y-5.785 E37.15651
G1 X30.033 Y-5.509 E37.18601
G1 X30.309 Y-5.234 E37.21552
G1 X30.860 Y-5.785 E37.27453
G1 X30.584 Y-6.060 E37.30404
G1 X30.860 Y-6.336 E37.33354
G1 X31.135 Y-6.060 E37.36305
G1 X31.686 Y-6.611 E37.42206
G1 X31.411 Y-6.886 E37.45157
G1 X31.135 Y-6.611 E37.48107
G1 X30.860 Y-6.886 E37.51058
G1 X31.135 Y-7.162 E37.54008
G1 X30.860 Y-7.437 E37.56959
G1 X30.309 Y-6.886 E37.62860
G1 X30.584 Y-6.611 E37.65811
G1 X30.309 Y-6.336 E37.68761
G1 X29.483 Y-7.162 E37.77613
G1 X29.758 Y-7.437 E37.80564
G1 X30.033 Y-7.162 E37.83514
G1 X30.584 Y-7.713 E37.89416
G1 X30.309 Y-7.988 E37.92366
G1 X30.033 Y-7.713 E37.95317
G1 X29.758 Y-7.988 E37.98267
G1 X30.033 Y-8.264 E38.01218
G1 X29.758 Y-8.539 E38.04169
G1 X29.207 Y-7.988 E38.10070
G1 X29.483 Y-7.713 E38.13020
G1 X29.207 Y-7.437 E38.15971
G1 X28.932 Y-7.713 E38.18922
G1 X28.381 Y-7.162 E38.24823
G1 X28.656 Y-6.886 E38.27773
G1 X28.932 Y-7.162 E38.30724
G1 X29.483 Y-6.611 E38.36625
G1 X29.207 Y-6.336 E38.39576
G1 X28.932 Y-6.611 E38.42526
G1 X28.656 Y-6.336 E38.45477
G1 X28.932 Y-6.060 E38.48427
G1 X28.656 Y-5.785 E38.51378
G1 X28.105 Y-6.336 E38.57279
G1 X28.381 Y-6.611 E38.60230
G1 X28.105 Y-6.886 E38.63180
G1 X27.554 Y-6.336 E38.69082
G1 X27.830 Y-6.060 E38.72032
G1 X27.554 Y-5.785 E38.74983
G1 X27.279 Y-6.060 E38.77933
G1 X26.728 Y-5.509 E38.83835
G1 X27.003 Y-5.234 E38.86785
G1 X27.279 Y-5.509 E38.89736
G1 X27.554 Y-5.234 E38.92686
G1 X27.279 Y-4.958 E38.95637
G1 X27.554 Y-4.683 E38.98588
G1 X28.105 Y-5.234 E39.04489
G1 X27.830 Y-5.509 E39.07439
G1 X28.105 Y-5.785 E39.10390
G1 X28.656 Y-5.234 E39.16291
G1 X28.381 Y-4.958 E39.19242
G1 X28.656 Y-4.683 E39.22192
G1 X28.932 Y-4.958 E39.25143
G1 X29.483 Y-4.407 E39.31044
G1 X29.207 Y-4.132 E39.33995
G1 X28.932 Y-4.407 E39.36945
G1 X28.656 Y-4.132 E39.39896
G1 X28.932 Y-3.856 E39.42847
G1 X28.656 Y-3.581 E39.45797
G1 X28.105 Y-4.132 E39.51698
G1 X28.381 Y-4.407 E39.54649
G1 X28.105 Y-4.683 E39.57600
G1 X27.554 Y-4.132 E39.63501
G1 X27.279 Y-3.856 E39.66451
G1 X27.554 Y-3.581 E39.69402
G1 X27.830 Y-3.856 E39.72353
G1 X28.381 Y-3.306 E39.78254
G1 X28.105 Y-3.030 E39.81204
G1 X27.830 Y-3.306 E39.84155
G1 X27.554 Y-3.030 E39.87106
G1 X27.830 Y-2.755 E39.90056
G1 X27.554 Y-2.479 E39.93007
G1 X27.003 Y-3.030 E39.98908
G1 X27.279 Y-3.306 E40.01859
G1 X27.003 Y-3.581 E40.04809
G1 X26.728 Y-3.306 E40.07760
G1 X26.177 Y-3.856 E40.13661
G1 X26.453 Y-4.132 E40.16612
G1 X26.728 Y-3.856 E40.19562
G1 X27.279 Y-4.407 E40.25463
G1 X27.003 Y-4.683 E40.28414
G1 X26.728 Y-4.407 E40.31365
G1 X26.453 Y-4.683 E40.34315
G1 X26.728 Y-4.958 E40.37266
G1 X26.453 Y-5.234 E40.40216
G1 X25.969 Y-4.750 E40.45399
G1 X25.969 Y-4.616 F3600.000
G1 X26.177 Y-4.407 E40.47631 F1500.000
G1 X25.969 Y-4.199 E40.49864
G1 X25.969 Y-3.514 F3600.000
G1 X26.453 Y-3.030 E40.55047 F1500.000
G1 X26.177 Y-2.755 E40.57997
G1 X26.453 Y-2.479 E40.60948
G1 X26.728 Y-2.755 E40.63898
G1 X27.279 Y-2.204 E40.69800
G1 X27.003 Y-1.928 E40.72750
G1 X26.728 Y-2.204 E40.75701
G1 X26.453 Y-1.928 E40.78651
G1 X26.728 Y-1.653 E40.81602
G1 X26.453 Y-1.377 E40.84553
G1 X25.969 Y-1.861 E40.89736
G1 X25.969 Y-1.995 F3600.000
G1 X26.177 Y-2.204 E40.91968 F1500.000
G1 X25.969 Y-2.412 E40.94200
G1 X25.969 Y0.343 F3600.000
G1 X26.177 Y0.551 E40.96432 F1500.000
G1 X26.453 Y0.275 E40.99383
G1 X26.728 Y0.551 E41.02334
G1 X26.453 Y0.826 E41.05284
G1 X27.003 Y1.377 E41.11185
G1 X27.279 Y1.102 E41.14136
G1 X27.003 Y0.826 E41.17087
G1 X27.554 Y0.275 E41.22988
G1 X27.830 Y0.551 E41.25938
G1 X27.554 Y0.826 E41.28889
G1 X27.830 Y1.102 E41.31840
G1 X28.105 Y0.826 E41.34790
G1 X28.381 Y1.102 E41.37741
G1 X27.830 Y1.653 E41.43642
G1 X27.554 Y1.377 E41.46593
G1 X27.279 Y1.653 E41.49543
G1 X27.554 Y1.928 E41.52494
G1 X27.003 Y2.479 E41.58395
G1 X26.728 Y2.204 E41.61346
G1 X27.003 Y1.928 E41.64296
G1 X26.453 Y1.377 E41.70197
G1 X26.177 Y1.653 E41.73148
G1 X26.453 Y1.928 E41.76099
G1 X26.177 Y2.204 E41.79049
G1 X25.969 Y1.995 E41.81281
G1 X25.969 Y2.546 F3600.000
G1 X26.177 Y2.755 E41.83514 F1500.000
G1 X26.453 Y2.479 E41.86464
G1 X26.728 Y2.755 E41.89415
G1 X26.177 Y3.306 E41.95316
G1 X25.969 Y3.097 E41.97548
G1 X25.969 Y4.065 F3600.000
G1 X26.453 Y3.581 E42.02731 F1500.000
G1 X26.728 Y3.856 E42.05682
G1 X26.453 Y4.132 E42.08633
G1 X26.728 Y4.407 E42.11583
G1 X27.003 Y4.132 E42.14534
G1 X27.279 Y4.407 E42.17484
G1 X26.728 Y4.958 E42.23386
G1 X26.453 Y4.683 E42.26336
G1 X26.177 Y4.958 E42.29287
G1 X26.728 Y5.509 E42.35188
G1 X27.003 Y5.234 E42.38139
G1 X27.279 Y5.509 E42.41089
G1 X27.003 Y5.785 E42.44040
G1 X27.554 Y6.336 E42.49941
G1 X27.830 Y6.060 E42.52892
G1 X27.554 Y5.785 E42.55842
G1 X27.830 Y5.509 E42.58793
G1 X28.105 Y5.785 E42.61743
G1 X28.381 Y5.509 E42.64694
G1 X27.830 Y4.958 E42.70595
G1 X27.554 Y5.234 E42.73546
G1 X27.279 Y4.958 E42.76496
G1 X28.105 Y4.132 E42.85348
G1 X28.381 Y4.407 E42.88299
G1 X28.105 Y4.683 E42.91249
G1 X28.656 Y5.234 E42.97150
G1 X28.932 Y4.958 E43.00101
G1 X28.656 Y4.683 E43.03052
G1 X28.932 Y4.407 E43.06002
G1 X29.207 Y4.683 E43.08953
G1 X29.483 Y4.407 E43.11903
G1 X28.932 Y3.856 E43.17805
G1 X28.656 Y4.132 E43.20755
G1 X28.381 Y3.856 E43.23706
G1 X28.656 Y3.581 E43.26656
G1 X28.105 Y3.030 E43.32558
G1 X27.830 Y3.306 E43.35508
G1 X28.105 Y3.581 E43.38459
G1 X27.554 Y4.132 E43.44360
G1 X27.279 Y3.856 E43.47311
G1 X27.554 Y3.581 E43.50261
G1 X27.279 Y3.306 E43.53212
G1 X27.003 Y3.581 E43.56162
G1 X26.728 Y3.306 E43.59113
G1 X27.279 Y2.755 E43.65014
G1 X27.554 Y3.030 E43.67965
G1 X27.830 Y2.755 E43.70915
G1 X27.554 Y2.479 E43.73866
G1 X28.105 Y1.928 E43.79767
G1 X28.381 Y2.204 E43.82718
G1 X28.105 Y2.479 E43.85668
G1 X28.656 Y3.030 E43.91570
G1 X28.932 Y2.755 E43.94520
G1 X28.656 Y2.479 E43.97471
G1 X28.932 Y2.204 E44.00421
G1 X29.207 Y2.479 E44.03372
G1 X29.483 Y2.204 E44.06323
G1 X28.932 Y1.653 E44.12224
G1 X28.656 Y1.928 E44.15174
G1 X28.381 Y1.653 E44.18125
G1 X28.932 Y1.102 E44.24026
G1 X29.207 Y1.377 E44.26977
G1 X29.483 Y1.102 E44.29927
G1 X29.207 Y0.826 E44.32878
G1 X29.758 Y0.275 E44.38779
G1 X30.033 Y0.551 E44.41730
G1 X29.758 Y0.826 E44.44680
G1 X30.033 Y1.102 E44.47631
G1 X30.309 Y0.826 E44.50581
G1 X30.584 Y1.102 E44.53532
G1 X30.033 Y1.653 E44.59433
G1 X29.758 Y1.377 E44.62384
G1 X29.483 Y1.653 E44.65334
G1 X30.309 Y2.479 E44.74186
G1 X30.584 Y2.204 E44.77137
G1 X30.309 Y1.928 E44.80087
G1 X30.860 Y1.377 E44.85989
G1 X31.135 Y1.653 E44.88939
G1 X30.860 Y1.928 E44.91890
G1 X31.135 Y2.204 E44.94840
G1 X31.411 Y1.928 E44.97791
G1 X31.686 Y2.204 E45.00742
G1 X31.135 Y2.755 E45.06643
G1 X30.860 Y2.479 E45.09593
G1 X30.584 Y2.755 E45.12544
G1 X30.860 Y3.030 E45.15495
G1 X30.309 Y3.581 E45.21396
G1 X30.033 Y3.306 E45.24346
G1 X30.309 Y3.030 E45.27297
G1 X29.758 Y2.479 E45.33198
G1 X29.483 Y2.755 E45.36149
G1 X29.758 Y3.030 E45.39099
G1 X29.483 Y3.306 E45.42050
G1 X29.207 Y3.030 E45.45001
G1 X28.932 Y3.306 E45.47951
G1 X29.483 Y3.856 E45.53852
G1 X29.758 Y3.581 E45.56803
G1 X30.033 Y3.856 E45.59754
G1 X29.758 Y4.132 E45.62704
G1 X30.033 Y4.407 E45.65655
G1 X30.309 Y4.132 E45.68605
G1 X30.584 Y4.407 E45.71556
G1 X30.309 Y4.683 E45.74507
G1 X30.860 Y5.234 E45.80408
G1 X31.135 Y4.958 E45.83358
G1 X30.860 Y4.683 E45.86309
G1 X31.135 Y4.407 E45.89259
G1 X31.411 Y4.683 E45.92210
G1 X31.686 Y4.407 E45.95161
G1 X31.135 Y3.856 E46.01062
G1 X30.860 Y4.132 E46.04012
G1 X30.584 Y3.856 E46.06963
G1 X31.135 Y3.306 E46.12864
G1 X31.411 Y3.581 E46.15815
G1 X31.686 Y3.306 E46.18765
G1 X31.411 Y3.030 E46.21716
G1 X31.962 Y2.479 E46.27617
G1 X32.237 Y2.755 E46.30568
G1 X31.962 Y3.030 E46.33518
G1 X32.237 Y3.306 E46.36469
G1 X32.513 Y3.030 E46.39420
G1 X32.788 Y3.306 E46.42370
G1 X32.237 Y3.856 E46.48271
G1 X31.962 Y3.581 E46.51222
G1 X31.686 Y3.856 E46.54173
G1 X32.513 Y4.683 E46.63024
G1 X32.788 Y4.407 E46.65975
G1 X32.513 Y4.132 E46.68926
G1 X33.064 Y3.581 E46.74827
G1 X33.339 Y3.856 E46.77777
G1 X33.064 Y4.132 E46.80728
G1 X33.339 Y4.407 E46.83679
G1 X33.614 Y4.132 E46.86629
G1 X33.890 Y4.407 E46.89580
G1 X33.339 Y4.958 E46.95481
G1 X33.064 Y4.683 E46.98432
G1 X32.788 Y4.958 E47.01382
G1 X33.064 Y5.234 E47.04333
G1 X32.513 Y5.785 E47.10234
G1 X32.237 Y5.509 E47.13184
G1 X32.513 Y5.234 E47.16135
G1 X31.962 Y4.683 E47.22036
G1 X31.686 Y4.958 E47.24987
G1 X31.962 Y5.234 E47.27937
G1 X31.686 Y5.509 E47.30888
G1 X31.411 Y5.234 E47.33839
G1 X31.135 Y5.509 E47.36789
G1 X31.686 Y6.060 E47.42690
G1 X31.962 Y5.785 E47.45641
G1 X32.237 Y6.060 E47.48592
G1 X31.686 Y6.611 E47.54493
G1 X31.411 Y6.336 E47.57443
G1 X31.135 Y6.611 E47.60394
G1 X31.411 Y6.886 E47.63345
G1 X30.860 Y7.437 E47.69246
G1 X30.584 Y7.162 E47.72196
G1 X30.860 Y6.886 E47.75147
G1 X30.584 Y6.611 E47.78098
G1 X30.309 Y6.886 E47.81048
G1 X30.033 Y6.611 E47.83999
G1 X30.584 Y6.060 E47.89900
G1 X30.860 Y6.336 E47.92851
G1 X31.135 Y6.060 E47.95801
G1 X30.584 Y5.509 E48.01702
G1 X30.309 Y5.785 E48.04653
G1 X30.033 Y5.509 E48.07604
G1 X30.309 Y5.234 E48.10554
G1 X29.758 Y4.683 E48.16455
G1 X29.483 Y4.958 E48.19406
G1 X29.758 Y5.234 E48.22357
G1 X29.483 Y5.509 E48.25307
G1 X29.207 Y5.234 E48.28258
G1 X28.932 Y5.509 E48.31208
G1 X29.483 Y6.060 E48.37110
G1 X29.758 Y5.785 E48.40060
G1 X30.033 Y6.060 E48.43011
G1 X29.207 Y6.886 E48.51863
G1 X28.932 Y6.611 E48.54813
G1 X29.207 Y6.336 E48.57764
G1 X28.656 Y5.785 E48.63665
G1 X28.381 Y6.060 E48.66616
G1 X28.656 Y6.336 E48.69566
G1 X28.381 Y6.611 E48.72517
G1 X28.105 Y6.336 E48.75467
G1 X27.830 Y6.611 E48.78418
G1 X28.381 Y7.162 E48.84319
G1 X28.656 Y6.886 E48.87270
G1 X28.932 Y7.162 E48.90220
G1 X28.656 Y7.437 E48.93171
G1 X29.207 Y7.988 E48.99072
G1 X29.483 Y7.713 E49.02023
G1 X29.207 Y7.437 E49.04973
G1 X29.758 Y6.886 E49.10875
G1 X30.033 Y7.162 E49.13825
G1 X29.758 Y7.437 E49.16776
G1 X30.033 Y7.713 E49.19726
G1 X30.309 Y7.437 E49.22677
G1 X30.584 Y7.713 E49.25628
G1 X30.033 Y8.264 E49.31529
G1 X29.758 Y7.988 E49.34479
G1 X29.483 Y8.264 E49.37430
G1 X30.309 Y9.090 E49.46282
G1 X30.584 Y8.815 E49.49232
G1 X30.309 Y8.539 E49.52183
G1 X30.860 Y7.988 E49.58084
G1 X31.135 Y8.264 E49.61035
G1 X30.860 Y8.539 E49.63985
G1 X31.135 Y8.815 E49.66936
G1 X31.411 Y8.539 E49.69886
G1 X31.686 Y8.815 E49.72837
G1 X31.135 Y9.366 E49.78738
G1 X30.860 Y9.090 E49.81689
G1 X30.584 Y9.366 E49.84639
G1 X31.135 Y9.917 E49.90541
G1 X31.411 Y9.641 E49.93491
G1 X31.686 Y9.917 E49.96442
G1 X31.411 Y10.192 E49.99392
G1 X31.962 Y10.743 E50.05294
G1 X32.237 Y10.467 E50.08244
G1 X31.962 Y10.192 E50.11195
G1 X32.237 Y9.917 E50.14145
G1 X32.513 Y10.192 E50.17096
G1 X32.788 Y9.917 E50.20047
G1 X32.237 Y9.366 E50.25948
G1 X31.962 Y9.641 E50.28898
G1 X31.686 Y9.366 E50.31849
G1 X32.513 Y8.539 E50.40701
G1 X32.788 Y8.815 E50.43651
G1 X32.513 Y9.090 E50.46602
