; generated by Slic3r 1.2.9 on 2017-06-20 at 10:22:18

; external perimeters extrusion width = 0.40mm
; perimeters extrusion width = 0.40mm
; infill extrusion width = 0.40mm
; solid infill extrusion width = 0.40mm
; top infill extrusion width = 0.40mm
; support material extrusion width = 0.40mm

M107
M190 S77 ; set bed temperature
M104 S280 ; set temperature

G1 Z5 F5000 ; lift nozzle

M109 S280 ; wait for temperature to be reached
G21 ; set units to millimeters
G90 ; use absolute coordinates
M82 ; use absolute distances for extrusion
G92 E0
G1 Z0.496 F3600.000
G1 E-2.00000 F2400.00000
G92 E0
G1 X48.408 Y-24.362 F3600.000
G1 E2.00000 F2400.00000
G1 X74.362 Y-24.362 E3.96584 F1500.000
G1 X74.362 Y24.362 E7.65637
G1 X25.638 Y24.362 E11.34690 F1500.000
G1 X25.638 Y-24.362 E15.03744
G1 X48.333 Y-24.362 E16.75645
G1 X48.333 Y-24.752 F3600.000
G1 X74.752 Y-24.752 E18.75748 F1500.000
G1 X74.752 Y24.752 E22.50702
G1 X25.248 Y24.752 E26.25657 F1500.000
G1 X25.248 Y-24.752 E30.00611
G1 X48.258 Y-24.752 E31.74896
G1 X48.583 Y-24.319 F3600.000
G1 X25.969 Y-24.031 F3600.000
G1 X74.031 Y-24.031 E35.40052 F1500.000
G1 X74.031 Y24.031 E39.05207
G1 X25.969 Y24.031 E42.70363
G1 X25.969 Y-23.956 E46.34949
G1 X26.359 Y-23.641 F3600.000
G1 X73.641 Y-23.641 E49.94168 F1500.000
G1 X73.641 Y23.641 E53.53386
G1 X26.359 Y23.641 E57.12604
G1 X26.359 Y-23.566 E60.71253
G1 X26.750 Y-23.250 F3600.000
G1 X73.250 Y-23.250 E64.24534 F1500.000
G1 X73.250 Y23.250 E67.77814
G1 X26.750 Y23.250 E71.31095
G1 X26.750 Y-23.175 E74.83806
G1 X27.141 Y-22.859 F3600.000
G1 X72.859 Y-22.859 E78.31150 F1500.000
G1 X72.859 Y22.859 E81.78493
G1 X27.141 Y22.859 E85.25836
G1 X27.141 Y-22.784 E88.72610
G1 X27.532 Y-22.468 F3600.000
G1 X72.468 Y-22.468 E92.14016 F1500.000
G1 X72.468 Y22.468 E95.55421
G1 X27.532 Y22.468 E98.96827
G1 X27.532 Y-22.393 E102.37663
G1 X27.922 Y-22.078 F3600.000
G1 X72.078 Y-22.078 E105.73132 F1500.000
G1 X72.078 Y22.078 E109.08600
G1 X27.922 Y22.078 E112.44068
G1 X27.922 Y-22.003 E115.78967
G1 X28.313 Y-21.687 F3600.000
G1 X71.687 Y-21.687 E119.08498 F1500.000
G1 X71.687 Y21.687 E122.38029
G1 X28.313 Y21.687 E125.67559
G1 X28.313 Y-21.612 E128.96520
G1 X28.704 Y-21.296 F3600.000
G1 X71.296 Y-21.296 E132.20114 F1500.000
G1 X71.296 Y21.296 E135.43707
G1 X28.704 Y21.296 E138.67301
G1 X28.704 Y-21.221 E141.90324
G1 X29.095 Y-20.905 F3600.000
G1 X70.905 Y-20.905 E145.07980 F1500.000
G1 X70.905 Y20.905 E148.25636
G1 X29.095 Y20.905 E151.43292
G1 X29.095 Y-20.830 E154.60378
G1 X29.485 Y-20.515 F3600.000
G1 X70.515 Y-20.515 E157.72096 F1500.000
G1 X70.515 Y20.515 E160.83815
G1 X29.485 Y20.515 E163.95533
G1 X29.485 Y-20.440 E167.06681
G1 X29.876 Y-20.124 F3600.000
G1 X70.124 Y-20.124 E170.12462 F1500.000
G1 X70.124 Y20.124 E173.18243
G1 X29.876 Y20.124 E176.24024
G1 X29.876 Y-20.049 E179.29235
G1 X30.267 Y-19.733 F3600.000
G1 X69.733 Y-19.733 E182.29079 F1500.000
G1 X69.733 Y19.733 E185.28922
G1 X30.267 Y19.733 E188.28765
G1 X30.267 Y-19.658 E191.28039
G1 X30.658 Y-19.342 F3600.000
G1 X69.342 Y-19.342 E194.21945 F1500.000
G1 X69.342 Y19.342 E197.15851
G1 X30.658 Y19.342 E200.09757
G1 X30.658 Y-19.267 E203.03093
G1 X31.048 Y-18.952 F3600.000
G1 X68.952 Y-18.952 E205.91061 F1500.000
G1 X68.952 Y18.952 E208.79030
G1 X31.048 Y18.952 E211.66998
G1 X31.048 Y-18.877 E214.54397
G1 X31.439 Y-18.561 F3600.000
G1 X68.561 Y-18.561 E217.36427 F1500.000
G1 X68.561 Y18.561 E220.18458
G1 X31.439 Y18.561 E223.00489
G1 X31.439 Y-18.486 E225.81950
G1 X31.830 Y-18.170 F3600.000
G1 X68.170 Y-18.170 E228.58044 F1500.000
G1 X68.170 Y18.170 E231.34137
G1 X31.830 Y18.170 E234.10231
G1 X31.830 Y-18.095 E236.85754
G1 X32.221 Y-17.779 F3600.000
G1 X67.779 Y-17.779 E239.55910 F1500.000
G1 X67.779 Y17.779 E242.26066
G1 X32.221 Y17.779 E244.96222
G1 X32.221 Y-17.704 E247.65808
G1 X32.611 Y-17.389 F3600.000
G1 X67.389 Y-17.389 E250.30027 F1500.000
G1 X67.389 Y17.389 E252.94245
G1 X32.611 Y17.389 E255.58463
G1 X32.611 Y-17.314 E258.22112
G1 X33.002 Y-16.998 F3600.000
G1 X66.998 Y-16.998 E260.80393 F1500.000
G1 X66.998 Y16.998 E263.38674
G1 X33.002 Y16.998 E265.96955
G1 X33.002 Y-16.923 E268.54666
G1 X33.393 Y-16.607 F3600.000
G1 X66.607 Y-16.607 E271.07010 F1500.000
G1 X66.607 Y16.607 E273.59353
G1 X33.393 Y16.607 E276.11696
G1 X33.393 Y-16.532 E278.63470
G1 X33.784 Y-16.216 F3600.000
G1 X66.216 Y-16.216 E281.09876 F1500.000
G1 X66.216 Y16.216 E283.56282
G1 X33.784 Y16.216 E286.02688
G1 X33.784 Y-16.141 E288.48524
G1 X34.174 Y-15.826 F3600.000
G1 X65.826 Y-15.826 E290.88993 F1500.000
G1 X65.826 Y15.826 E293.29461
G1 X34.174 Y15.826 E295.69929
G1 X34.174 Y-15.751 E298.09828
G1 X34.565 Y-15.435 F3600.000
G1 X65.435 Y-15.435 E300.44359 F1500.000
G1 X65.435 Y15.435 E302.78890
G1 X34.565 Y15.435 E305.13421
G1 X34.565 Y-15.360 E307.47382
G1 X34.956 Y-15.044 F3600.000
G1 X65.044 Y-15.044 E309.75976 F1500.000
G1 X65.044 Y15.044 E312.04569
G1 X34.956 Y15.044 E314.33163
G1 X34.956 Y-14.969 E316.61186
G1 X35.347 Y-14.653 F3600.000
G1 X64.653 Y-14.653 E318.83842 F1500.000
G1 X64.653 Y14.653 E321.06498
G1 X35.347 Y14.653 E323.29154
G1 X35.347 Y-14.578 E325.51240
G1 X35.737 Y-14.263 F3600.000
G1 X64.262 Y-14.263 E327.67959 F1500.000
G1 X64.262 Y14.262 E329.84677
G1 X35.737 Y14.262 E332.01396
G1 X35.737 Y-14.188 E334.17545
G1 X36.128 Y-13.872 F3600.000
G1 X63.872 Y-13.872 E336.28326 F1500.000
G1 X63.872 Y13.872 E338.39107
G1 X36.128 Y13.872 E340.49888
G1 X36.128 Y-13.797 E342.60099
G1 X36.519 Y-13.481 F3600.000
G1 X63.481 Y-13.481 E344.64942 F1500.000
G1 X63.481 Y13.481 E346.69786
G1 X36.519 Y13.481 E348.74629
G1 X36.519 Y-13.406 E350.78903
G1 X36.910 Y-13.090 F3600.000
G1 X63.090 Y-13.090 E352.77809 F1500.000
G1 X63.090 Y13.090 E354.76715
G1 X36.910 Y13.090 E356.75621
G1 X36.910 Y-13.015 E358.73957
G1 X37.300 Y-12.700 F3600.000
G1 X62.699 Y-12.700 E360.66926 F1500.000
G1 X62.699 Y12.699 E362.59894
G1 X37.300 Y12.699 E364.52863
G1 X37.300 Y-12.625 E366.45261
G1 X37.691 Y-12.309 F3600.000
G1 X62.309 Y-12.309 E368.32292 F1500.000
G1 X62.309 Y12.309 E370.19323
G1 X37.691 Y12.309 E372.06354
G1 X37.691 Y-12.234 E373.92816
G1 X38.082 Y-11.918 F3600.000
G1 X61.918 Y-11.918 E375.73909 F1500.000
G1 X61.918 Y11.918 E377.55003
G1 X38.082 Y11.918 E379.36096
G1 X38.082 Y-11.843 E381.16620
G1 X38.473 Y-11.527 F3600.000
G1 X61.527 Y-11.527 E382.91776 F1500.000
G1 X61.527 Y11.527 E384.66932
G1 X38.473 Y11.527 E386.42088
G1 X38.473 Y-11.452 E388.16674
G1 X38.864 Y-11.136 F3600.000
G1 X61.136 Y-11.136 E389.85893 F1500.000
G1 X61.136 Y11.136 E391.55111
G1 X38.864 Y11.136 E393.24330
G1 X38.864 Y-11.061 E394.92979
G1 X39.254 Y-10.746 F3600.000
G1 X60.746 Y-10.746 E396.56260 F1500.000
G1 X60.746 Y10.746 E398.19541
G1 X39.254 Y10.746 E399.82822
G1 X39.254 Y-10.671 E401.45533
G1 X39.645 Y-10.355 F3600.000
G1 X60.355 Y-10.355 E403.02877 F1500.000
G1 X60.355 Y10.355 E404.60220
G1 X39.645 Y10.355 E406.17564
G1 X39.645 Y-10.280 E407.74338
G1 X40.036 Y-9.964 F3600.000
G1 X59.964 Y-9.964 E409.25744 F1500.000
G1 X59.964 Y9.964 E410.77150
G1 X40.036 Y9.964 E412.28556
G1 X40.036 Y-9.889 E413.79392
G1 X40.427 Y-9.573 F3600.000
G1 X59.573 Y-9.573 E415.24861 F1500.000
G1 X59.573 Y9.573 E416.70329
G1 X40.427 Y9.573 E418.15798
G1 X40.427 Y-9.498 E419.60697
G1 X40.817 Y-9.183 F3600.000
G1 X59.183 Y-9.183 E421.00228 F1500.000
G1 X59.183 Y9.183 E422.39759
G1 X40.817 Y9.183 E423.79290
G1 X40.817 Y-9.108 E425.18251
G1 X41.208 Y-8.792 F3600.000
G1 X58.792 Y-8.792 E426.51845 F1500.000
G1 X58.792 Y8.792 E427.85438
G1 X41.208 Y8.792 E429.19032
G1 X41.208 Y-8.717 E430.52056
G1 X41.599 Y-8.401 F3600.000
G1 X58.401 Y-8.401 E431.79712 F1500.000
G1 X58.401 Y8.401 E433.07368
G1 X41.599 Y8.401 E434.35024
G1 X41.599 Y-8.326 E435.62110
G1 X41.990 Y-8.010 F3600.000
G1 X58.010 Y-8.010 E436.83829 F1500.000
G1 X58.010 Y8.010 E438.05547
G1 X41.990 Y8.010 E439.27266
G1 X41.990 Y-7.935 E440.48415
G1 X42.380 Y-7.620 F3600.000
G1 X57.620 Y-7.620 E441.64196 F1500.000
G1 X57.620 Y7.620 E442.79977
G1 X42.380 Y7.620 E443.95758
G1 X42.380 Y-7.545 E445.10969
G1 X42.771 Y-7.229 F3600.000
G1 X57.229 Y-7.229 E446.20813 F1500.000
G1 X57.229 Y7.229 E447.30657
G1 X42.771 Y7.229 E448.40500
G1 X42.771 Y-7.154 E449.49774
G1 X43.162 Y-6.838 F3600.000
G1 X56.838 Y-6.838 E450.53680 F1500.000
G1 X56.838 Y6.838 E451.57586
G1 X43.162 Y6.838 E452.61492
G1 X43.162 Y-6.763 E453.64829
G1 X43.553 Y-6.447 F3600.000
G1 X56.447 Y-6.447 E454.62797 F1500.000
G1 X56.447 Y6.447 E455.60766
G1 X43.553 Y6.447 E456.58735
G1 X43.553 Y-6.372 E457.56133
G1 X43.943 Y-6.057 F3600.000
G1 X56.057 Y-6.057 E458.48165 F1500.000
G1 X56.057 Y6.057 E459.40196
G1 X43.943 Y6.057 E460.32227
G1 X43.943 Y-5.982 E461.23688
G1 X44.334 Y-5.666 F3600.000
G1 X55.666 Y-5.666 E462.09782 F1500.000
G1 X55.666 Y5.666 E462.95875
G1 X44.334 Y5.666 E463.81969
G1 X44.334 Y-5.591 E464.67493
G1 X44.725 Y-5.275 F3600.000
G1 X55.275 Y-5.275 E465.47649 F1500.000
G1 X55.275 Y5.275 E466.27805
G1 X44.725 Y5.275 E467.07961
G1 X44.725 Y-5.200 E467.87548
G1 X45.116 Y-4.884 F3600.000
G1 X54.884 Y-4.884 E468.61766 F1500.000
G1 X54.884 Y4.884 E469.35985
G1 X45.116 Y4.884 E470.10204
G1 X45.116 Y-4.809 E470.83853
G1 X45.506 Y-4.494 F3600.000
G1 X54.494 Y-4.494 E471.52134 F1500.000
G1 X54.494 Y4.494 E472.20415
G1 X45.506 Y4.494 E472.88696
G1 X45.506 Y-4.419 E473.56407
G1 X45.897 Y-4.103 F3600.000
G1 X54.103 Y-4.103 E474.18751 F1500.000
G1 X54.103 Y4.103 E474.81095
G1 X45.897 Y4.103 E475.43438
G1 X45.897 Y-4.028 E476.05212
G1 X46.288 Y-3.712 F3600.000
G1 X53.712 Y-3.712 E476.61618 F1500.000
G1 X53.712 Y3.712 E477.18025
G1 X46.288 Y3.712 E477.74431
G1 X46.288 Y-3.637 E478.30267
G1 X46.679 Y-3.321 F3600.000
G1 X53.321 Y-3.321 E478.80736 F1500.000
G1 X53.321 Y3.321 E479.31205
G1 X46.679 Y3.321 E479.81673
G1 X46.679 Y-3.246 E480.31572
G1 X47.069 Y-2.931 F3600.000
G1 X52.931 Y-2.931 E480.76103 F1500.000
G1 X52.931 Y2.931 E481.20634
G1 X47.069 Y2.931 E481.65166
G1 X47.069 Y-2.856 E482.09127
G1 X47.460 Y-2.540 F3600.000
G1 X52.540 Y-2.540 E482.47721 F1500.000
G1 X52.540 Y2.540 E482.86314
G1 X47.460 Y2.540 E483.24908
G1 X47.460 Y-2.465 E483.62932
G1 X47.851 Y-2.149 F3600.000
G1 X52.149 Y-2.149 E483.95588 F1500.000
G1 X52.149 Y2.149 E484.28244
G1 X47.851 Y2.149 E484.60901
G1 X47.851 Y-2.074 E484.92987
G1 X48.242 Y-1.758 F3600.000
G1 X51.758 Y-1.758 E485.19706 F1500.000
G1 X51.758 Y1.758 E485.46424
G1 X48.242 Y1.758 E485.73143
G1 X48.242 Y-1.683 E485.99292
G1 X48.632 Y-1.368 F3600.000
G1 X51.368 Y-1.368 E486.20073 F1500.000
G1 X51.368 Y1.368 E486.40855
G1 X48.632 Y1.368 E486.61636
G1 X48.632 Y-1.293 E486.81847
G1 X49.023 Y-0.977 F3600.000
G1 X50.977 Y-0.977 E486.96691 F1500.000
G1 X50.977 Y0.977 E487.11535
G1 X49.023 Y0.977 E487.26378
G1 X49.023 Y-0.902 E487.40652
G1 X49.414 Y-0.586 F3600.000
G1 X50.586 Y-0.586 E487.49559 F1500.000
G1 X50.586 Y0.586 E487.58465
G1 X49.414 Y0.586 E487.67371
G1 X49.414 Y-0.511 E487.75707
G1 X49.805 Y-0.195 F3600.000
G1 X50.195 Y-0.195 E487.78676 F1500.000
G1 X50.195 Y0.195 E487.81645
G1 X49.805 Y0.195 E487.84614
G1 X49.805 Y-0.120 E487.87013
G1 Z0.496 F3600.000
M104 S270 ; set temperature
M140 S30 ; wait for bed temperature to be reached
G1 Z0.896 F3600.000
G1 X74.486 Y-5.062 F3600.000
G1 X74.486 Y24.486 E489.32566 F3000.000
G1 X25.514 Y24.486 E491.73801 F3000.000
G1 X25.514 Y-24.486 E494.15036
G1 X74.486 Y-24.486 E496.56271
G1 X74.486 Y-5.137 E497.51583
G1 X74.800 Y-5.137 F3600.000
G1 X74.800 Y24.800 E498.99053 F750.000
G1 X25.200 Y24.800 E501.43383 F750.000
G1 X25.200 Y-24.800 E503.87713
G1 X74.800 Y-24.800 E506.32043
G1 X74.800 Y-5.212 E507.28533
G1 X74.367 Y-4.887 F3600.000
G1 X74.132 Y24.305 F3600.000
G1 X74.305 Y24.132 E507.29740 F1200.000
G1 X74.305 Y23.688 E507.31930
G1 X73.688 Y24.305 E507.36234
G1 X73.243 Y24.305 E507.38423
G1 X74.305 Y23.243 E507.45823
G1 X74.305 Y22.799 E507.48013
G1 X72.799 Y24.305 E507.58510
G1 X72.355 Y24.305 E507.60699
G1 X74.305 Y22.355 E507.74292
G1 X74.305 Y21.910 E507.76482
G1 X71.910 Y24.305 E507.93171
G1 X71.466 Y24.305 E507.95361
G1 X74.305 Y21.466 E508.15147
G1 X74.305 Y21.022 E508.17336
G1 X71.022 Y24.305 E508.40219
G1 X70.577 Y24.305 E508.42408
G1 X74.305 Y20.577 E508.68387
G1 X74.305 Y20.133 E508.70576
G1 X70.133 Y24.305 E508.99651
G1 X69.688 Y24.305 E509.01841
G1 X74.305 Y19.688 E509.34013
G1 X74.305 Y19.244 E509.36202
G1 X69.244 Y24.305 E509.71470
G1 X68.800 Y24.305 E509.73660
G1 X74.305 Y18.800 E510.12024
G1 X74.305 Y18.355 E510.14213
G1 X68.355 Y24.305 E510.55674
G1 X67.911 Y24.305 E510.57864
G1 X74.305 Y17.911 E511.02421
G1 X74.305 Y17.466 E511.04611
G1 X67.466 Y24.305 E511.52264
G1 X67.022 Y24.305 E511.54454
G1 X74.305 Y17.022 E512.05204
G1 X74.305 Y16.578 E512.07393
G1 X66.578 Y24.305 E512.61240
G1 X66.133 Y24.305 E512.63429
G1 X74.305 Y16.133 E513.20372
G1 X74.305 Y15.689 E513.22562
G1 X65.689 Y24.305 E513.82601
G1 X65.245 Y24.305 E513.84790
G1 X74.305 Y15.245 E514.47926
G1 X74.305 Y14.800 E514.50116
G1 X64.800 Y24.305 E515.16348
G1 X64.356 Y24.305 E515.18537
G1 X74.305 Y14.356 E515.87866
G1 X74.305 Y13.911 E515.90055
G1 X63.911 Y24.305 E516.62480
G1 X63.467 Y24.305 E516.64670
G1 X74.305 Y13.467 E517.40191
G1 X74.305 Y13.023 E517.42381
G1 X63.023 Y24.305 E518.20999
G1 X62.578 Y24.305 E518.23188
G1 X74.305 Y12.578 E519.04902
G1 X74.305 Y12.134 E519.07092
G1 X62.134 Y24.305 E519.91902
G1 X61.689 Y24.305 E519.94092
G1 X74.305 Y11.689 E520.81999
G1 X74.305 Y11.245 E520.84188
G1 X61.245 Y24.305 E521.75192
G1 X60.801 Y24.305 E521.77381
G1 X74.305 Y10.801 E522.71481
G1 X74.305 Y10.356 E522.73671
G1 X60.356 Y24.305 E523.70867
G1 X59.912 Y24.305 E523.73057
G1 X74.305 Y9.912 E524.73349
G1 X74.305 Y9.468 E524.75539
G1 X59.468 Y24.305 E525.78928
G1 X59.023 Y24.305 E525.81117
G1 X74.305 Y9.023 E526.87603
G1 X74.305 Y8.579 E526.89792
G1 X58.579 Y24.305 E527.99374
G1 X58.134 Y24.305 E528.01564
G1 X74.305 Y8.134 E529.14242
G1 X74.305 Y7.690 E529.16432
G1 X57.690 Y24.305 E530.32206
G1 X57.246 Y24.305 E530.34396
G1 X74.305 Y7.246 E531.53267
G1 X74.305 Y6.801 E531.55457
G1 X56.801 Y24.305 E532.77424
G1 X56.357 Y24.305 E532.79614
G1 X74.305 Y6.357 E534.04678
G1 X74.305 Y5.912 E534.06867
G1 X55.912 Y24.305 E535.35028
G1 X55.468 Y24.305 E535.37217
G1 X74.305 Y5.468 E536.68474
G1 X74.305 Y5.024 E536.70664
G1 X55.024 Y24.305 E538.05017
G1 X54.579 Y24.305 E538.07206
G1 X74.305 Y4.579 E539.44656
G1 X74.305 Y4.135 E539.46845
G1 X54.135 Y24.305 E540.87392
G1 X53.691 Y24.305 E540.89581
G1 X74.305 Y3.691 E542.33224
G1 X74.305 Y3.246 E542.35413
G1 X53.246 Y24.305 E543.82152
G1 X52.802 Y24.305 E543.84341
G1 X74.305 Y2.802 E545.34177
G1 X74.305 Y2.357 E545.36366
G1 X52.357 Y24.305 E546.89298
G1 X51.913 Y24.305 E546.91488
G1 X74.305 Y1.913 E548.47516
G1 X74.305 Y1.469 E548.49705
G1 X51.469 Y24.305 E550.08830
G1 X51.024 Y24.305 E550.11019
G1 X74.305 Y1.024 E551.73240
G1 X74.305 Y0.580 E551.75430
G1 X50.580 Y24.305 E553.40747
G1 X50.136 Y24.305 E553.42937
G1 X74.305 Y0.136 E555.11350
G1 X74.305 Y-0.309 E555.13540
G1 X49.691 Y24.305 E556.85050
G1 X49.247 Y24.305 E556.87240
G1 X74.305 Y-0.753 E558.61846
G1 X74.305 Y-1.198 E558.64036
G1 X48.802 Y24.305 E560.41739
G1 X48.358 Y24.305 E560.43928
G1 X74.305 Y-1.642 E562.24728
G1 X74.305 Y-2.086 E562.26917
G1 X47.914 Y24.305 E564.10813
G1 X47.469 Y24.305 E564.13003
G1 X74.305 Y-2.531 E565.99995
G1 X74.305 Y-2.975 E566.02185
G1 X47.025 Y24.305 E567.92273
G1 X46.580 Y24.305 E567.94463
G1 X74.305 Y-3.420 E569.87648
G1 X74.305 Y-3.864 E569.89837
G1 X46.136 Y24.305 E571.86119
G1 X45.692 Y24.305 E571.88308
G1 X74.305 Y-4.308 E573.87686
G1 X74.305 Y-4.753 E573.89876
G1 X45.247 Y24.305 E575.92350
G1 X44.803 Y24.305 E575.94540
G1 X74.305 Y-5.197 E578.00111
G1 X74.305 Y-5.641 E578.02300
G1 X44.359 Y24.305 E580.10967
G1 X43.914 Y24.305 E580.13157
G1 X74.305 Y-6.086 E582.24920
G1 X74.305 Y-6.530 E582.27110
G1 X43.470 Y24.305 E584.41970
G1 X43.025 Y24.305 E584.44159
G1 X74.305 Y-6.975 E586.62116
G1 X74.305 Y-7.419 E586.64305
G1 X42.581 Y24.305 E588.85358
G1 X42.137 Y24.305 E588.87548
G1 X74.305 Y-7.863 E591.11697
G1 X74.305 Y-8.308 E591.13887
G1 X41.692 Y24.305 E593.41132
G1 X41.248 Y24.305 E593.43322
G1 X74.305 Y-8.752 E595.73664
