; generated by Slic3r 1.2.9 on 2017-06-19 at 17:22:38

; external perimeters extrusion width = 0.40mm
; perimeters extrusion width = 0.40mm
; infill extrusion width = 0.40mm
; solid infill extrusion width = 0.40mm
; top infill extrusion width = 0.40mm
; support material extrusion width = 0.40mm

M107
M190 S77 ; set bed temperature
M104 S280 ; set temperature

G1 Z5 F5000 ; lift nozzle

M109 S280 ; wait for temperature to be reached
G21 ; set units to millimeters
G90 ; use absolute coordinates
M82 ; use absolute distances for extrusion
G92 E0
G1 Z0.496 F3600.000
G1 E-2.00000 F2400.00000
G92 E0
G1 X48.119 Y16.229 F3600.000
G1 E2.00000 F2400.00000
G1 X41.215 Y16.789 E2.52466 F1500.000
G1 X32.117 Y17.588 E3.21640
G1 X31.558 Y17.585 E3.25878
G1 X31.341 Y17.521 E3.27594
G1 X31.290 Y17.457 E3.28210
G1 X31.215 Y17.258 E3.29826
G1 X31.148 Y16.904 E3.32550
G1 X30.822 Y13.438 E3.58918
G1 X30.641 Y11.003 E3.77418
G1 X30.529 Y9.174 E3.91294
G1 X30.388 Y6.119 E4.14460
G1 X30.293 Y2.447 E4.42277
G1 X30.276 Y-0.615 E4.65475
G1 X30.330 Y-4.284 E4.93267
G1 X30.438 Y-7.341 E5.16431
G1 X30.602 Y-10.393 E5.39582
G1 X30.873 Y-14.049 E5.67349
G1 X31.148 Y-16.904 E5.89074
G1 X31.251 Y-17.373 E5.92712
G1 X31.321 Y-17.502 E5.93827
G1 X31.371 Y-17.539 E5.94298
G1 X31.546 Y-17.583 E5.95663
G1 X31.901 Y-17.597 E5.98355
G1 X41.879 Y-16.733 E6.74215
G1 X49.847 Y-16.089 E7.34763 F1500.000
G1 X59.025 Y-15.404 E8.04471
G1 X68.911 Y-14.723 E8.79531
G1 X69.484 Y-14.635 E8.83916
G1 X69.701 Y-14.553 E8.85679
G1 X69.723 Y-14.300 E8.87598
G1 X69.378 Y-10.236 E9.18495
G1 X69.185 Y-7.168 E9.41773
G1 X69.045 Y-3.586 E9.68928
G1 X68.999 Y0.000 E9.96091
G1 X69.045 Y3.586 E10.23253
G1 X69.185 Y7.168 E10.50408
G1 X69.378 Y10.236 E10.73687
G1 X69.723 Y14.300 E11.04583
G1 X69.701 Y14.553 E11.06502
G1 X69.484 Y14.635 E11.08265
G1 X68.911 Y14.723 E11.12650
G1 X59.202 Y15.392 E11.86369
G1 X48.194 Y16.223 E12.69979
G1 X48.226 Y16.612 F3600.000
G1 X41.248 Y17.177 E13.23003 F1500.000
G1 X32.138 Y17.978 E13.92267
G1 X31.694 Y17.987 E13.95631
G1 X31.342 Y17.941 E13.98322
G1 X31.208 Y17.895 E13.99396
G1 X31.104 Y17.835 E14.00304
G1 X31.022 Y17.755 E14.01172
G1 X30.887 Y17.513 E14.03270
G1 X30.837 Y17.353 E14.04539
G1 X30.762 Y16.959 E14.07578
G1 X30.434 Y13.471 E14.34114
G1 X30.253 Y11.029 E14.52663
G1 X30.140 Y9.195 E14.66580
G1 X29.998 Y6.133 E14.89798
G1 X29.903 Y2.454 E15.17674
G1 X29.886 Y-0.617 E15.40933
G1 X29.941 Y-4.294 E15.68785
G1 X30.048 Y-7.358 E15.92006
G1 X30.213 Y-10.418 E16.15215
G1 X30.485 Y-14.082 E16.43044
G1 X30.762 Y-16.959 E16.64938
G1 X30.837 Y-17.353 E16.67978
G1 X30.887 Y-17.513 E16.69248
G1 X31.022 Y-17.755 E16.71346
G1 X31.104 Y-17.835 E16.72214
G1 X31.208 Y-17.895 E16.73122
G1 X31.502 Y-17.971 E16.75422
G1 X31.910 Y-17.988 E16.78515
G1 X41.912 Y-17.121 E17.54554
G1 X49.877 Y-16.478 E18.15084 F1500.000
G1 X59.053 Y-15.793 E18.84775
G1 X68.954 Y-15.110 E19.59949
G1 X69.584 Y-15.014 E19.64769
G1 X69.875 Y-14.903 E19.67128
G1 X70.015 Y-14.777 E19.68556
G1 X70.089 Y-14.590 E19.70081
G1 X70.114 Y-14.300 E19.72284
G1 X69.766 Y-10.207 E20.03401
G1 X69.574 Y-7.149 E20.26612
G1 X69.435 Y-3.576 E20.53694
G1 X69.388 Y0.000 E20.80780
G1 X69.435 Y3.576 E21.07866
G1 X69.574 Y7.149 E21.34947
G1 X69.766 Y10.207 E21.58158
G1 X70.114 Y14.300 E21.89275
G1 X70.089 Y14.590 E21.91478
G1 X70.015 Y14.777 E21.93003
G1 X69.875 Y14.903 E21.94431
G1 X69.584 Y15.014 E21.96790
G1 X68.954 Y15.110 E22.01610
G1 X59.230 Y15.780 E22.75444
G1 X48.300 Y16.606 E23.58458
G1 X47.942 Y16.200 F3600.000
G1 X48.289 Y15.883 F3600.000
G1 X48.107 Y15.701 E23.60411 F1500.000
G1 X47.892 Y15.916 E23.62709
G1 X47.779 Y15.925 F3600.000
G1 X47.280 Y15.426 E23.68055 F1500.000
G1 X47.556 Y15.150 E23.71005
G1 X47.831 Y15.426 E23.73956
G1 X48.107 Y15.150 E23.76906
G1 X47.831 Y14.875 E23.79857
G1 X48.107 Y14.599 E23.82808
G1 X48.658 Y15.150 E23.88709
G1 X48.382 Y15.426 E23.91659
G1 X48.658 Y15.701 E23.94610
G1 X49.484 Y14.875 E24.03462
G1 X49.209 Y14.599 E24.06412
G1 X48.933 Y14.875 E24.09363
G1 X48.382 Y14.324 E24.15264
G1 X48.658 Y14.048 E24.18215
G1 X48.933 Y14.324 E24.21165
G1 X49.209 Y14.048 E24.24116
G1 X48.933 Y13.773 E24.27067
G1 X49.209 Y13.497 E24.30017
G1 X49.759 Y14.048 E24.35918
G1 X49.484 Y14.324 E24.38869
G1 X49.759 Y14.599 E24.41820
G1 X50.035 Y14.324 E24.44770
G1 X50.586 Y14.875 E24.50671
G1 X50.310 Y15.150 E24.53622
G1 X50.035 Y14.875 E24.56573
G1 X49.484 Y15.426 E24.62474
G1 X49.759 Y15.701 E24.65424
G1 X50.035 Y15.426 E24.68375
G1 X50.310 Y15.701 E24.71326
G1 X50.287 Y15.725 E24.71576
G1 X50.843 Y15.683 F3600.000
G1 X50.586 Y15.426 E24.74333 F1500.000
G1 X50.861 Y15.150 E24.77283
G1 X51.356 Y15.645 E24.82581
G1 X51.869 Y15.607 F3600.000
G1 X51.412 Y15.150 E24.87470 F1500.000
G1 X51.688 Y14.875 E24.90420
G1 X51.412 Y14.599 E24.93371
G1 X51.137 Y14.875 E24.96321
G1 X50.586 Y14.324 E25.02223
G1 X50.861 Y14.048 E25.05173
G1 X51.137 Y14.324 E25.08124
G1 X51.412 Y14.048 E25.11074
G1 X51.137 Y13.773 E25.14025
G1 X51.412 Y13.497 E25.16976
G1 X51.963 Y14.048 E25.22877
G1 X51.688 Y14.324 E25.25827
G1 X51.963 Y14.599 E25.28778
G1 X52.514 Y14.048 E25.34679
G1 X52.239 Y13.773 E25.37630
G1 X52.514 Y13.497 E25.40580
G1 X52.789 Y13.773 E25.43531
G1 X53.340 Y13.222 E25.49432
G1 X53.065 Y12.947 E25.52383
G1 X52.789 Y13.222 E25.55333
G1 X52.514 Y12.947 E25.58284
G1 X52.789 Y12.671 E25.61234
G1 X52.514 Y12.396 E25.64185
G1 X51.963 Y12.947 E25.70086
G1 X52.239 Y13.222 E25.73037
G1 X51.963 Y13.497 E25.75987
G1 X51.688 Y13.222 E25.78938
G1 X51.137 Y12.671 E25.84839
G1 X51.412 Y12.396 E25.87790
G1 X51.688 Y12.671 E25.90740
G1 X52.239 Y12.120 E25.96642
G1 X51.963 Y11.845 E25.99592
G1 X51.688 Y12.120 E26.02543
G1 X51.412 Y11.845 E26.05493
G1 X51.688 Y11.569 E26.08444
G1 X51.412 Y11.294 E26.11395
G1 X50.861 Y11.845 E26.17296
G1 X51.137 Y12.120 E26.20246
G1 X50.861 Y12.396 E26.23197
G1 X50.586 Y12.120 E26.26148
G1 X50.035 Y12.671 E26.32049
G1 X50.310 Y12.947 E26.34999
G1 X50.586 Y12.671 E26.37950
G1 X51.137 Y13.222 E26.43851
G1 X50.861 Y13.497 E26.46802
G1 X50.586 Y13.222 E26.49752
G1 X50.310 Y13.497 E26.52703
G1 X50.586 Y13.773 E26.55654
G1 X50.310 Y14.048 E26.58604
G1 X49.759 Y13.497 E26.64505
G1 X50.035 Y13.222 E26.67456
G1 X49.759 Y12.947 E26.70407
G1 X49.484 Y13.222 E26.73357
G1 X48.933 Y12.671 E26.79258
G1 X49.209 Y12.396 E26.82209
G1 X49.484 Y12.671 E26.85160
G1 X50.035 Y12.120 E26.91061
G1 X49.759 Y11.845 E26.94011
G1 X49.484 Y12.120 E26.96962
G1 X49.209 Y11.845 E26.99913
G1 X49.484 Y11.569 E27.02863
G1 X49.209 Y11.294 E27.05814
G1 X48.658 Y11.845 E27.11715
G1 X48.933 Y12.120 E27.14666
G1 X48.658 Y12.396 E27.17616
G1 X48.107 Y11.845 E27.23517
G1 X48.382 Y11.569 E27.26468
G1 X48.107 Y11.294 E27.29419
G1 X47.831 Y11.569 E27.32369
G1 X47.280 Y11.018 E27.38270
G1 X47.556 Y10.743 E27.41221
G1 X47.831 Y11.018 E27.44172
G1 X48.107 Y10.743 E27.47122
G1 X47.831 Y10.467 E27.50073
G1 X48.107 Y10.192 E27.53023
G1 X48.658 Y10.743 E27.58925
G1 X48.382 Y11.018 E27.61875
G1 X48.658 Y11.294 E27.64826
G1 X49.484 Y10.467 E27.73678
G1 X49.209 Y10.192 E27.76628
G1 X48.933 Y10.467 E27.79579
G1 X48.382 Y9.917 E27.85480
G1 X48.658 Y9.641 E27.88431
G1 X48.933 Y9.917 E27.91381
G1 X49.209 Y9.641 E27.94332
G1 X48.933 Y9.366 E27.97282
G1 X49.209 Y9.090 E28.00233
G1 X49.759 Y9.641 E28.06134
G1 X49.484 Y9.917 E28.09085
G1 X49.759 Y10.192 E28.12035
G1 X50.035 Y9.917 E28.14986
G1 X50.586 Y10.467 E28.20887
G1 X50.310 Y10.743 E28.23838
G1 X50.035 Y10.467 E28.26788
G1 X49.484 Y11.018 E28.32690
G1 X49.759 Y11.294 E28.35640
G1 X50.035 Y11.018 E28.38591
G1 X50.310 Y11.294 E28.41541
G1 X50.035 Y11.569 E28.44492
G1 X50.310 Y11.845 E28.47443
G1 X50.861 Y11.294 E28.53344
G1 X50.586 Y11.018 E28.56294
G1 X50.861 Y10.743 E28.59245
G1 X51.137 Y11.018 E28.62196
G1 X51.688 Y10.467 E28.68097
G1 X51.412 Y10.192 E28.71047
G1 X51.137 Y10.467 E28.73998
G1 X50.586 Y9.917 E28.79899
G1 X50.861 Y9.641 E28.82850
G1 X51.137 Y9.917 E28.85800
G1 X51.412 Y9.641 E28.88751
G1 X51.137 Y9.366 E28.91702
G1 X51.412 Y9.090 E28.94652
G1 X51.963 Y9.641 E29.00553
G1 X51.688 Y9.917 E29.03504
G1 X51.963 Y10.192 E29.06455
G1 X52.514 Y9.641 E29.12356
G1 X52.239 Y9.366 E29.15306
G1 X52.514 Y9.090 E29.18257
G1 X52.789 Y9.366 E29.21208
G1 X53.340 Y8.815 E29.27109
G1 X53.065 Y8.539 E29.30059
G1 X52.789 Y8.815 E29.33010
G1 X52.514 Y8.539 E29.35961
G1 X52.789 Y8.264 E29.38911
G1 X52.514 Y7.988 E29.41862
G1 X51.963 Y8.539 E29.47763
G1 X52.239 Y8.815 E29.50714
G1 X51.963 Y9.090 E29.53664
G1 X51.688 Y8.815 E29.56615
G1 X51.137 Y8.264 E29.62516
G1 X51.412 Y7.988 E29.65467
G1 X51.688 Y8.264 E29.68417
G1 X52.239 Y7.713 E29.74318
G1 X51.963 Y7.437 E29.77269
G1 X51.688 Y7.713 E29.80219
G1 X51.412 Y7.437 E29.83170
G1 X51.688 Y7.162 E29.86121
G1 X51.412 Y6.886 E29.89071
G1 X50.861 Y7.437 E29.94972
G1 X51.137 Y7.713 E29.97923
G1 X50.861 Y7.988 E30.00874
G1 X50.586 Y7.713 E30.03824
G1 X50.035 Y8.264 E30.09725
G1 X50.310 Y8.539 E30.12676
G1 X50.586 Y8.264 E30.15627
G1 X51.137 Y8.815 E30.21528
G1 X50.861 Y9.090 E30.24478
G1 X50.586 Y8.815 E30.27429
G1 X50.310 Y9.090 E30.30380
G1 X50.586 Y9.366 E30.33330
G1 X50.310 Y9.641 E30.36281
G1 X49.759 Y9.090 E30.42182
G1 X50.035 Y8.815 E30.45133
G1 X49.759 Y8.539 E30.48083
G1 X49.484 Y8.815 E30.51034
G1 X49.209 Y8.539 E30.53984
G1 X49.484 Y8.264 E30.56935
G1 X49.209 Y7.988 E30.59886
G1 X48.933 Y8.264 E30.62836
G1 X48.382 Y7.713 E30.68737
G1 X48.658 Y7.437 E30.71688
G1 X48.933 Y7.713 E30.74639
G1 X49.209 Y7.437 E30.77589
G1 X48.933 Y7.162 E30.80540
G1 X49.209 Y6.886 E30.83490
G1 X49.759 Y7.437 E30.89392
G1 X49.484 Y7.713 E30.92342
G1 X49.759 Y7.988 E30.95293
G1 X50.310 Y7.437 E31.01194
G1 X50.035 Y7.162 E31.04145
G1 X50.310 Y6.886 E31.07095
G1 X50.586 Y7.162 E31.10046
G1 X51.137 Y6.611 E31.15947
G1 X50.861 Y6.336 E31.18898
G1 X50.586 Y6.611 E31.21848
G1 X50.310 Y6.336 E31.24799
G1 X50.586 Y6.060 E31.27749
G1 X50.310 Y5.785 E31.30700
G1 X49.759 Y6.336 E31.36601
G1 X50.035 Y6.611 E31.39552
G1 X49.759 Y6.886 E31.42502
G1 X49.209 Y6.336 E31.48404
G1 X48.933 Y6.060 E31.51354
G1 X49.209 Y5.785 E31.54305
G1 X49.484 Y6.060 E31.57255
G1 X50.035 Y5.509 E31.63157
G1 X49.759 Y5.234 E31.66107
G1 X49.484 Y5.509 E31.69058
G1 X49.209 Y5.234 E31.72008
G1 X49.484 Y4.958 E31.74959
G1 X49.209 Y4.683 E31.77910
G1 X48.658 Y5.234 E31.83811
G1 X48.933 Y5.509 E31.86761
G1 X48.658 Y5.785 E31.89712
G1 X48.382 Y5.509 E31.92662
G1 X47.831 Y6.060 E31.98564
G1 X48.107 Y6.336 E32.01514
G1 X48.382 Y6.060 E32.04465
G1 X48.933 Y6.611 E32.10366
G1 X48.658 Y6.886 E32.13317
G1 X48.382 Y6.611 E32.16267
G1 X48.107 Y6.886 E32.19218
G1 X48.382 Y7.162 E32.22168
G1 X48.107 Y7.437 E32.25119
G1 X47.556 Y6.886 E32.31020
G1 X47.831 Y6.611 E32.33971
G1 X47.556 Y6.336 E32.36921
G1 X47.005 Y6.886 E32.42823
G1 X47.280 Y7.162 E32.45773
G1 X47.005 Y7.437 E32.48724
G1 X46.729 Y7.162 E32.51674
G1 X46.178 Y7.713 E32.57576
G1 X46.454 Y7.988 E32.60526
G1 X46.729 Y7.713 E32.63477
G1 X47.005 Y7.988 E32.66427
G1 X46.729 Y8.264 E32.69378
G1 X47.005 Y8.539 E32.72329
G1 X47.556 Y7.988 E32.78230
G1 X47.280 Y7.713 E32.81180
G1 X47.556 Y7.437 E32.84131
G1 X48.107 Y7.988 E32.90032
G1 X47.831 Y8.264 E32.92983
G1 X48.107 Y8.539 E32.95933
G1 X48.382 Y8.264 E32.98884
G1 X48.933 Y8.815 E33.04785
G1 X48.658 Y9.090 E33.07736
G1 X48.382 Y8.815 E33.10686
G1 X48.107 Y9.090 E33.13637
G1 X48.382 Y9.366 E33.16588
G1 X48.107 Y9.641 E33.19538
G1 X47.556 Y9.090 E33.25439
G1 X47.831 Y8.815 E33.28390
G1 X47.556 Y8.539 E33.31341
G1 X46.729 Y9.366 E33.40192
G1 X47.005 Y9.641 E33.43143
G1 X47.280 Y9.366 E33.46094
G1 X47.831 Y9.917 E33.51995
G1 X47.556 Y10.192 E33.54945
G1 X47.280 Y9.917 E33.57896
G1 X47.005 Y10.192 E33.60847
G1 X47.280 Y10.467 E33.63797
G1 X47.005 Y10.743 E33.66748
G1 X46.454 Y10.192 E33.72649
G1 X46.729 Y9.917 E33.75600
G1 X46.454 Y9.641 E33.78550
G1 X46.178 Y9.917 E33.81501
G1 X45.628 Y9.366 E33.87402
G1 X45.903 Y9.090 E33.90353
G1 X46.178 Y9.366 E33.93303
G1 X46.729 Y8.815 E33.99204
G1 X46.454 Y8.539 E34.02155
G1 X46.178 Y8.815 E34.05105
G1 X45.903 Y8.539 E34.08056
G1 X46.178 Y8.264 E34.11007
G1 X45.903 Y7.988 E34.13957
G1 X45.352 Y8.539 E34.19858
G1 X45.628 Y8.815 E34.22809
G1 X45.352 Y9.090 E34.25760
G1 X45.077 Y8.815 E34.28710
G1 X44.526 Y9.366 E34.34611
G1 X44.801 Y9.641 E34.37562
G1 X45.077 Y9.366 E34.40513
G1 X45.628 Y9.917 E34.46414
G1 X45.352 Y10.192 E34.49364
G1 X45.077 Y9.917 E34.52315
G1 X44.801 Y10.192 E34.55266
G1 X45.077 Y10.467 E34.58216
G1 X44.801 Y10.743 E34.61167
G1 X44.250 Y10.192 E34.67068
G1 X44.526 Y9.917 E34.70019
G1 X44.250 Y9.641 E34.72969
G1 X43.699 Y10.192 E34.78870
G1 X43.975 Y10.467 E34.81821
G1 X43.699 Y10.743 E34.84772
G1 X43.424 Y10.467 E34.87722
G1 X42.873 Y11.018 E34.93623
G1 X43.148 Y11.294 E34.96574
G1 X43.424 Y11.018 E34.99525
G1 X43.699 Y11.294 E35.02475
G1 X43.424 Y11.569 E35.05426
G1 X43.699 Y11.845 E35.08376
G1 X44.250 Y11.294 E35.14278
G1 X43.975 Y11.018 E35.17228
G1 X44.250 Y10.743 E35.20179
G1 X45.077 Y11.569 E35.29031
G1 X44.801 Y11.845 E35.31981
G1 X44.526 Y11.569 E35.34932
G1 X43.975 Y12.120 E35.40833
G1 X44.250 Y12.396 E35.43784
G1 X44.526 Y12.120 E35.46734
G1 X44.801 Y12.396 E35.49685
G1 X44.526 Y12.671 E35.52635
G1 X44.801 Y12.947 E35.55586
G1 X45.352 Y12.396 E35.61487
G1 X45.077 Y12.120 E35.64438
G1 X45.352 Y11.845 E35.67388
G1 X45.628 Y12.120 E35.70339
G1 X46.178 Y11.569 E35.76240
G1 X45.903 Y11.294 E35.79191
G1 X45.628 Y11.569 E35.82141
G1 X45.077 Y11.018 E35.88043
G1 X45.352 Y10.743 E35.90993
G1 X45.628 Y11.018 E35.93944
G1 X45.903 Y10.743 E35.96894
G1 X45.628 Y10.467 E35.99845
G1 X45.903 Y10.192 E36.02795
G1 X46.454 Y10.743 E36.08697
G1 X46.178 Y11.018 E36.11647
G1 X46.454 Y11.294 E36.14598
G1 X46.729 Y11.018 E36.17548
G1 X47.280 Y11.569 E36.23450
G1 X47.005 Y11.845 E36.26400
G1 X46.729 Y11.569 E36.29351
G1 X46.178 Y12.120 E36.35252
G1 X46.454 Y12.396 E36.38203
G1 X46.729 Y12.120 E36.41153
G1 X47.005 Y12.396 E36.44104
G1 X46.729 Y12.671 E36.47054
G1 X47.005 Y12.947 E36.50005
G1 X47.556 Y12.396 E36.55906
G1 X47.280 Y12.120 E36.58857
G1 X47.556 Y11.845 E36.61807
G1 X48.107 Y12.396 E36.67709
G1 X47.831 Y12.671 E36.70659
G1 X48.107 Y12.947 E36.73610
G1 X48.382 Y12.671 E36.76560
G1 X48.933 Y13.222 E36.82462
G1 X48.658 Y13.497 E36.85412
G1 X48.382 Y13.222 E36.88363
G1 X48.107 Y13.497 E36.91313
G1 X48.382 Y13.773 E36.94264
G1 X48.107 Y14.048 E36.97215
G1 X47.556 Y13.497 E37.03116
G1 X47.831 Y13.222 E37.06066
G1 X47.556 Y12.947 E37.09017
G1 X46.729 Y13.773 E37.17869
G1 X47.005 Y14.048 E37.20819
G1 X47.280 Y13.773 E37.23770
G1 X47.831 Y14.324 E37.29671
G1 X47.556 Y14.599 E37.32622
G1 X47.280 Y14.324 E37.35572
G1 X47.005 Y14.599 E37.38523
G1 X47.280 Y14.875 E37.41474
G1 X47.005 Y15.150 E37.44424
G1 X46.454 Y14.599 E37.50325
G1 X46.729 Y14.324 E37.53276
G1 X46.454 Y14.048 E37.56227
G1 X46.178 Y14.324 E37.59177
G1 X45.628 Y13.773 E37.65078
G1 X45.903 Y13.497 E37.68029
G1 X46.178 Y13.773 E37.70980
G1 X46.729 Y13.222 E37.76881
G1 X46.454 Y12.947 E37.79831
G1 X46.178 Y13.222 E37.82782
G1 X45.903 Y12.947 E37.85733
G1 X46.178 Y12.671 E37.88683
G1 X45.903 Y12.396 E37.91634
G1 X45.352 Y12.947 E37.97535
G1 X45.628 Y13.222 E38.00486
G1 X45.352 Y13.497 E38.03436
G1 X45.077 Y13.222 E38.06387
G1 X44.801 Y13.497 E38.09337
G1 X45.077 Y13.773 E38.12288
G1 X44.801 Y14.048 E38.15239
G1 X44.526 Y13.773 E38.18189
G1 X43.975 Y14.324 E38.24090
G1 X44.250 Y14.599 E38.27041
G1 X44.526 Y14.324 E38.29992
G1 X44.801 Y14.599 E38.32942
G1 X44.526 Y14.875 E38.35893
G1 X44.801 Y15.150 E38.38843
G1 X45.352 Y14.599 E38.44745
G1 X45.077 Y14.324 E38.47695
G1 X45.352 Y14.048 E38.50646
G1 X45.903 Y14.599 E38.56547
G1 X45.628 Y14.875 E38.59497
G1 X45.903 Y15.150 E38.62448
G1 X46.178 Y14.875 E38.65399
G1 X46.729 Y15.426 E38.71300
G1 X46.454 Y15.701 E38.74250
G1 X46.178 Y15.426 E38.77201
G1 X45.903 Y15.701 E38.80152
G1 X46.178 Y15.977 E38.83102
G1 X46.094 Y16.061 E38.84011
G1 X45.741 Y16.090 F3600.000
G1 X45.352 Y15.701 E38.88177 F1500.000
G1 X45.628 Y15.426 E38.91127
G1 X45.352 Y15.150 E38.94078
G1 X44.526 Y15.977 E39.02930
G1 X44.722 Y16.173 E39.05030
G1 X44.895 Y16.159 F3600.000
G1 X45.077 Y15.977 E39.06980 F1500.000
G1 X45.231 Y16.131 E39.08638
G1 X43.703 Y16.255 F3600.000
