; generated by Slic3r 1.2.9 on 2017-06-19 at 17:16:11

; external perimeters extrusion width = 0.40mm
; perimeters extrusion width = 0.40mm
; infill extrusion width = 0.40mm
; solid infill extrusion width = 0.40mm
; top infill extrusion width = 0.40mm
; support material extrusion width = 0.40mm

M107
M190 S77 ; set bed temperature
M104 S280 ; set temperature

G1 Z5 F5000 ; lift nozzle

M109 S280 ; wait for temperature to be reached
G21 ; set units to millimeters
G90 ; use absolute coordinates
M82 ; use absolute distances for extrusion
G92 E0
G1 Z0.496 F3600.000
G1 E-2.00000 F2400.00000
G92 E0
G1 X59.432 Y15.376 F3600.000
G1 E2.00000 F2400.00000
G1 X49.843 Y16.090 E2.72832 F1500.000
G1 X41.215 Y16.789 E3.38395
G1 X32.117 Y17.588 E4.07570
G1 X31.558 Y17.585 E4.11808
G1 X31.371 Y17.539 E4.13265
G1 X31.290 Y17.457 E4.14136
G1 X31.215 Y17.258 E4.15752
G1 X31.148 Y16.904 E4.18476
G1 X30.822 Y13.438 E4.44843
G1 X30.641 Y11.003 E4.63344
G1 X30.529 Y9.174 E4.77220
G1 X30.388 Y6.119 E5.00386
G1 X30.293 Y2.447 E5.28202
G1 X30.276 Y-0.615 E5.51401
G1 X30.330 Y-4.284 E5.79193
G1 X30.438 Y-7.341 E6.02357
G1 X30.602 Y-10.393 E6.25508
G1 X30.873 Y-14.049 E6.53275
G1 X31.148 Y-16.904 E6.75000
G1 X31.215 Y-17.258 E6.77729
G1 X31.290 Y-17.457 E6.79346
G1 X31.371 Y-17.539 E6.80216
G1 X31.546 Y-17.583 E6.81581
G1 X31.901 Y-17.597 E6.84273
G1 X41.879 Y-16.733 E7.60133
G1 X49.847 Y-16.089 E8.20681 F1500.000
G1 X59.025 Y-15.404 E8.90389
G1 X68.911 Y-14.723 E9.65449
G1 X69.484 Y-14.635 E9.69834
G1 X69.701 Y-14.553 E9.71597
G1 X69.723 Y-14.300 E9.73516
G1 X69.378 Y-10.236 E10.04413
G1 X69.185 Y-7.168 E10.27691
G1 X69.045 Y-3.586 E10.54846
G1 X68.999 Y0.000 E10.82009
G1 X69.045 Y3.586 E11.09171
G1 X69.185 Y7.168 E11.36326
G1 X69.378 Y10.236 E11.59605
G1 X69.723 Y14.300 E11.90501
G1 X69.701 Y14.553 E11.92420
G1 X69.484 Y14.635 E11.94184
G1 X68.911 Y14.723 E11.98569
G1 X59.507 Y15.371 E12.69968
G1 X59.534 Y15.759 F3600.000
G1 X49.873 Y16.478 E13.43342 F1500.000
G1 X41.248 Y17.177 E14.08886
G1 X32.138 Y17.978 E14.78150
G1 X31.694 Y17.987 E14.81514
G1 X31.342 Y17.941 E14.84205
G1 X31.208 Y17.895 E14.85279
G1 X31.104 Y17.835 E14.86186
G1 X31.022 Y17.755 E14.87054
G1 X30.950 Y17.649 E14.88026
G1 X30.837 Y17.353 E14.90425
G1 X30.762 Y16.959 E14.93463
G1 X30.434 Y13.471 E15.20000
G1 X30.253 Y11.029 E15.38548
G1 X30.140 Y9.195 E15.52465
G1 X29.998 Y6.133 E15.75683
G1 X29.903 Y2.454 E16.03560
G1 X29.886 Y-0.617 E16.26818
G1 X29.941 Y-4.294 E16.54670
G1 X30.048 Y-7.358 E16.77892
G1 X30.213 Y-10.418 E17.01100
G1 X30.485 Y-14.082 E17.28929
G1 X30.762 Y-16.959 E17.50823
G1 X30.837 Y-17.353 E17.53864
G1 X30.950 Y-17.649 E17.56262
G1 X31.022 Y-17.755 E17.57234
G1 X31.104 Y-17.835 E17.58102
G1 X31.208 Y-17.895 E17.59010
G1 X31.342 Y-17.941 E17.60083
G1 X31.502 Y-17.971 E17.61316
G1 X31.910 Y-17.988 E17.64409
G1 X41.912 Y-17.121 E18.40448
G1 X49.877 Y-16.478 E19.00978 F1500.000
G1 X59.053 Y-15.793 E19.70669
G1 X68.954 Y-15.110 E20.45843
G1 X69.584 Y-15.014 E20.50663
G1 X69.875 Y-14.903 E20.53022
G1 X70.015 Y-14.777 E20.54450
G1 X70.089 Y-14.590 E20.55976
G1 X70.114 Y-14.300 E20.58179
G1 X69.766 Y-10.207 E20.89296
G1 X69.574 Y-7.149 E21.12506
G1 X69.435 Y-3.576 E21.39588
G1 X69.388 Y0.000 E21.66674
G1 X69.435 Y3.576 E21.93760
G1 X69.574 Y7.149 E22.20841
G1 X69.766 Y10.207 E22.44052
G1 X70.114 Y14.300 E22.75169
G1 X70.089 Y14.590 E22.77372
G1 X70.059 Y14.692 E22.78177
G1 X69.955 Y14.846 E22.79586
G1 X69.875 Y14.903 E22.80333
G1 X69.584 Y15.014 E22.82692
G1 X68.954 Y15.110 E22.87512
G1 X59.609 Y15.754 E23.58466
G1 X59.253 Y15.346 F3600.000
G1 X59.597 Y15.033 F3600.000
G1 X60.445 Y14.453 E23.66250 F1500.000
G1 X61.367 Y13.735 E23.75101
G1 X62.239 Y12.957 E23.83951
G1 X63.059 Y12.125 E23.92801
G1 X63.823 Y11.240 E24.01652
G1 X64.526 Y10.307 E24.10502
G1 X65.168 Y9.331 E24.19352
G1 X65.559 Y8.657 E24.25253
G1 X66.090 Y7.616 E24.34104
G1 X66.551 Y6.542 E24.42954
G1 X66.941 Y5.441 E24.51804
G1 X67.257 Y4.316 E24.60655
G1 X67.499 Y3.173 E24.69505
G1 X67.666 Y2.016 E24.78356
G1 X67.756 Y0.851 E24.87206
G1 X67.774 Y0.072 E24.93107
G1 X67.736 Y-1.095 E25.01957
G1 X67.622 Y-2.258 E25.10807
G1 X67.431 Y-3.411 E25.19658
G1 X67.165 Y-4.549 E25.28508
G1 X66.825 Y-5.667 E25.37359
G1 X66.412 Y-6.760 E25.46209
G1 X65.928 Y-7.823 E25.55059
G1 X65.566 Y-8.514 E25.60960
G1 X64.969 Y-9.518 E25.69811
G1 X64.306 Y-10.480 E25.78661
G1 X63.582 Y-11.397 E25.87511
G1 X62.799 Y-12.264 E25.96362
G1 X61.960 Y-13.078 E26.05212
G1 X61.070 Y-13.834 E26.14062
G1 X60.131 Y-14.531 E26.22913
G1 X59.332 Y-15.051 E26.30138
G1 X60.140 Y-14.996 F3600.000
G1 X61.033 Y-14.357 E26.38455 F1500.000
G1 X61.938 Y-13.619 E26.47306
G1 X62.794 Y-12.823 E26.56156
G1 X63.597 Y-11.974 E26.65006
G1 X64.102 Y-11.381 E26.70907
G1 X64.809 Y-10.450 E26.79758
G1 X65.455 Y-9.477 E26.88608
G1 X66.037 Y-8.463 E26.97459
G1 X66.388 Y-7.768 E27.03359
G1 X66.858 Y-6.698 E27.12210
G1 X67.258 Y-5.600 E27.21060
G1 X67.586 Y-4.479 E27.29911
G1 X67.765 Y-3.721 E27.35812
G1 X67.971 Y-2.570 E27.44662
G1 X68.104 Y-1.409 E27.53512
G1 X68.161 Y-0.242 E27.62363
G1 X68.157 Y0.537 E27.68264
G1 X68.089 Y1.703 E27.77114
G1 X67.946 Y2.863 E27.85965
G1 X67.729 Y4.011 E27.94815
G1 X67.438 Y5.143 E28.03665
G1 X67.076 Y6.254 E28.12516
G1 X66.643 Y7.339 E28.21366
G1 X66.141 Y8.394 E28.30217
G1 X65.769 Y9.079 E28.36118
G1 X65.157 Y10.074 E28.44968
G1 X64.482 Y11.028 E28.53819
G1 X63.748 Y11.937 E28.62669
G1 X62.957 Y12.797 E28.71519
G1 X62.112 Y13.605 E28.80370
G1 X61.218 Y14.356 E28.89220
G1 X60.377 Y14.979 E28.97146
G1 X61.112 Y14.928 F3600.000
G1 X61.761 Y14.420 E29.03391 F1500.000
G1 X62.640 Y13.650 E29.12242
G1 X63.469 Y12.827 E29.21092
G1 X64.245 Y11.953 E29.29943
G1 X64.965 Y11.033 E29.38793
G1 X65.625 Y10.068 E29.47644
G1 X66.224 Y9.065 E29.56494
G1 X66.587 Y8.376 E29.62395
G1 X67.077 Y7.315 E29.71245
G1 X67.499 Y6.225 E29.80096
G1 X67.853 Y5.112 E29.88946
G1 X68.049 Y4.358 E29.94847
G1 X68.283 Y3.213 E30.03698
G1 X68.445 Y2.056 E30.12548
G1 X68.513 Y1.280 E30.18449
G1 X68.553 Y0.112 E30.27300
G1 X68.519 Y-1.056 E30.36150
G1 X68.412 Y-2.220 E30.45001
G1 X68.232 Y-3.374 E30.53851
G1 X67.979 Y-4.515 E30.62702
G1 X67.655 Y-5.638 E30.71552
G1 X67.261 Y-6.738 E30.80402
G1 X66.798 Y-7.811 E30.89253
G1 X66.453 Y-8.509 E30.95154
G1 X65.880 Y-9.528 E31.04004
G1 X65.244 Y-10.508 E31.12855
G1 X64.548 Y-11.447 E31.21705
G1 X64.052 Y-12.047 E31.27606
G1 X63.260 Y-12.907 E31.36457
G1 X62.417 Y-13.715 E31.45307
G1 X61.524 Y-14.469 E31.54158
G1 X60.896 Y-14.944 E31.60117
G1 X61.612 Y-14.894 F3600.000
G1 X62.226 Y-14.398 E31.66097 F1500.000
G1 X62.811 Y-13.883 E31.71997
G1 X63.374 Y-13.345 E31.77898
G1 X64.176 Y-12.496 E31.86749
G1 X64.681 Y-11.902 E31.92650
G1 X65.161 Y-11.289 E31.98551
G1 X65.616 Y-10.656 E32.04452
G1 X66.248 Y-9.673 E32.13302
G1 X66.634 Y-8.997 E32.19203
G1 X66.993 Y-8.305 E32.25104
G1 X67.323 Y-7.599 E32.31005
G1 X67.763 Y-6.517 E32.39855
G1 X68.018 Y-5.781 E32.45756
G1 X68.345 Y-4.659 E32.54607
G1 X68.523 Y-3.900 E32.60508
G1 X68.705 Y-2.918 E32.68074
G1 X68.754 Y-4.625 F3600.000
G1 X68.578 Y-5.284 E32.73245 F1500.000
G1 X68.347 Y-6.028 E32.79146
G1 X68.087 Y-6.763 E32.85046
G1 X67.797 Y-7.486 E32.90947
G1 X67.478 Y-8.197 E32.96848
G1 X67.131 Y-8.894 E33.02749
G1 X66.756 Y-9.577 E33.08650
G1 X66.354 Y-10.244 E33.14551
G1 X65.925 Y-10.894 E33.20452
G1 X65.470 Y-11.527 E33.26353
G1 X64.990 Y-12.141 E33.32254
G1 X64.485 Y-12.734 E33.38154
G1 X63.957 Y-13.307 E33.44055
G1 X63.407 Y-13.858 E33.49956
G1 X62.834 Y-14.387 E33.55857
G1 X62.294 Y-14.847 E33.61231
G1 X62.951 Y-14.802 F3600.000
G1 X63.917 Y-13.904 E33.71226 F1500.000
G1 X64.721 Y-13.056 E33.80077
G1 X65.473 Y-12.161 E33.88927
G1 X65.944 Y-11.541 E33.94828
G1 X66.390 Y-10.902 E34.00729
G1 X67.011 Y-9.912 E34.09580
G1 X67.392 Y-9.233 E34.15481
G1 X67.746 Y-8.539 E34.21382
G1 X68.072 Y-7.831 E34.27283
G1 X68.370 Y-7.111 E34.33183
G1 X68.803 Y-5.882 E34.43054
G1 X68.845 Y-6.957 F3600.000
G1 X68.610 Y-7.561 E34.47963 F1500.000
G1 X68.300 Y-8.276 E34.53864
G1 X67.785 Y-9.325 E34.62715
G1 X67.209 Y-10.341 E34.71566
G1 X66.575 Y-11.323 E34.80416
G1 X65.885 Y-12.266 E34.89267
G1 X65.142 Y-13.168 E34.98118
G1 X64.347 Y-14.024 E35.06968
G1 X63.585 Y-14.758 E35.14981
G1 X64.200 Y-14.716 F3600.000
G1 X64.967 Y-13.941 E35.23240 F1500.000
G1 X65.742 Y-13.066 E35.32090
G1 X66.230 Y-12.458 E35.37991
G1 X66.917 Y-11.513 E35.46842
G1 X67.345 Y-10.862 E35.52743
G1 X67.940 Y-9.857 E35.61594
G1 X68.476 Y-8.818 E35.70444
G1 X68.898 Y-7.881 E35.78231
G1 X68.951 Y-8.725 F3600.000
G1 X68.595 Y-9.456 E35.84387 F1500.000
G1 X68.227 Y-10.142 E35.90288
G1 X67.833 Y-10.815 E35.96189
G1 X67.197 Y-11.795 E36.05040
G1 X66.742 Y-12.427 E36.10941
G1 X66.017 Y-13.344 E36.19792
G1 X65.505 Y-13.931 E36.25693
G1 X64.798 Y-14.675 E36.33462
G1 X65.383 Y-14.634 F3600.000
G1 X65.966 Y-14.000 E36.39985 F1500.000
G1 X66.470 Y-13.407 E36.45886
G1 X66.953 Y-12.795 E36.51787
G1 X67.413 Y-12.166 E36.57688
G1 X67.849 Y-11.521 E36.63588
G1 X68.261 Y-10.860 E36.69489
G1 X68.649 Y-10.184 E36.75390
G1 X69.001 Y-9.516 E36.81108
G1 X69.048 Y-10.265 F3600.000
G1 X68.430 Y-11.332 E36.90447 F1500.000
G1 X68.008 Y-11.987 E36.96348
G1 X67.563 Y-12.626 E37.02249
G1 X66.853 Y-13.554 E37.11100
G1 X65.953 Y-14.595 E37.21517
G1 X66.513 Y-14.556 F3600.000
G1 X67.165 Y-13.787 E37.29153 F1500.000
G1 X67.875 Y-12.859 E37.38004
G1 X68.535 Y-11.895 E37.46855
G1 X69.107 Y-10.957 E37.55171
G1 X69.164 Y-11.625 F3600.000
G1 X68.572 Y-12.545 E37.63455 F1500.000
G1 X68.123 Y-13.181 E37.69356
G1 X67.652 Y-13.802 E37.75257
G1 X67.063 Y-14.518 E37.82282
G1 X67.604 Y-14.481 F3600.000
G1 X68.068 Y-13.902 E37.87905 F1500.000
G1 X68.534 Y-13.277 E37.93806
G1 X69.219 Y-12.271 E38.03021
G1 X69.272 Y-12.899 F3600.000
G1 X68.651 Y-13.777 E38.11168 F1500.000
G1 X68.136 Y-14.444 E38.17553
G1 X68.661 Y-14.408 F3600.000
G1 X69.324 Y-13.510 E38.26008 F1500.000
G1 X69.375 Y-14.109 F3600.000
G1 X69.200 Y-14.344 E38.28226 F1500.000
G1 X58.453 Y-15.115 F3600.000
G1 X59.443 Y-14.522 E38.36967 F1500.000
G1 X60.403 Y-13.856 E38.45817
G1 X61.316 Y-13.127 E38.54668
G1 X62.177 Y-12.337 E38.63518
G1 X62.984 Y-11.492 E38.72368
G1 X63.732 Y-10.594 E38.81218
G1 X64.417 Y-9.648 E38.90069
G1 X65.037 Y-8.658 E38.98919
G1 X65.413 Y-7.975 E39.04820
G1 X65.919 Y-6.922 E39.13670
G1 X66.352 Y-5.837 E39.22521
G1 X66.712 Y-4.725 E39.31371
G1 X66.996 Y-3.591 E39.40221
G1 X67.203 Y-2.441 E39.49071
G1 X67.332 Y-1.280 E39.57922
G1 X67.383 Y-0.113 E39.66772
G1 X67.356 Y1.055 E39.75622
G1 X67.250 Y2.219 E39.84473
G1 X67.066 Y3.373 E39.93323
G1 X66.805 Y4.512 E40.02173
G1 X66.468 Y5.631 E40.11024
G1 X66.057 Y6.725 E40.19874
G1 X65.574 Y7.788 E40.28724
G1 X65.020 Y8.817 E40.37575
G1 X64.399 Y9.807 E40.46425
G1 X63.712 Y10.752 E40.55275
G1 X62.964 Y11.650 E40.64125
G1 X62.157 Y12.495 E40.72976
G1 X61.296 Y13.285 E40.81826
G1 X60.383 Y14.015 E40.90676
G1 X59.424 Y14.682 E40.99527
G1 X58.755 Y15.093 E41.05471
G1 X57.823 Y15.163 F3600.000
G1 X58.804 Y14.611 E41.13993 F1500.000
G1 X59.781 Y13.970 E41.22843
G1 X60.712 Y13.264 E41.31693
G1 X61.593 Y12.496 E41.40543
G1 X62.419 Y11.670 E41.49394
G1 X63.186 Y10.788 E41.58244
G1 X63.891 Y9.857 E41.67094
G1 X64.530 Y8.879 E41.75944
G1 X65.101 Y7.859 E41.84795
G1 X65.601 Y6.803 E41.93645
G1 X66.027 Y5.715 E42.02495
G1 X66.378 Y4.600 E42.11345
G1 X66.651 Y3.464 E42.20196
G1 X66.845 Y2.312 E42.29046
G1 X66.960 Y1.149 E42.37896
G1 X66.994 Y-0.019 E42.46746
G1 X66.949 Y-1.186 E42.55597
G1 X66.823 Y-2.348 E42.64447
G1 X66.617 Y-3.498 E42.73297
G1 X66.333 Y-4.632 E42.82147
G1 X65.972 Y-5.743 E42.90997
G1 X65.535 Y-6.827 E42.99848
G1 X65.025 Y-7.878 E43.08698
G1 X64.443 Y-8.891 E43.17548
G1 X63.793 Y-9.862 E43.26398
G1 X63.078 Y-10.786 E43.35249
G1 X62.300 Y-11.658 E43.44099
G1 X61.465 Y-12.475 E43.52949
G1 X60.575 Y-13.232 E43.61799
G1 X59.635 Y-13.927 E43.70650
G1 X58.649 Y-14.554 E43.79500
G1 X57.969 Y-14.934 E43.85401
G1 X57.465 Y-15.189 E43.89677
G1 X56.325 Y-15.274 F3600.000
G1 X57.397 Y-14.790 E43.98583 F1500.000
G1 X58.425 Y-14.234 E44.07433
G1 X59.411 Y-13.608 E44.16283
G1 X60.350 Y-12.913 E44.25134
G1 X61.239 Y-12.154 E44.33984
G1 X62.071 Y-11.334 E44.42834
G1 X62.844 Y-10.457 E44.51684
G1 X63.324 Y-9.844 E44.57585
G1 X63.774 Y-9.208 E44.63486
G1 X64.392 Y-8.217 E44.72336
G1 X64.939 Y-7.184 E44.81186
G1 X65.412 Y-6.116 E44.90036
G1 X65.809 Y-5.017 E44.98886
G1 X66.127 Y-3.892 E45.07736
G1 X66.365 Y-2.748 E45.16587
G1 X66.523 Y-1.591 E45.25437
G1 X66.582 Y-0.814 E45.31338
G1 X66.605 Y-0.035 E45.37238
G1 X66.570 Y1.133 E45.46089
G1 X66.454 Y2.296 E45.54939
G1 X66.256 Y3.447 E45.63789
G1 X65.978 Y4.582 E45.72639
G1 X65.621 Y5.695 E45.81489
G1 X65.186 Y6.779 E45.90339
G1 X64.677 Y7.831 E45.99190
G1 X64.297 Y8.511 E46.05090
G1 X63.885 Y9.172 E46.10991
G1 X63.211 Y10.126 E46.19841
G1 X62.471 Y11.031 E46.28691
G1 X61.670 Y11.882 E46.37542
G1 X60.811 Y12.674 E46.46392
G1 X59.899 Y13.404 E46.55242
G1 X58.938 Y14.068 E46.64092
G1 X57.932 Y14.664 E46.72942
G1 X57.240 Y15.021 E46.78843
G1 X56.765 Y15.241 E46.82809
G1 X55.493 Y15.336 F3600.000
G1 X56.076 Y15.113 E46.87538 F1500.000
G1 X56.790 Y14.803 E46.93439
G1 X57.832 Y14.274 E47.02289
G1 X58.834 Y13.672 E47.11139
G1 X59.789 Y12.999 E47.19989
G1 X60.694 Y12.260 E47.28839
G1 X61.266 Y11.732 E47.34740
G1 X61.813 Y11.176 E47.40641
G1 X62.582 Y10.296 E47.49491
G1 X63.285 Y9.364 E47.58341
G1 X63.716 Y8.715 E47.64242
G1 X64.116 Y8.046 E47.70143
G1 X64.653 Y7.008 E47.78993
G1 X65.115 Y5.935 E47.87843
G1 X65.499 Y4.831 E47.96693
G1 X65.710 Y4.081 E48.02594
G1 X65.884 Y3.322 E48.08494
G1 X66.078 Y2.170 E48.17344
G1 X66.188 Y1.007 E48.26195
G1 X66.214 Y-0.162 E48.35045
G1 X66.184 Y-0.940 E48.40945
G1 X66.118 Y-1.716 E48.46846
G1 X65.948 Y-2.872 E48.55696
G1 X65.695 Y-4.013 E48.64546
G1 X65.360 Y-5.133 E48.73396
G1 X65.093 Y-5.864 E48.79297
G1 X64.791 Y-6.582 E48.85198
G1 X64.273 Y-7.630 E48.94048
G1 X63.682 Y-8.638 E49.02898
G1 X63.019 Y-9.600 E49.11748
G1 X62.539 Y-10.214 E49.17649
G1 X62.031 Y-10.804 E49.23550
G1 X61.216 Y-11.641 E49.32400
G1 X60.343 Y-12.418 E49.41250
G1 X59.416 Y-13.129 E49.50100
G1 X58.770 Y-13.565 E49.56001
G1 X58.104 Y-13.970 E49.61902
G1 X57.071 Y-14.515 E49.70752
G1 X56.001 Y-14.985 E49.79602
G1 X54.878 Y-15.382 E49.88628
G1 X52.207 Y-15.581 F3600.000
G1 X52.942 Y-15.463 E49.94267 F1500.000
G1 X53.704 Y-15.301 E50.00167
G1 X54.830 Y-14.989 E50.09017
G1 X55.929 Y-14.594 E50.17867
G1 X56.645 Y-14.286 E50.23768
G1 X57.344 Y-13.942 E50.29669
G1 X58.359 Y-13.364 E50.38519
G1 X59.011 Y-12.937 E50.44420
G1 X59.641 Y-12.479 E50.50320
G1 X60.541 Y-11.734 E50.59170
G1 X61.110 Y-11.202 E50.65071
G1 X61.652 Y-10.642 E50.70972
G1 X62.411 Y-9.753 E50.79822
G1 X62.879 Y-9.131 E50.85723
G1 X63.316 Y-8.486 E50.91623
G1 X63.911 Y-7.481 E51.00473
G1 X64.266 Y-6.787 E51.06374
G1 X64.586 Y-6.077 E51.12275
G1 X65.000 Y-4.984 E51.21125
G1 X65.230 Y-4.240 E51.27026
G1 X65.423 Y-3.485 E51.32926
G1 X65.643 Y-2.337 E51.41776
G1 X65.742 Y-1.565 E51.47677
G1 X65.803 Y-0.788 E51.53578
G1 X65.823 Y0.380 E51.62428
G1 X65.788 Y1.159 E51.68328
G1 X65.715 Y1.934 E51.74229
G1 X65.534 Y3.089 E51.83079
G1 X65.366 Y3.849 E51.88980
G1 X65.161 Y4.601 E51.94881
G1 X64.785 Y5.707 E52.03731
G1 X64.490 Y6.428 E52.09632
G1 X64.159 Y7.134 E52.15532
G1 X63.599 Y8.159 E52.24382
G1 X63.185 Y8.819 E52.30283
G1 X62.738 Y9.457 E52.36184
G1 X62.011 Y10.372 E52.45034
G1 X61.490 Y10.951 E52.50935
G1 X60.941 Y11.504 E52.56835
G1 X60.069 Y12.281 E52.65685
G1 X59.456 Y12.762 E52.71586
G1 X58.821 Y13.213 E52.77487
G1 X57.828 Y13.829 E52.86337
G1 X57.142 Y14.199 E52.92238
G1 X56.439 Y14.535 E52.98138
G1 X55.721 Y14.836 E53.04039
G1 X54.988 Y15.101 E53.09940
G1 X54.243 Y15.330 E53.15841
G1 X53.707 Y15.470 E53.20041
G1 X48.553 Y15.862 F3600.000
G1 X47.298 Y15.703 E53.29625 F1500.000
G1 X46.533 Y15.555 E53.35525
G1 X45.776 Y15.370 E53.41426
G1 X44.660 Y15.024 E53.50276
G1 X43.932 Y14.748 E53.56177
G1 X43.217 Y14.437 E53.62078
G1 X42.177 Y13.905 E53.70928
G1 X41.506 Y13.509 E53.76829
G1 X40.855 Y13.081 E53.82729
G1 X40.226 Y12.622 E53.88630
G1 X39.620 Y12.132 E53.94531
G1 X39.038 Y11.614 E54.00432
G1 X38.483 Y11.068 E54.06332
