; generated by Slic3r 1.2.9 on 2017-06-20 at 12:47:01

; external perimeters extrusion width = 0.40mm
; perimeters extrusion width = 0.40mm
; infill extrusion width = 0.40mm
; solid infill extrusion width = 0.40mm
; top infill extrusion width = 0.40mm
; support material extrusion width = 0.40mm

M107
M104 S250 ; set temperature

G1 Z5 F5000 ; lift nozzle

M109 S250 ; wait for temperature to be reached
G21 ; set units to millimeters
G90 ; use absolute coordinates
M82 ; use absolute distances for extrusion
G92 E0
G1 Z0.496 F3600.000
G1 E-2.00000 F2400.00000
G92 E0
G1 X42.546 Y16.681 F3600.000
G1 E2.00000 F2400.00000
G1 X32.117 Y17.588 E2.79289 F1500.000
G1 X31.558 Y17.585 E2.83527
G1 X31.371 Y17.539 E2.84984
G1 X31.321 Y17.502 E2.85455
G1 X31.215 Y17.258 E2.87475
G1 X31.148 Y16.904 E2.90199
G1 X30.822 Y13.438 E3.16566
G1 X30.641 Y11.003 E3.35067
G1 X30.529 Y9.174 E3.48943
G1 X30.388 Y6.119 E3.72109
G1 X30.293 Y2.447 E3.99925
G1 X30.276 Y-0.615 E4.23123
G1 X30.330 Y-4.284 E4.50916
G1 X30.438 Y-7.341 E4.74080
G1 X30.602 Y-10.393 E4.97231
G1 X30.873 Y-14.049 E5.24997
G1 X31.148 Y-16.904 E5.46723
G1 X31.215 Y-17.258 E5.49452
G1 X31.290 Y-17.457 E5.51068
G1 X31.341 Y-17.521 E5.51684
G1 X31.442 Y-17.563 E5.52514
G1 X31.901 Y-17.597 E5.56003
G1 X41.879 Y-16.733 E6.31863
G1 X49.847 Y-16.089 E6.92411 F1500.000
G1 X59.025 Y-15.404 E7.62119
G1 X68.911 Y-14.723 E8.37178
G1 X69.484 Y-14.635 E8.41564
G1 X69.701 Y-14.553 E8.43327
G1 X69.723 Y-14.300 E8.45246
G1 X69.378 Y-10.236 E8.76142
G1 X69.185 Y-7.168 E8.99421
G1 X69.045 Y-3.586 E9.26576
G1 X68.999 Y0.000 E9.53738
G1 X69.045 Y3.586 E9.80901
G1 X69.185 Y7.168 E10.08056
G1 X69.378 Y10.236 E10.31334
G1 X69.723 Y14.300 E10.62231
G1 X69.701 Y14.553 E10.64150
G1 X69.484 Y14.635 E10.65913
G1 X68.911 Y14.723 E10.70298
G1 X59.202 Y15.392 E11.44017
G1 X49.843 Y16.090 E12.15098
G1 X42.621 Y16.675 E12.69979
G1 X42.653 Y17.063 F3600.000
G1 X32.138 Y17.978 E13.49915 F1500.000
G1 X31.694 Y17.987 E13.53279
G1 X31.342 Y17.941 E13.55970
G1 X31.208 Y17.895 E13.57044
G1 X31.104 Y17.835 E13.57952
G1 X31.022 Y17.755 E13.58819
G1 X30.887 Y17.513 E13.60917
G1 X30.837 Y17.353 E13.62187
G1 X30.762 Y16.959 E13.65226
G1 X30.434 Y13.471 E13.91762
G1 X30.253 Y11.029 E14.10311
G1 X30.140 Y9.195 E14.24228
G1 X29.998 Y6.133 E14.47445
G1 X29.903 Y2.454 E14.75322
G1 X29.886 Y-0.617 E14.98580
G1 X29.941 Y-4.294 E15.26433
G1 X30.048 Y-7.358 E15.49654
G1 X30.213 Y-10.418 E15.72862
G1 X30.485 Y-14.082 E16.00691
G1 X30.762 Y-16.959 E16.22585
G1 X30.837 Y-17.353 E16.25626
G1 X30.950 Y-17.649 E16.28025
G1 X31.022 Y-17.755 E16.28996
G1 X31.104 Y-17.835 E16.29864
G1 X31.208 Y-17.895 E16.30772
G1 X31.502 Y-17.971 E16.33072
G1 X31.910 Y-17.988 E16.36165
G1 X41.912 Y-17.121 E17.12204
G1 X49.877 Y-16.478 E17.72735 F1500.000
G1 X59.053 Y-15.793 E18.42425
G1 X68.954 Y-15.110 E19.17599
G1 X69.584 Y-15.014 E19.22420
G1 X69.875 Y-14.903 E19.24779
G1 X69.955 Y-14.846 E19.25526
G1 X70.059 Y-14.692 E19.26935
G1 X70.089 Y-14.590 E19.27740
G1 X70.114 Y-14.300 E19.29943
G1 X69.766 Y-10.207 E19.61060
G1 X69.574 Y-7.149 E19.84270
G1 X69.435 Y-3.576 E20.11352
G1 X69.388 Y0.000 E20.38438
G1 X69.435 Y3.576 E20.65524
G1 X69.574 Y7.149 E20.92605
G1 X69.766 Y10.207 E21.15816
G1 X70.114 Y14.300 E21.46933
G1 X70.089 Y14.590 E21.49136
G1 X70.015 Y14.777 E21.50662
G1 X69.955 Y14.846 E21.51352
G1 X69.875 Y14.903 E21.52100
G1 X69.584 Y15.014 E21.54459
G1 X68.954 Y15.110 E21.59279
G1 X59.230 Y15.780 E22.33112
G1 X49.873 Y16.478 E23.04175
G1 X42.727 Y17.057 E23.58478
G1 X42.367 Y16.653 F3600.000
G1 X31.565 Y-17.246 F3600.000
G1 X31.894 Y-17.266 E23.60988 F1500.000
G1 X41.852 Y-16.403 E24.37124
G1 X49.822 Y-15.759 E24.98029
G1 X59.001 Y-15.074 E25.68146
G1 X68.875 Y-14.394 E26.43532
G1 X69.390 Y-14.315 E26.47498
G1 X69.048 Y-10.260 E26.78491
G1 X68.854 Y-7.185 E27.01959
G1 X68.714 Y-3.594 E27.29331
G1 X68.668 Y0.000 E27.56712
G1 X68.714 Y3.594 E27.84094
G1 X68.854 Y7.185 E28.11465
G1 X69.048 Y10.260 E28.34933
G1 X69.390 Y14.315 E28.65927
G1 X68.875 Y14.394 E28.69893
G1 X59.178 Y15.062 E29.43930
G1 X49.817 Y15.760 E30.15428
G1 X41.187 Y16.459 E30.81379
G1 X32.104 Y17.257 E31.50834
G1 X31.571 Y17.247 E31.54892
G1 X31.533 Y17.160 E31.55619
G1 X31.476 Y16.858 E31.57961
G1 X31.152 Y13.411 E31.84333
G1 X30.972 Y10.980 E32.02897
G1 X30.860 Y9.156 E32.16816
G1 X30.719 Y6.107 E32.40069
G1 X30.624 Y2.442 E32.67991
G1 X30.607 Y-0.614 E32.91269
G1 X30.661 Y-4.276 E33.19167
G1 X30.768 Y-7.326 E33.42413
G1 X30.932 Y-10.372 E33.65646
G1 X31.203 Y-14.020 E33.93516
G1 X31.476 Y-16.857 E34.15220
G1 X31.538 Y-17.176 E34.17698
G1 X31.871 Y-16.874 F3600.000
G1 X41.819 Y-16.013 E34.93756 F1500.000
G1 X49.791 Y-15.369 E35.54679
G1 X58.973 Y-14.683 E36.24814
G1 X68.972 Y-13.994 E37.01153
G1 X68.657 Y-10.289 E37.29477
G1 X68.463 Y-7.205 E37.53013
G1 X68.323 Y-3.605 E37.80460
G1 X68.276 Y0.000 E38.07918
G1 X68.323 Y3.605 E38.35377
G1 X68.463 Y7.205 E38.62823
G1 X68.657 Y10.289 E38.86360
G1 X68.972 Y13.994 E39.14684
G1 X59.150 Y14.671 E39.89674
G1 X49.787 Y15.369 E40.61190
G1 X41.154 Y16.069 E41.27160
G1 X32.088 Y16.865 E41.96486
G1 X31.870 Y16.864 E41.98147
G1 X31.543 Y13.378 E42.24818
G1 X31.363 Y10.954 E42.43334
G1 X31.251 Y9.135 E42.57212
G1 X31.110 Y6.093 E42.80412
G1 X31.015 Y2.436 E43.08273
G1 X30.999 Y-0.612 E43.31491
G1 X31.053 Y-4.266 E43.59328
G1 X31.160 Y-7.308 E43.82516
G1 X31.323 Y-10.347 E44.05690
G1 X31.593 Y-13.987 E44.33498
G1 X31.864 Y-16.800 E44.55019
G1 X32.224 Y-16.451 F3600.000
G1 X41.786 Y-15.623 E45.28130 F1500.000
G1 X49.761 Y-14.978 E45.89071
G1 X58.945 Y-14.293 E46.59223
G1 X68.548 Y-13.631 E47.32539
G1 X68.266 Y-10.318 E47.57864
G1 X68.071 Y-7.225 E47.81468
G1 X67.931 Y-3.615 E48.08989
G1 X67.884 Y0.000 E48.36525
G1 X67.931 Y3.615 E48.64061
G1 X68.071 Y7.225 E48.91582
G1 X68.266 Y10.318 E49.15187
G1 X68.548 Y13.631 E49.40512
G1 X59.122 Y14.280 E50.12478
G1 X49.757 Y14.978 E50.84012
G1 X41.121 Y15.678 E51.50002
G1 X32.225 Y16.460 E52.18024
G1 X31.933 Y13.345 E52.41856
G1 X31.753 Y10.927 E52.60323
G1 X31.642 Y9.114 E52.74159
G1 X31.502 Y6.079 E52.97307
G1 X31.407 Y2.430 E53.25107
G1 X31.390 Y-0.610 E53.48264
G1 X31.444 Y-4.256 E53.76040
G1 X31.551 Y-7.291 E53.99170
G1 X31.714 Y-10.321 E54.22287
G1 X31.984 Y-13.954 E54.50032
G1 X32.217 Y-16.376 E54.68565
G1 X32.577 Y-16.027 F3600.000
G1 X41.754 Y-15.232 E55.38728 F1500.000
G1 X49.731 Y-14.587 E55.99687
G1 X58.917 Y-13.902 E56.69856
G1 X68.124 Y-13.267 E57.40149
G1 X67.876 Y-10.347 E57.62474
G1 X67.680 Y-7.245 E57.86147
G1 X67.539 Y-3.625 E58.13742
G1 X67.492 Y0.000 E58.41356
G1 X67.539 Y3.625 E58.68969
G1 X67.680 Y7.245 E58.96565
G1 X67.876 Y10.347 E59.20238
G1 X68.124 Y13.267 E59.42563
G1 X59.094 Y13.889 E60.11506
G1 X49.726 Y14.588 E60.83058
G1 X41.088 Y15.288 E61.49068
G1 X32.579 Y16.036 E62.14134
G1 X32.323 Y13.312 E62.34970
G1 X32.144 Y10.901 E62.53389
G1 X32.034 Y9.093 E62.67184
G1 X31.893 Y6.064 E62.90278
G1 X31.799 Y2.424 E63.18018
G1 X31.782 Y-0.608 E63.41114
G1 X31.836 Y-4.247 E63.68829
G1 X31.943 Y-7.274 E63.91901
G1 X32.105 Y-10.296 E64.14960
G1 X32.374 Y-13.921 E64.42642
G1 X32.569 Y-15.952 E64.58187
G1 X32.929 Y-15.603 F3600.000
G1 X41.721 Y-14.842 E65.25403 F1500.000
G1 X49.700 Y-14.197 E65.86379
G1 X58.889 Y-13.511 E66.56566
G1 X67.700 Y-12.904 E67.23835
G1 X67.485 Y-10.376 E67.43161
G1 X67.289 Y-7.265 E67.66902
G1 X67.148 Y-3.635 E67.94572
G1 X67.100 Y0.000 E68.22263
G1 X67.148 Y3.635 E68.49954
G1 X67.289 Y7.265 E68.77624
G1 X67.485 Y10.376 E69.01366
G1 X67.700 Y12.904 E69.20691
G1 X59.066 Y13.499 E69.86611
G1 X49.696 Y14.197 E70.58181
G1 X41.056 Y14.898 E71.24210
G1 X32.933 Y15.611 E71.86320
G1 X32.714 Y13.279 E72.04161
G1 X32.535 Y10.874 E72.22531
G1 X32.425 Y9.072 E72.36284
G1 X32.285 Y6.050 E72.59327
G1 X32.191 Y2.418 E72.87006
G1 X32.174 Y-0.606 E73.10041
G1 X32.228 Y-4.237 E73.37695
G1 X32.334 Y-7.256 E73.60709
G1 X32.496 Y-10.271 E73.83710
G1 X32.765 Y-13.888 E74.11329
G1 X32.922 Y-15.528 E74.23885
G1 X33.282 Y-15.179 F3600.000
G1 X41.688 Y-14.451 E74.88154 F1500.000
G1 X49.670 Y-13.806 E75.49147
G1 X58.861 Y-13.120 E76.19352
G1 X67.276 Y-12.540 E76.83598
G1 X67.094 Y-10.405 E76.99924
G1 X66.897 Y-7.285 E77.23734
G1 X66.756 Y-3.645 E77.51479
G1 X66.709 Y0.000 E77.79247
G1 X66.756 Y3.645 E78.07015
G1 X66.897 Y7.285 E78.34760
G1 X67.094 Y10.405 E78.58570
G1 X67.276 Y12.540 E78.74896
G1 X59.038 Y13.108 E79.37792
G1 X49.665 Y13.807 E80.09380
G1 X41.023 Y14.507 E80.75429
G1 X33.286 Y15.187 E81.34583
G1 X33.104 Y13.247 E81.49428
G1 X32.926 Y10.848 E81.67750
G1 X32.816 Y9.051 E81.81462
G1 X32.676 Y6.036 E82.04452
G1 X32.582 Y2.411 E82.32070
G1 X32.566 Y-0.605 E82.55044
G1 X32.619 Y-4.227 E82.82638
G1 X32.725 Y-7.239 E83.05594
G1 X32.887 Y-10.246 E83.28536
G1 X33.155 Y-13.854 E83.56093
G1 X33.275 Y-15.105 E83.65660
G1 X33.635 Y-14.755 F3600.000
G1 X41.656 Y-14.061 E84.26981 F1500.000
G1 X49.639 Y-13.416 E84.87993
G1 X58.833 Y-12.730 E85.58215
G1 X66.851 Y-12.177 E86.19437
G1 X66.703 Y-10.434 E86.32764
G1 X66.506 Y-7.305 E86.56643
G1 X66.364 Y-3.655 E86.84462
G1 X66.317 Y0.000 E87.12308
G1 X66.364 Y3.655 E87.40153
G1 X66.506 Y7.305 E87.67972
G1 X66.703 Y10.434 E87.91851
G1 X66.851 Y12.177 E88.05177
G1 X59.010 Y12.717 E88.65049
G1 X49.635 Y13.416 E89.36656
G1 X40.990 Y14.117 E90.02724
G1 X33.640 Y14.763 E90.58922
G1 X33.495 Y13.214 E90.70772
G1 X33.317 Y10.821 E90.89046
G1 X33.207 Y9.030 E91.02716
G1 X33.068 Y6.022 E91.25653
G1 X32.974 Y2.405 E91.53211
G1 X32.957 Y-0.603 E91.76124
G1 X33.011 Y-4.217 E92.03657
G1 X33.117 Y-7.221 E92.26555
G1 X33.278 Y-10.221 E92.49439
G1 X33.545 Y-13.821 E92.76933
G1 X33.628 Y-14.681 E92.83512
G1 X33.988 Y-14.332 F3600.000
G1 X41.623 Y-13.671 E93.41886 F1500.000
G1 X49.609 Y-13.025 E94.02915
G1 X58.805 Y-12.339 E94.73155
G1 X66.427 Y-11.813 E95.31354
G1 X66.313 Y-10.462 E95.41681
G1 X66.115 Y-7.325 E95.65628
G1 X65.973 Y-3.666 E95.93522
G1 X65.925 Y0.000 E96.21445
G1 X65.973 Y3.666 E96.49368
G1 X66.115 Y7.325 E96.77262
G1 X66.313 Y10.462 E97.01208
G1 X66.427 Y11.813 E97.11535
G1 X58.982 Y12.326 E97.68384
G1 X49.605 Y13.025 E98.40008
G1 X40.957 Y13.727 E99.06097
G1 X33.994 Y14.338 E99.59338
G1 X33.885 Y13.181 E99.68193
G1 X33.708 Y10.795 E99.86418
G1 X33.598 Y9.009 E100.00047
G1 X33.459 Y6.008 E100.22931
G1 X33.366 Y2.399 E100.50428
G1 X33.349 Y-0.601 E100.73280
G1 X33.403 Y-4.207 E101.00753
G1 X33.508 Y-7.204 E101.23593
G1 X33.669 Y-10.196 E101.46419
G1 X33.981 Y-14.257 E101.77440
G1 X34.337 Y-13.908 F3600.000
G1 X41.590 Y-13.280 E102.32892 F1500.000
G1 X49.579 Y-12.635 E102.93938
G1 X58.777 Y-11.948 E103.64196
G1 X66.003 Y-11.450 E104.19371
G1 X65.922 Y-10.491 E104.26699
G1 X65.724 Y-7.345 E104.50715
G1 X65.581 Y-3.676 E104.78683
G1 X65.533 Y0.000 E105.06683
G1 X65.581 Y3.676 E105.34684
G1 X65.724 Y7.345 E105.62652
G1 X65.922 Y10.491 E105.86667
G1 X66.003 Y11.450 E105.93995
G1 X58.954 Y11.935 E106.47819
G1 X49.574 Y12.635 E107.19462
G1 X40.924 Y13.336 E107.85570
G1 X34.347 Y13.914 E108.35856
G1 X34.099 Y10.768 E108.59891
G1 X33.990 Y8.988 E108.73478
G1 X33.851 Y5.994 E108.96310
G1 X33.758 Y2.393 E109.23746
G1 X33.741 Y-0.599 E109.46537
G1 X33.794 Y-4.198 E109.73949
G1 X33.900 Y-7.187 E109.96731
G1 X34.060 Y-10.171 E110.19499
G1 X34.332 Y-13.833 E110.47470
G1 X34.699 Y-13.484 F3600.000
G1 X41.558 Y-12.890 E110.99909 F1500.000
G1 X49.548 Y-12.244 E111.60974
G1 X58.749 Y-11.557 E112.31249
G1 X65.579 Y-11.087 E112.83401
G1 X65.332 Y-7.365 E113.11812
G1 X65.189 Y-3.686 E113.39855
G1 X65.141 Y0.000 E113.67933
G1 X65.189 Y3.686 E113.96011
G1 X65.332 Y7.365 E114.24053
G1 X65.579 Y11.086 E114.52464
G1 X58.926 Y11.545 E115.03265
G1 X49.544 Y12.244 E115.74926
G1 X40.891 Y12.946 E116.41054
G1 X34.701 Y13.490 E116.88383
G1 X34.490 Y10.742 E117.09375
G1 X34.381 Y8.967 E117.22920
G1 X34.242 Y5.979 E117.45700
G1 X34.149 Y2.387 E117.73075
G1 X34.133 Y-0.597 E117.95806
G1 X34.186 Y-4.188 E118.23157
G1 X34.291 Y-7.169 E118.45880
G1 X34.451 Y-10.146 E118.68590
G1 X34.693 Y-13.409 E118.93510
G1 X35.060 Y-13.059 F3600.000
G1 X41.525 Y-12.499 E119.42937 F1500.000
G1 X49.518 Y-11.853 E120.04019
G1 X58.721 Y-11.167 E120.74312
G1 X65.152 Y-10.723 E121.23411
G1 X64.941 Y-7.385 E121.48893
G1 X64.798 Y-3.696 E121.77010
G1 X64.750 Y0.000 E122.05165
G1 X64.798 Y3.696 E122.33320
G1 X64.941 Y7.385 E122.61438
G1 X65.152 Y10.723 E122.86918
G1 X58.898 Y11.154 E123.34667
G1 X49.513 Y11.854 E124.06345
G1 X40.858 Y12.556 E124.72493
G1 X35.055 Y13.065 E125.16863
G1 X34.880 Y10.715 E125.34812
G1 X34.772 Y8.946 E125.48316
G1 X34.634 Y5.965 E125.71043
G1 X34.541 Y2.381 E125.98357
G1 X34.525 Y-0.596 E126.21027
G1 X34.578 Y-4.178 E126.48317
G1 X34.682 Y-7.152 E126.70983
G1 X34.842 Y-10.121 E126.93635
G1 X35.055 Y-12.984 E127.15503
G1 X35.421 Y-12.635 F3600.000
G1 X41.492 Y-12.109 E127.61918 F1500.000
G1 X49.488 Y-11.463 E128.23018
G1 X58.693 Y-10.776 E128.93329
G1 X64.736 Y-10.359 E129.39470
G1 X64.550 Y-7.405 E129.62020
G1 X64.406 Y-3.706 E129.90212
G1 X64.358 Y0.000 E130.18445
G1 X64.406 Y3.706 E130.46677
G1 X64.550 Y7.405 E130.74869
G1 X64.736 Y10.359 E130.97419
G1 X58.870 Y10.763 E131.42209
G1 X49.483 Y11.463 E132.13906
G1 X40.825 Y12.165 E132.80073
G1 X35.416 Y12.640 E133.21429
G1 X35.163 Y8.925 E133.49795
G1 X35.025 Y5.951 E133.72470
G1 X34.933 Y2.374 E133.99723
G1 X34.916 Y-0.594 E134.22333
G1 X34.969 Y-4.168 E134.49562
G1 X35.074 Y-7.134 E134.72170
G1 X35.233 Y-10.096 E134.94763
G1 X35.416 Y-12.560 E135.13580
G1 X35.783 Y-12.210 F3600.000
G1 X41.460 Y-11.719 E135.56983 F1500.000
G1 X49.457 Y-11.072 E136.18100
G1 X58.665 Y-10.385 E136.88429
G1 X64.321 Y-9.995 E137.31612
G1 X64.159 Y-7.425 E137.51232
G1 X64.014 Y-3.716 E137.79498
G1 X63.966 Y0.000 E138.07808
G1 X64.014 Y3.716 E138.36118
G1 X64.159 Y7.424 E138.64385
G1 X64.321 Y9.995 E138.84003
G1 X58.842 Y10.372 E139.25835
G1 X49.453 Y11.073 E139.97550
G1 X40.792 Y11.775 E140.63737
G1 X35.777 Y12.215 E141.02078
G1 X35.554 Y8.904 E141.27359
G1 X35.417 Y5.937 E141.49981
G1 X35.324 Y2.368 E141.77174
G1 X35.308 Y-0.592 E141.99722
G1 X35.361 Y-4.158 E142.26891
G1 X35.465 Y-7.117 E142.49441
G1 X35.624 Y-10.071 E142.71976
G1 X35.777 Y-12.135 E142.87742
G1 X36.144 Y-11.786 F3600.000
G1 X41.427 Y-11.328 E143.28132 F1500.000
G1 X49.427 Y-10.682 E143.89267
G1 X58.637 Y-9.994 E144.59613
G1 X63.905 Y-9.631 E144.99838
G1 X63.767 Y-7.444 E145.16527
G1 X63.623 Y-3.726 E145.44869
G1 X63.574 Y0.000 E145.73256
G1 X63.623 Y3.726 E146.01643
G1 X63.767 Y7.444 E146.29984
G1 X63.905 Y9.631 E146.46672
G1 X58.814 Y9.982 E146.85546
G1 X49.422 Y10.682 E147.57279
G1 X40.759 Y11.384 E148.23485
G1 X36.139 Y11.790 E148.58812
G1 X35.946 Y8.883 E148.81008
G1 X35.809 Y5.923 E149.03577
G1 X35.716 Y2.362 E149.30709
G1 X35.700 Y-0.590 E149.53197
G1 X35.753 Y-4.149 E149.80304
G1 X35.856 Y-7.100 E150.02796
G1 X36.015 Y-10.046 E150.25274
G1 X36.138 Y-11.711 E150.37988
G1 X36.505 Y-11.361 F3600.000
G1 X41.394 Y-10.938 E150.75366 F1500.000
G1 X49.397 Y-10.291 E151.36519
G1 X58.609 Y-9.604 E152.06882
G1 X63.490 Y-9.267 E152.44149
G1 X63.376 Y-7.464 E152.57908
G1 X63.231 Y-3.737 E152.86324
G1 X63.182 Y0.000 E153.14788
G1 X63.231 Y3.737 E153.43253
G1 X63.376 Y7.464 E153.71669
G1 X63.490 Y9.267 E153.85426
G1 X58.786 Y9.591 E154.21341
G1 X49.392 Y10.291 E154.93092
G1 X40.726 Y10.994 E155.59318
G1 X36.500 Y11.365 E155.91631
G1 X36.337 Y8.862 E156.10741
G1 X36.200 Y5.909 E156.33258
G1 X36.108 Y2.356 E156.60329
G1 X36.092 Y-0.588 E156.82755
G1 X36.144 Y-4.139 E157.09802
G1 X36.248 Y-7.082 E157.32236
G1 X36.406 Y-10.021 E157.54656
G1 X36.500 Y-11.286 E157.64318
G1 X36.867 Y-10.937 F3600.000
G1 X41.362 Y-10.547 E157.98684 F1500.000
G1 X49.366 Y-9.900 E158.59855
G1 X58.581 Y-9.213 E159.30236
G1 X63.074 Y-8.903 E159.64545
G1 X62.985 Y-7.484 E159.75373
G1 X62.839 Y-3.747 E160.03863
G1 X62.791 Y0.000 E160.32405
G1 X62.839 Y3.747 E160.60947
G1 X62.985 Y7.484 E160.89437
G1 X63.074 Y8.903 E161.00264
G1 X58.758 Y9.200 E161.33221
G1 X49.361 Y9.901 E162.04990
G1 X40.693 Y10.604 E162.71236
G1 X36.861 Y10.940 E163.00533
G1 X36.728 Y8.841 E163.16558
G1 X36.592 Y5.895 E163.39023
G1 X36.500 Y2.350 E163.66033
G1 X36.483 Y-0.586 E163.88399
G1 X36.536 Y-4.129 E164.15385
